agimus/agimus-demos-ur10-pointing/talos/calibration/apriltags/data/measurements-pyrene-20200212-2.csv
joint_names,arm_left_1_joint,arm_left_2_joint,arm_left_3_joint,arm_left_4_joint,arm_left_5_joint,arm_left_6_joint,arm_left_7_joint,arm_right_1_joint,arm_right_2_joint,arm_right_3_joint,arm_right_4_joint,arm_right_5_joint,arm_right_6_joint,arm_right_7_joint,gripper_left_joint,gripper_right_joint,head_1_joint,head_2_joint,leg_left_1_joint,leg_left_2_joint,leg_left_3_joint,leg_left_4_joint,leg_left_5_joint,leg_left_6_joint,leg_right_1_joint,leg_right_2_joint,leg_right_3_joint,leg_right_4_joint,leg_right_5_joint,leg_right_6_joint,torso_1_joint,torso_2_joint
joint_states,-0.564659247699,0.218428153578,0.337569190702,-2.17667223922,0.0430363103731,0.0879990236471,-0.235739099521,-0.265864444624,-0.157408297146,0.00287909019126,-0.509610468709,-0.000338434511367,0.000994360435153,0.102317541206,-2.99978435829e-05,-6.81769001787e-06,0.759843970395,0.589885084166,-1.05335904843e-06,-0.0158855705537,-0.511328861823,0.977234022983,-0.465880472646,0.0141671497449,-1.01125601493e-06,-0.0158832847895,-0.511332521934,0.977240145607,-0.465882790302,0.0141687509457,-0.00108097708461,0.00577256145065,left_gripper,0.00739706804216,0.0142579346819,0.375975085513,-0.349950860162,0.562969801324,0.677264899012,0.319236048772
joint_states,-0.600886771404,0.285196298234,0.251189773798,-2.17808541902,2.38587749781,-0.675037108709,-0.115333197749,-0.265866511462,-0.15739796296,0.00287909019126,-0.50960088133,-0.000336517035382,0.000972543819503,0.102339357821,-2.99978435829e-05,-6.81769001787e-06,0.760454835633,0.632711100687,-1.57795746119e-05,-0.0143639299578,-0.511637575456,0.986206106169,-0.474563762644,0.0126768342517,-1.57374715783e-05,-0.0143730351401,-0.511658492852,0.986216592116,-0.474533483208,0.012652805823,0.0735999188356,-0.0533825314202,left_gripper,0.0270462116535,0.013480408853,0.359223776579,0.520566046027,0.436177721018,0.569173016325,-0.463467436719
joint_states,-0.757388723066,0.224295904593,0.273738332642,-2.17808350154,2.3300626481,-0.423556980112,-0.0161330463886,-0.265866511462,-0.157394862704,0.00287717271528,-0.509601840068,-0.000336517035382,0.000994360435153,0.102361174437,-2.99978435829e-05,-6.81769001787e-06,0.760454835633,0.421657160889,2.18540873842e-05,-0.0247097570662,-0.475463432264,0.994148445097,-0.518682967579,0.0230179151324,-5.10187144886e-06,-0.024693232619,-0.475457504996,0.99412620612,-0.518655564357,0.0229948359493,-0.88022550012,-0.202774044138,left_gripper,0.0175119137387,0.0159153167511,0.332338599507,-0.374325988013,-0.525521887209,-0.55257384754,0.527606807933
joint_states,-0.555606500447,0.213607255641,0.329785196941,-2.17729733639,-1.62352068458,0.202928954891,0.197844319906,-0.265865478043,-0.157394862704,0.00288004892925,-0.50960088133,-0.000335558297389,0.000994360435153,0.102317541206,-2.99978435829e-05,-6.81769001787e-06,0.760542102096,0.608014691771,-1.05335904843e-06,-0.0411051259823,-0.473812485441,0.96735982274,-0.493541981204,0.0393924006466,-1.01125601493e-06,-0.0411037894636,-0.473812310601,0.967361582041,-0.493541422646,0.0393921033564,-1.19362784183,0.0671667869028,left_gripper,0.0160810152702,0.0171154339941,0.382651103072,-0.646539665902,0.163306320302,0.239963150415,0.705503502903
joint_states,-0.536605031986,0.224110922657,0.365170298766,-2.17647090424,-2.03620849468,0.19079891659,0.201596777798,-0.26586754488,-0.157393829285,0.00287909019126,-0.509598963854,-0.000336517035382,0.000994360435153,0.102361174437,-2.99978435829e-05,-6.81769001787e-06,0.757575042368,0.636463558578,-1.05335904843e-06,-0.0209649834225,-0.481299270424,0.989882205906,-0.508566364283,0.019256055069,-1.93132928317e-07,-0.0209636469039,-0.481301971797,0.989886146869,-0.508568681939,0.0192567070243,-1.02626047113,-0.122439470277,left_gripper,0.0184307252674,0.0153226337838,0.386363555562,-0.638686660759,0.0130514494425,0.0962694358838,0.763309376826
joint_states,-0.459904700819,0.302862589817,0.327371094676,-2.17807966659,-2.09195239778,-0.0650663517528,-0.0319282761191,-0.265866511462,-0.157393829285,0.00288004892925,-0.50960088133,-0.000337475773374,0.000994360435153,0.102317541206,-2.99978435829e-05,-6.81769001787e-06,0.760585735327,0.633583765313,5.82887125233e-07,-0.0244097954765,-0.499626505887,0.98042252136,-0.480799394547,0.0227084610873,1.44311324579e-06,-0.0244094082034,-0.499619619881,0.980405736538,-0.480790207346,0.0227100622882,-0.572819585179,-0.00603046197414,left_gripper,0.0110258837905,0.020262352158,0.411208779392,-0.704063932431,-0.145621679176,0.118623579873,0.684847977219
joint_states,-0.515924258242,0.200299923864,0.392667863127,-2.17808541902,-1.74821510661,0.188551805178,0.276405952861,-0.265866511462,-0.157396929541,0.00287909019126,-0.50960088133,-0.000336517035382,0.000972543819503,0.102339357821,-2.99978435829e-05,-6.81769001787e-06,0.760454835633,0.692619527261,2.21913329934e-06,-0.00394026471539,-0.501399212435,0.992923442128,-0.491524796468,0.00221709767883,5.53372868062e-06,-0.00393892819673,-0.501407666237,0.992953563029,-0.491545330146,0.002213952652,0.890825786737,-0.202659474948,left_gripper,0.0185050512998,0.0179432220036,0.403790817989,-0.664290030468,0.173712282132,0.154798407338,0.710338124799
joint_states,-0.507675510689,0.211930017194,0.398002281316,-2.17808350154,-1.90086441103,0.176814465958,0.366595841958,-0.265866511462,-0.157396929541,0.00288100766725,-0.50960088133,-0.000336517035382,0.000994360435153,0.102317541206,-2.99978435829e-05,-6.81769001787e-06,0.760498468865,0.721919242079,1.40101021229e-06,0.0024377160481,-0.502856494184,0.992853628958,-0.489994650632,-0.00413905043731,6.24990159181e-07,0.00243620483015,-0.502856319343,0.992854297428,-0.489994092074,-0.00414029697306,1.08482066708,-0.17050915511,left_gripper,0.0188400363241,0.0175438425056,0.404336531705,-0.665936381694,0.152874129934,0.0799822182257,0.725783081024
joint_states,-0.326959526965,0.786176984618,0.250032577041,-2.15827885083,0.367240273679,-0.391333838797,0.089655722898,-0.265864444624,-0.157392795866,0.00288004892925,-0.50960088133,-0.000332682083412,0.000972543819503,0.10229572459,-2.99978435829e-05,-6.81769001787e-06,0.760585735327,0.705185897876,-1.87148213504e-06,0.0539124537861,-0.499854685529,0.889448324931,-0.389595608065,-0.0556251791218,1.44311324579e-06,0.0539156887959,-0.499859304379,0.889456629216,-0.389597925721,-0.0556311718852,0.666516090445,0.499476608128,left_gripper,0.00269162219447,0.00306762695575,0.398493550584,-0.548165729388,0.30530650438,0.769380994403,0.119813008305
joint_states,-0.591132332899,0.349017132941,0.200941356877,-2.17806528552,2.20052468173,-0.73466191928,-0.333826603483,-0.265866511462,-0.157394862704,0.00287813145327,-0.509599922592,-0.000337475773374,0.000994360435153,0.102317541206,-2.99978435829e-05,-6.81769001787e-06,0.760542102096,0.644317540212,2.21913329934e-06,0.0831074495239,-0.422852684929,0.759735454923,-0.336874605861,-0.0848135301408,2.2612363324e-06,0.0831068875515,-0.422852510089,0.759736123393,-0.336875006041,-0.0848128781855,1.17539695954,0.701346562337,left_gripper,0.0279222671812,0.0119264423147,0.359762599678,0.51767930169,0.460764635548,0.592343458991,-0.410893316836
joint_states,-0.748806181294,0.241738977751,0.260931510539,-2.17802981221,2.15190516066,-0.651322447498,-0.250443498469,-0.265848943345,-0.157367993819,0.00288292514323,-0.50958650026,-0.000332682083412,0.000928910588203,0.102339357822,-2.99978435829e-05,-6.81769001787e-06,0.760585735327,0.498408014746,2.21913329934e-06,0.0107825335644,-0.516685330986,0.990532341053,-0.473814029534,-0.0124990558822,3.0793594199e-06,0.010781971592,-0.51668803236,0.990536282015,-0.47381634719,-0.0124984039269,1.17282418614,-0.118513917567,left_gripper,0.0232006468828,0.0142643077358,0.341918971955,0.462261296318,0.493189199836,0.600384153542,-0.427338010558
joint_states,-1.29322041953,1.55153716066,0.42770014937,-1.37838480225,2.00838495941,0.476094799444,-0.539230039827,-0.265866511462,-0.157398996378,0.00288004892925,-0.509601840068,-0.000338434511367,0.000994360435153,0.102317541206,-2.99978435829e-05,-6.81769001787e-06,0.137372292672,0.0338668177117,-1.87148213504e-06,-0.0581051643055,-0.570212631842,1.14548921703,-0.575221664469,0.056410474635,5.53372868062e-06,-0.0581019292957,-0.570202869621,1.14547243221,-0.575208642317,0.0564044818716,-0.603964668232,-0.202870397307,left_gripper,-0.00569736607887,0.041383542739,0.549135059832,-0.347703932974,0.885686159867,0.307133782035,-0.0181890391841
joint_states,-0.895219900231,1.5762823699,-0.031823929139,-0.231425449671,0.655292144766,-0.116139048989,-0.533034120982,-0.265865478043,-0.157395896122,0.00288004892925,-0.509601840068,-0.000336517035382,0.000994360435153,0.102361174437,-2.99978435829e-05,-6.81769001787e-06,0.344324708727,0.704684115716,5.49162564667e-06,-0.0291246980591,-0.573177049714,1.12033575002,-0.547157485955,0.0274243129154,-1.01125601493e-06,-0.029124310786,-0.573187420992,1.12034732679,-0.547158844872,0.0274268633618,-1.12736993855,-0.202894845125,left_gripper,0.00403053739355,0.040260705922,0.779143888851,0.833229161382,-0.350529957299,-0.41088516962,-0.118453750657
joint_states,-1.43404437707,2.30268473021,0.244235088401,-0.081922723346,-0.0567865306605,-1.29567619072,-0.604287187695,-0.265868578299,-0.157393829285,0.00288004892925,-0.509598005116,-0.000334599559397,0.000972543819503,0.102339357821,-2.99978435829e-05,-6.81769001787e-06,-0.142796685505,0.225678502506,1.40101021229e-06,-0.0622078035166,-0.584303204116,1.2212375974,-0.636923165448,0.0605102661096,1.44311324579e-06,-0.0622102639801,-0.584299194324,1.22122735756,-0.636917813199,0.0605090195738,-1.09259411472,-0.0948043270141,left_gripper,-0.00953326810339,0.0142408074573,0.609585926326,0.850539142067,-0.103161665488,-0.390862393798,0.336403667786
joint_states,-1.35165920998,2.16814189114,-0.206112908783,-0.159538316261,2.37801297006,1.30023927224,-0.646655055287,-0.26586754488,-0.157392795866,0.00288004892925,-0.50960088133,-0.000332682083412,0.000972543819503,0.10229572459,-2.99978435829e-05,-6.81769001787e-06,-0.135335402953,0.510756219203,2.21913329934e-06,-0.119258409539,-0.551081973941,1.08637055194,-0.535275846014,0.117547582695,2.2612363324e-06,-0.119254225284,-0.551080840362,1.08637122041,-0.535276246194,0.117547285405,-1.18360088054,0.28749580305,left_gripper,0.0299867750468,0.0307713078868,0.667375793919,-0.497583420333,0.718051495347,-0.160268088016,0.459485505541
joint_states,-1.48438323225,2.51072946976,-0.316623760956,-1.09403365981,1.92072754476,0.252539938879,-0.199174451691,-0.26586754488,-0.157391762448,0.00288004892925,-0.509598963854,-0.000333640821404,0.000972543819503,0.102339357821,-2.99978435829e-05,-6.81769001787e-06,-0.184553687859,-0.195469446,-5.96209756942e-06,-0.0789980585761,-0.622257723761,1.20455879473,-0.582268388713,0.0772777392762,6.24990159181e-07,-0.0789967220574,-0.6222671363,1.20458346148,-0.582282211225,0.0772850359502,-0.375810432591,-0.00350131115011,left_gripper,-0.0247394437037,0.0317208813312,0.527658567649,0.780104857995,-0.555493157661,-0.287846704618,0.00283495413187
joint_states,-0.0951895623655,2.72067776644,0.0378859102905,-1.79245703001,1.43073956654,-0.285261453508,0.280158410753,-0.265868578299,-0.157395896122,0.00287813145327,-0.50960088133,-0.000334599559397,0.000972543819503,0.102339357821,-2.99978435829e-05,-6.81769001787e-06,0.202691239927,0.801811688589,-1.87148213504e-06,0.0521610957703,-0.621808075642,1.07981356811,-0.457934452165,-0.0538700241238,-1.82937910154e-06,0.0521652800255,-0.621761881378,1.07973242427,-0.457897461563,-0.0538731691506,0.506707889439,0.510962289277,left_gripper,0.0103198987935,-0.00536774187214,0.456440759686,0.916343267842,0.00681788541108,-0.348011233059,0.197880553831
joint_states,0.189881035226,2.79939119711,0.369659110046,-2.11013007011,0.632463634428,-0.0115938267948,0.123035144842,-0.265858244112,-0.157390729029,0.00287909019126,-0.50960088133,-0.000336517035382,0.0010161770508,0.102339357821,-2.99978435829e-05,-6.81769001787e-06,0.356934712572,0.866737936763,1.44909796025e-05,0.0246880314367,-0.600461774241,1.18272581662,-0.582258801333,-0.0264453713126,-1.2464979231e-05,0.0247140483394,-0.600458723186,1.18275048337,-0.582297551033,-0.0264532625671,1.06810363207,0.148383879086,left_gripper,0.0055059277116,0.00280283621532,0.337214297263,0.80799359148,0.303108506384,-0.487062134614,-0.134320759788
joint_states,-0.239590181799,2.76833903393,0.555052193118,-2.14388819357,-2.23748978377,-1.14151998454,-0.321412949178,-0.265865478043,-0.157395896122,0.00287909019126,-0.509599922592,-0.000333640821404,0.000972543819503,0.102339357821,-2.99978435829e-05,-6.81769001787e-06,-0.0667875965805,0.40876354104,2.43084566449e-05,0.0451157953942,-0.617483208558,1.1724556448,-0.554977911759,-0.0468161805379,-8.37436379619e-06,0.045133269087,-0.617503167216,1.17246285826,-0.554964889607,-0.0468449551942,1.09978752588,0.241011870856,left_gripper,0.0114026033099,0.0248860327034,0.265035302435,-0.190983292848,-0.780536782332,-0.241203776182,0.544158480256
joint_states,0.177031507905,2.16223487022,0.0808766806089,-1.70636139956,-0.636149023271,0.898289945501,-0.21337706848,-0.265869611717,-0.157395896122,0.00288004892925,-0.509602798805,-0.000337475773374,0.000994360435153,0.102317541206,-2.99978435829e-05,-6.81769001787e-06,0.299033414637,1.12925727288,-1.05335904843e-06,0.0288590163266,-0.588580134301,1.15531869321,-0.566732998284,-0.030566046189,1.44311324579e-06,0.0288603528452,-0.588573248294,1.15530736254,-0.566726687298,-0.0305644449881,0.264496157984,0.158614572204,left_gripper,0.0188471482816,0.00740251828008,0.497853323155,-0.426058676143,-0.308540994603,0.588580892497,0.61388027507
joint_states,-0.0201840377611,1.99190474379,-0.0829294578254,-0.94910507245,-0.732617240069,-0.0487475232466,0.33258373816,-0.265858244112,-0.157387628773,0.00288100766725,-0.509601840068,-0.000332682083412,0.000994360435153,0.102317541206,-2.99978435829e-05,-6.81769001787e-06,0.120049899845,1.24337998934,6.30974873372e-06,0.0791870654558,-0.578549817424,1.02030874892,-0.441733697569,-0.080886501354,2.2612363324e-06,0.07918935122,-0.578548683845,1.02030723573,-0.441727386583,-0.080893443363,0.431858735001,0.607086798505,left_gripper,0.0117648058553,0.024178568973,0.77194817935,0.846450456329,0.437911310541,-0.0781459569725,-0.292657681412
joint_states,0.0077658026695,1.93039153289,-0.174917491985,-0.994752505745,-2.06418255183,-0.145089697957,0.590456135142,-0.265864444624,-0.157391762448,0.00288004892925,-0.50960088133,-0.000334599559397,0.0010161770508,0.102339357821,-2.99978435829e-05,-6.81769001787e-06,0.280489291335,1.24355452227,2.10359642971e-05,0.0491254085428,-0.579720436513,1.12239960186,-0.542661963508,-0.0508352861418,4.71560559312e-06,0.0491343390257,-0.579713550506,1.12236972706,-0.542638395238,-0.050847923624,0.242928867475,0.187584278752,left_gripper,0.00409523535604,0.00759647165884,0.741449656173,-0.384237327477,-0.746765925544,-0.142962584551,0.523702232226
joint_states,-0.407675722953,1.53057529705,-0.540079701065,-0.335228012112,-1.46056974044,-0.833185755555,0.61087648739,-0.265854110438,-0.157385561936,0.00288196640524,-0.50960088133,-0.000332682083412,0.000994360435153,0.102317541206,-2.99978435829e-05,-6.81769001787e-06,0.759625804239,1.24357633888,1.40101021229e-06,0.111782258707,-0.44374550326,0.825735080587,-0.381939126457,-0.113487390079,-1.93132928317e-07,0.111788341454,-0.443762585704,0.825771746473,-0.381954866445,-0.113481991896,0.913047415925,0.708566338789,left_gripper,0.0266220315891,0.00574839251317,0.836830519113,0.662430360909,0.618816898152,0.414852088356,-0.0784181630391
joint_states,-1.02955812241,2.31473129125,-0.507376189405,-0.695086482618,-2.09486887875,-0.562637904881,0.339150539471,-0.265872711973,-0.157398996378,0.00288004892925,-0.50960088133,-0.000333640821404,0.000994360435153,0.102317541206,-2.99978435829e-05,-6.81769001787e-06,-0.170416520918,0.416312090055,-5.96209756942e-06,0.128615229816,-0.547076366608,0.976786782362,-0.429707288192,-0.130342193835,-1.16468561444e-05,0.128610870861,-0.54710399517,0.976829993233,-0.429724945656,-0.130333947915,1.19352861246,0.533508930645,left_gripper,-0.00065111086989,0.0501446827745,0.686054562936,0.119490846975,0.892504507589,0.255385043167,-0.352045623675
joint_states,-1.51150427093,2.70682375621,-1.16485857112,-0.838979632949,-0.503943847805,0.590566581759,-0.049817900952,-0.26586754488,-0.15739796296,0.00287909019126,-0.509601840068,-0.000335558297389,0.000972543819503,0.102339357821,-2.99978435829e-05,-6.81769001787e-06,-0.184553687859,0.0515382763881,5.82887125233e-07,0.130207114582,-0.546522216049,0.893557484489,-0.347031476153,-0.131910347462,3.89748250651e-06,0.130202755627,-0.546528752374,0.89357342459,-0.347040504975,-0.131908746261,1.1682898348,0.70888607791,left_gripper,-0.0281400417511,0.0220174447475,0.607973358786,0.524075465352,0.747132489068,-0.302004334299,-0.275556405224
joint_states,-1.28477532244,2.68711336256,-1.87407541363,-0.969373752347,2.38605486434,1.29825396021,0.646306671206,-0.265863411206,-0.157387628773,0.00288100766725,-0.509595128902,-0.000332682083412,0.000972543819503,0.102339357821,-2.99978435829e-05,-6.81769001787e-06,-0.184640954321,0.764810708447,5.82887125233e-07,0.0270791809446,-0.634310019064,1.22768767981,-0.593360028548,-0.0288013987356,1.44311324579e-06,0.0270776697266,-0.634314637913,1.2276959841,-0.593364263679,-0.0288026452714,1.19378315739,-0.0819131359679,left_gripper,0.0288915762938,0.0318746507967,0.640018867506,0.71716394333,-0.426929788996,0.344001303682,-0.430197555456
joint_states,-1.4759908395,2.41745103683,-2.30175021603,-0.179798367517,2.34348210378,-1.29790148551,-0.620082417426,-0.265865478043,-0.157396929541,0.00288004892925,-0.509601840068,-0.000334599559397,0.000972543819503,0.102339357821,-2.99978435829e-05,-6.81769001787e-06,-0.168671191666,0.288074023265,-1.05335904843e-06,0.0503651232142,-0.654836599481,1.20569434958,-0.550861090819,-0.0520721530766,-1.01125601493e-06,0.0503645612417,-0.654835465903,1.20568956389,-0.550856697309,-0.0520733996123,1.193804729,0.0225907433138,left_gripper,-0.0127122643055,0.0159598614991,0.623675709055,0.863204587576,-0.137080803139,-0.324904603009,0.36128062824
joint_states,-1.30159937783,2.74361552649,-2.26390499252,-1.41242671215,-0.688061809347,-1.3013703274,0.592899596095,-0.265865478043,-0.157396929541,0.00288100766725,-0.509601840068,-0.000336517035382,0.000994360435153,0.102361174437,-2.99978435829e-05,-6.81769001787e-06,-0.184510054628,0.822275674069,-1.87148213504e-06,0.0109980123013,-0.622655600028,1.2248417023,-0.602191922934,-0.0127088391459,-1.01125601493e-06,0.0109974503289,-0.622655425187,1.2248434616,-0.602191364376,-0.0127091364361,1.19380424963,-0.149736179028,left_gripper,0.0122475830654,0.0356711702946,0.643326451538,-0.0546896457547,0.882989180764,0.466193398732,-0.00169241829014
joint_states,-0.982764926565,2.76625049487,-1.66206488768,-1.85309049687,-1.39363928245,0.336381192822,0.112606802562,-0.265865478043,-0.157395896122,0.00287813145327,-0.509601840068,-0.000335558297389,0.000994360435153,0.102317541206,-2.99978435829e-05,-6.81769001787e-06,0.549444529067,0.899222877466,1.28547334284e-05,0.0124275760801,-0.603494262511,1.17490455991,-0.571398217355,-0.0141260627327,-5.91999453636e-06,0.0124431512818,-0.603506551264,1.17490631921,-0.571401493749,-0.0141206645497,0.685789600307,-0.0978603043649,left_gripper,-6.32876907274e-05,-0.0185979569355,0.56790513397,0.194017804115,0.903236521333,-0.326804127024,-0.199298622116
joint_states,-1.41022511092,2.77524847094,-1.7820931319,-2.17766549178,-0.781788994225,1.30034835531,0.0606614406992,-0.265869611717,-0.157396929541,0.00288100766725,-0.509599922592,-0.000334599559397,0.000972543819503,0.10229572459,-2.99978435829e-05,-6.81769001787e-06,0.726595448145,0.546491835638,3.03725638595e-06,0.0195583085545,-0.616882079837,1.1603539681,-0.543471138374,-0.0212577444526,1.44311324579e-06,0.0195596450731,-0.616880946259,1.16035027325,-0.543468662339,-0.0212561432518,1.18273705761,-0.0814697196464,left_gripper,-0.00153467023747,-0.0214321719044,0.350999213804,-0.347554868814,-0.55209342229,0.6976587644,0.296092409027
joint_states,-1.42115557984,2.79949143872,-2.30425635715,-1.13785277976,-1.85011457414,1.30150463594,-0.646044190049,-0.265868578299,-0.157396929541,0.00288100766725,-0.509598963854,-0.000333640821404,0.000994360435153,0.102317541206,-2.99978435829e-05,-6.81769001787e-06,-0.11543864948,0.892416093383,1.40101021229e-06,-0.0168832276132,-0.624043852641,1.23307311139,-0.609017178702,0.0151752485052,6.24990159181e-07,-0.0168828403401,-0.624042719062,1.2330683257,-0.609017578882,0.0151740019695,0.395842304209,-0.174592899589,left_gripper,0.0344562910743,0.0108040035612,0.578054811126,-0.418138815535,0.665792724412,-0.459643783933,0.413046693431
joint_states,-0.632048476956,2.51092891956,-2.0957864506,-0.471572059491,-2.28768451136,1.30154826917,0.645368556733,-0.265869611717,-0.15739796296,0.00287909019126,-0.50960088133,-0.000337475773374,0.000972543819503,0.102382991053,-2.99978435829e-05,-6.81769001787e-06,-0.184510054628,1.19180550995,-2.68960522209e-06,0.00624988612492,-0.57797361589,1.21748732117,-0.639505046861,-0.00797969788024,-5.10187144886e-06,0.00625217188912,-0.577990698334,1.21752071456,-0.639522704325,-0.00798189366153,1.11671692135,-0.151447526345,left_gripper,0.0365455947789,-0.00391169131187,0.709746384033,-0.274180057998,0.822105796949,-0.459396090043,0.194737225183
joint_states,-0.802529482508,2.48968803291,-1.76397106637,-1.78831528189,2.13642058334,-1.08488405031,-0.629463562155,-0.265868578299,-0.157395896122,0.00288100766725,-0.509599922592,-0.000335558297389,0.000972543819503,0.10229572459,-2.99978435829e-05,-6.81769001787e-06,0.760280302708,0.987689253927,3.03725638595e-06,0.0111014800648,-0.565289512251,1.15332029122,-0.588035197738,-0.0128066114362,-1.82937910154e-06,0.011103765829,-0.565282626244,1.15332423218,-0.588041350345,-0.0128135534452,1.00081077112,-0.202879505318,left_gripper,-0.00584461965801,3.50965746077e-05,0.572382206703,-0.512978145585,0.564578219215,0.425048070532,-0.48727712267
joint_states,-0.371555419458,1.38011912396,-0.223928178158,-0.967785602863,-1.59572830829,1.29066177797,0.334665861416,-0.265865765664,-0.157398959038,0.00288100766725,-0.509599443223,-0.000338913880363,0.001019585897,0.102305951129,-1.15900741284e-05,1.15900794366e-05,0.76048483348,0.879191788822,-1.65976976989e-05,-0.0353432649002,-0.543611008135,1.00312066783,-0.459505823735,0.0336233015673,6.83761234921e-06,-0.0353347497122,-0.543629528685,1.00315482289,-0.459507182653,0.0336384888449,-1.01340810897,0.152671355389,left_gripper,-0.00110930981798,-0.00920825450888,0.668488884161,-0.455012638413,-0.258261649086,0.341308482831,0.780879593179
joint_states,-0.834988906539,1.20009863097,1.52508987153,-2.12053477418,-0.992401200819,1.16916504541,0.570088960894,-0.265865765664,-0.157387591433,0.00288100766725,-0.509599443223,-0.0003341201904,0.000997769281348,0.102327767744,-1.15900741284e-05,1.15900794366e-05,0.170389013381,1.24333292063,5.82887125677e-07,-0.0624176461082,-0.550258897374,1.05759784794,-0.507334385963,0.0607119214583,2.92627654552e-07,-0.062419572621,-0.550252490737,1.05759055143,-0.507329033715,0.0607119208074,-1.14971045125,0.216040581105,left_gripper,0.0415147753767,-0.0217130147871,0.413093195027,-0.0297290162518,0.720271417924,0.0688551629975,0.689626157162
joint_states,-1.36718916992,1.68496625399,2.30412105592,-2.17761324056,2.38585113251,1.30146100271,0.646578015363,-0.265867832502,-0.157391725107,0.00287813145327,-0.509597525747,-0.0003341201904,0.000997769281348,0.102327767744,-1.15900741284e-05,1.15900794366e-05,-0.18443642355,0.922323237962,-2.35235961377e-07,-0.018597624381,-0.554741956227,1.16633622366,-0.611580844094,0.0168975952044,1.92887382777e-06,-0.0185957539117,-0.55473554959,1.16632456383,-0.61157357437,0.0168985437989,-1.19284263542,-0.202667624221,left_gripper,0.018413029158,0.00895601724995,0.351570296947,-0.22983960047,-0.501015292404,-0.462896496424,0.694178844702
joint_states,-1.51004586191,2.39810055242,2.26068638991,-1.85358664378,2.35566622556,-1.29153103374,-0.64588192897,-0.265865765664,-0.157396892201,0.00287813145327,-0.509602319437,-0.000335078928393,0.000975952665698,0.10234958436,-1.15900741284e-05,1.15900794366e-05,-0.161179911267,1.2377042338,-2.35235961377e-07,-0.00490570675443,-0.566169154359,1.21136790003,-0.645197074322,0.00319808361354,-1.34361851956e-06,-0.00490478553069,-0.566161788983,1.21135514936,-0.645192680812,0.00319903220809,-1.17235488389,-0.200191683356,left_gripper,0.0230367174728,-0.0189099925772,0.391223441861,0.876116127916,-0.38885867347,0.216604782976,0.185180534787
joint_states,-1.17148551572,2.26502620124,2.28949838405,-0.116227806822,2.36984308425,-1.30154486033,-0.632377443883,-0.265867832502,-0.157375190409,0.00288196640524,-0.509592732057,-0.000335078928393,0.000975952665698,0.102305951129,-1.15900741284e-05,1.15900794366e-05,-0.184480056781,0.734591260294,-4.32585139576e-06,-0.0026227712378,-0.66175245599,1.15047008993,-0.488679262106,0.000983493775582,-4.61611086688e-06,-0.00262090076853,-0.661722080903,1.15041479687,-0.488651858884,0.000983493124593,0.0838622503066,0.201632666555,left_gripper,0.0230784197578,-0.0115555500869,0.67810973479,0.836565476345,0.379732690304,0.267214437336,0.29078812249
joint_states,-1.47027784596,2.16222998267,2.22020655439,-1.76681510304,1.87347278722,-1.27700116772,-0.63916241135,-0.265865765664,-0.157381390921,0.00288196640524,-0.509585062153,-0.0003341201904,0.000975952665698,0.102305951129,-1.15900741284e-05,1.15900794366e-05,-0.105940240441,1.19873975825,2.21913329934e-06,-0.00505378905821,-0.618455848252,1.20604573664,-0.587580755929,0.00333667346195,1.92887382777e-06,-0.0050509693434,-0.618459028994,1.2060515301,-0.587581156109,0.0033376220565,1.16132316518,-0.184953981073,left_gripper,0.0313549897372,-0.0212491944289,0.392769645827,0.826882970278,-0.178707681235,0.456907251836,0.274888852724
joint_states,-1.45466392378,2.03751805509,2.18701600383,-1.78349043294,-1.56354443262,1.26592173582,0.622252488913,-0.265865765664,-0.157396892201,0.00287717271528,-0.509601360699,-0.0003341201904,0.000997769281348,0.102327767744,-1.15900741284e-05,1.15900794366e-05,-0.0742188812863,1.19256565602,-1.87148213504e-06,0.0450682737895,-0.619184489126,1.16407165896,-0.544884318174,-0.0467739984393,-2.97986469366e-06,0.0450691950133,-0.619185752393,1.16407308909,-0.544885677092,-0.0467739990903,1.16897533247,0.0891957097548,left_gripper,0.0313768228369,-0.0250343194859,0.38010273971,0.0910863246047,0.739583607316,-0.323904233137,0.582928312073
joint_states,-1.12300578066,0.695286028288,1.99210456997,-2.17396044881,-2.38687218847,0.313451929773,0.59227645901,-0.265867832502,-0.157396892201,0.00287909019126,-0.509599443223,-0.000335078928393,0.000975952665698,0.10234958436,-1.15900741284e-05,1.15900794366e-05,0.552397953411,1.19721259515,-1.05335904799e-06,0.011433656675,-0.53641663824,1.06188263125,-0.5254641214,-0.0131555184989,-2.16174160617e-06,0.0114336286532,-0.536426530148,1.06190151468,-0.525472191484,-0.0131545699043,1.19361010518,-0.202625919119,left_gripper,0.0274182939367,-0.00733903944906,0.434428644739,-0.548533474349,0.259988769923,-0.492777596712,0.623447758205
joint_states,-1.5117365348,0.631054926383,2.11756310618,-0.670698584935,1.39668183747,-1.30025768,0.335473076195,-0.265867832502,-0.157395858782,0.00288004892925,-0.509600401961,-0.000336996404378,0.000997769281348,0.102327767744,-1.15900741284e-05,1.15900794366e-05,0.760441200249,0.429573156892,5.82887125677e-07,-0.0208112649734,-0.531062086552,0.978864954553,-0.447786210515,0.019092250886,-1.34361851956e-06,-0.0208141407318,-0.531066226032,0.978878383825,-0.447791404385,0.0190913009895,0.271726480554,-0.189096687938,left_gripper,0.0114461749473,-0.00391899140342,0.638579606831,0.0611655121968,0.677075525842,0.73327640274,-0.0115425130726
joint_states,-0.68564441235,2.18902549449,1.67245748834,-0.216495502284,1.74739011257,1.30017382239,0.209438487585,-0.265870932757,-0.157396892201,0.00288004892925,-0.509596567009,-0.0003341201904,0.000997769281348,0.102327767744,-1.15900741284e-05,1.15900794366e-05,-0.184043724468,0.933842411025,-1.05335904799e-06,0.0155619255156,-0.586742712938,1.21493382585,-0.628167011363,-0.0172980260226,-1.34361851956e-06,0.0155609482483,-0.586769862131,1.21498434337,-0.628196173682,-0.0172980266736,0.614942218249,-0.200530597236,left_gripper,0.00730597382461,-0.0307983200558,0.72052307112,0.028089050952,0.936642086985,-0.286534736495,-0.199525564494
joint_states,-0.22907489185,2.13743103566,1.76898227068,-0.0525177497492,-1.24367204756,-1.3003885797,-0.646274628052,-0.265865765664,-0.157396892201,0.00288100766725,-0.509601360699,-0.000336037666386,0.000975952665698,0.10234958436,-1.15900741284e-05,1.15900794366e-05,-0.184567323244,1.24339837048,-1.87148213504e-06,0.0377657278729,-0.559690961744,1.1856362927,-0.62593794553,-0.039477147996,-2.16174160617e-06,0.0377675983422,-0.55969222501,1.18564099532,-0.625940263186,-0.0394761994014,1.06446426265,0.07106501558,left_gripper,0.00390723003839,-0.0158817463541,0.750705144266,0.847276533236,-0.189034091076,-0.392270904418,0.304158061188
joint_states,0.265701149043,0.158265900391,-0.00220659507692,-0.50923751963,-0.000195582550455,-0.00155818359584,0.102209821666,0.506385245845,-0.268542099926,-0.390404821683,-2.17744018835,-1.34031044036,0.282846626863,0.0183556141079,-1.15900741284e-05,1.15900794366e-05,0.755903344194,-0.651614681487,-1.87148213504e-06,0.0105527568166,-0.480099409826,0.995559028848,-0.515496122493,-0.0122717709039,-2.16174160617e-06,0.0105546272858,-0.480115054163,0.995591002244,-0.515512821218,-0.0122717715549,1.19371077267,-0.202797533219,right_gripper,-0.0142110096841,0.00123895587056,0.346362943552,-0.0494525180771,0.562100846499,0.793388139576,0.228325090171
joint_states,0.265905765933,0.157453633343,-0.00290647381139,-0.509404340041,0.000295291301668,-0.00101276820459,0.102537070901,0.467639280924,-0.326748371183,-0.247312217575,-2.17808446028,-2.24511270954,0.356346804987,-0.06566017276,-1.15900741284e-05,1.15900794366e-05,0.76048483348,-0.672449549433,4.67350256006e-06,0.00751612034351,-0.507894182965,0.990066695858,-0.482175183566,-0.00922659122101,-4.61611086688e-06,0.00751704156725,-0.507920373419,0.99010630507,-0.482188047339,-0.00922754111754,-0.162495543597,-0.0786510299486,right_gripper,-0.0199524449543,-0.00162600584158,0.348693821067,-0.413632196443,0.48191413819,0.611280861452,0.472231805261
joint_states,0.265898532002,0.157453633343,-0.00290839128738,-0.509404340041,0.000294332563676,-0.00101276820459,0.102537070901,0.565289074682,-0.218551506826,-0.33778352823,-2.17808350154,-0.0448943446025,-0.0877740397982,-0.235851591445,-1.15900741284e-05,1.15900794366e-05,0.76048483348,-0.590397257973,3.0372563864e-06,0.0158770750339,-0.511620797541,0.977108716993,-0.465487390069,-0.0175818504382,1.11075074116e-06,0.0158779962577,-0.51162110207,0.977107965465,-0.465486831511,-0.0175818510892,0.000836498900251,0.00601656026972,right_gripper,-0.0216000197726,0.000873853160685,0.333714651351,0.314145108647,0.524037678811,0.733920354608,-0.296746145707
joint_states,0.265899565421,0.157453633343,-0.00290839128738,-0.509405298779,0.000293373825684,-0.000990951588945,0.102558887516,0.426299435226,-0.347198692572,-0.266076637563,-2.17723310094,2.16584425233,-0.0258584845837,0.390459810633,-1.15900741284e-05,1.15900794366e-05,0.757823206371,-0.728758234425,2.21913329934e-06,-0.0019003953841,-0.505230808822,0.99483689887,-0.489598691841,0.000201315453046,1.11075074116e-06,-0.00190706812466,-0.505227278399,0.994830693189,-0.489596215807,0.000201314802058,-0.621677352643,-0.111051580403,right_gripper,-0.0228729017934,-0.00240126106698,0.368309684911,-0.671103487978,-0.0492747691565,-0.012472997503,0.739619178957
joint_states,0.265901632258,0.157453633343,-0.00290647381139,-0.509404340041,0.000294332563676,-0.00101276820459,0.102537070901,0.462824583499,-0.299736874874,-0.388523777742,-2.17808350154,1.93526488894,-0.367026720117,0.0908740445282,-1.15900741284e-05,1.15900794366e-05,0.760441200249,-0.717522677365,-3.5077283087e-06,-0.00489716354459,-0.50188385449,0.997227999945,-0.495342491154,0.00319238814032,-2.16174160617e-06,-0.00489814081193,-0.501879365329,0.99721634011,-0.495336180168,0.00319048899825,-1.16450617531,-0.1592578854,right_gripper,-0.0236891899969,-0.0040204262177,0.360503664614,-0.568690690467,-0.060339936211,-0.164587132066,0.803654818086
joint_states,0.265900598839,0.157452599924,-0.00290743254938,-0.509404340041,0.000294332563676,-0.00101276820459,0.102537070901,0.640217092888,-0.212809832884,-0.419898478544,-2.17808350154,0.150609589338,-0.0313344551118,-0.471929189393,-1.15900741284e-05,1.15900794366e-05,0.76048483348,-0.584070439435,3.85537947301e-06,-0.00174471911602,-0.509204777801,0.99689965988,-0.487696555664,3.70959751352e-05,1.92887382777e-06,-0.00174569638336,-0.509271235251,0.997055987985,-0.487784201001,4.27907973695e-05,-1.19378076054,-0.198003843257,right_gripper,-0.0237826899036,0.00161998782156,0.317240875667,0.27297645196,0.417255424923,0.767316537863,-0.403245703969
joint_states,0.265903699095,0.157456733599,-0.00290839128738,-0.509406257517,0.000295291301668,-0.000990951588945,0.102558887516,0.470131886674,-0.716044405313,-1.15093044534,-2.17808541902,-1.18062687529,0.70118023195,0.537263817341,-1.15900741284e-05,1.15900794366e-05,0.518625832385,-1.0257914565,-3.5077283087e-06,-0.0570069465469,-0.509627581255,0.993125385372,-0.483480025973,0.0553145113346,-2.09785726044e-05,-0.0570041268321,-0.5096106285,0.993052639013,-0.483456457703,0.0552907795452,-1.04541461811,0.254317716084,right_gripper,-0.0226284254603,-0.000883150348091,0.409643740916,0.286907887969,0.377034322737,0.880426091949,0.0194648378784
joint_states,0.265904732514,0.157453633343,-0.00290839128738,-0.509406257517,0.000294332563676,-0.00101276820459,0.102537070901,0.269804717495,-0.87974101752,-1.220302809,-2.15993267387,-0.0278201796953,1.01280876989,-0.385142692338,-1.15900741284e-05,1.15900794366e-05,0.594460388384,-1.24332493114,5.49162564667e-06,-0.0298129604013,-0.547528411572,0.96225814672,-0.414727965798,0.0281281191533,-4.61611086688e-06,-0.0298129884231,-0.547532551052,0.962280302639,-0.414737953358,0.0281243215202,-0.153484844575,0.488279027745,right_gripper,-0.0283864319714,-0.00672500855429,0.414215974635,0.413856229456,0.161579007885,0.827929604837,-0.342268629859
joint_states,0.265900598839,0.15745570018,-0.00290935002537,-0.509406257517,0.000296250039661,-0.000990951588945,0.102558887516,0.654584712185,-0.823091074729,-1.4783078314,-0.991446777147,0.351009798205,1.21923758717,-0.327110494709,-1.15900741284e-05,1.15900794366e-05,0.760397567017,-0.913915851446,-5.14397448237e-06,-0.0552128724819,-0.504858818481,0.950684432118,-0.445828467535,0.0535204372696,-5.25495432946e-07,-0.0552119512581,-0.504843783202,0.95065531899,-0.445814486645,0.0535251828463,-0.686368198682,0.180418191627,right_gripper,-0.0417742861621,-0.0128897969618,0.683657397601,0.514134658545,0.466143523276,0.715739305859,0.0780577647596
joint_states,0.265903699095,0.157453633343,-0.00290743254938,-0.509406257517,0.000296250039661,-0.000990951588945,0.102558887516,1.07320089986,-0.960532653067,-0.866280176653,-1.10345134311,-1.33670270929,-0.0606559865454,0.579457152008,-1.15900741284e-05,1.15900794366e-05,0.510597317826,-0.361911842272,1.93997181235e-05,0.00851662513957,-0.560641071094,0.968021005744,-0.407351435685,-0.0101834307224,-1.11610955624e-05,0.00851090164455,-0.560672055239,0.968036616678,-0.407334578581,-0.0101691926903,-0.103141512593,0.126518421062,right_gripper,-0.0321990400408,-0.00618882116601,0.620106518451,0.41117283401,0.78142283925,0.335970723547,0.327778766533
joint_states,0.265900598839,0.157452599924,-0.00290743254938,-0.509404340041,0.000294332563676,-0.00101276820459,0.102537070901,0.987788849588,-0.775928948435,-0.656201507752,-1.05638881254,-1.61347598663,1.27109568257,0.0982916938492,-1.15900741284e-05,1.15900794366e-05,0.638922651079,-0.398869189182,5.82887125677e-07,0.0214462985998,-0.531086055002,0.9188616257,-0.387769212189,-0.023147277022,-2.16174160617e-06,0.0214500675602,-0.53108156584,0.918854329188,-0.387770571107,-0.0231548716373,0.065326009961,0.193050044047,right_gripper,-0.0277009286729,0.0011244121539,0.543293075802,0.0847816770901,0.45074259372,0.828757913113,0.320629853396
joint_states,0.265902665677,0.157443299156,-0.00290935002537,-0.509399546351,0.000294332563676,-0.000969134973295,0.102580704132,0.283472712375,-1.13974191242,-0.757463414512,-1.46265883052,-0.558343600234,0.865459347794,-0.646025782279,-1.15900741284e-05,1.15900794366e-05,0.420058362879,-1.03283822335,1.61272257762e-05,-0.00542209632659,-0.555452381079,1.07573400053,-0.520293647407,0.00371257469462,-1.1979218649e-05,-0.00543256604929,-0.555501581245,1.07580197134,-0.520308428656,0.00369453837843,1.02847707337,-0.127617134805,right_gripper,-0.036968744962,0.00276570754906,0.570148606769,0.266238664426,0.34033125976,0.901634141768,-0.0186408581785
joint_states,0.265903699095,0.157454666761,-0.00290743254938,-0.509404340041,0.000295291301668,-0.000990951588945,0.102558887516,0.341896001545,-1.23135034083,-1.22706766427,-0.687572852971,-1.31115713548,0.308110267785,0.273304584593,-1.15900741284e-05,1.15900794366e-05,0.67723262816,-1.24336856438,1.40101021229e-06,-0.0162653280964,-0.56089130171,1.06488787006,-0.503987431631,0.0145624511832,1.11075074116e-06,-0.0162663053637,-0.560897358667,1.06489366352,-0.503984955597,0.0145596027956,1.19362496562,-0.202808558706,right_gripper,-0.0470477304244,-0.0234156986469,0.789362090016,0.0320110141227,0.882923849635,0.451268274585,0.125609374941
joint_states,0.265886130979,0.157431931551,-0.00291126750135,-0.509404340041,0.000292415087691,-0.00101276820459,0.102537070901,0.733349813788,-1.45246885955,-1.17725163819,-1.15512827964,1.47798809228,0.278308770808,-0.0357059594727,-1.15900741284e-05,1.15900794366e-05,-0.0117797272962,-0.811814090204,4.67350256006e-06,0.0184969927162,-0.542125922985,0.827334378064,-0.285213009139,-0.0202311947321,6.0194892626e-06,0.0184979139399,-0.542148278487,0.827378350598,-0.285231625341,-0.0202283476465,0.232814181655,0.708641599722,right_gripper,-0.0508391018835,0.0197004727365,0.679786435089,0.92880030645,-0.132231798942,0.15919901183,-0.307409200772
joint_states,0.265912999863,0.15746293411,-0.00290839128738,-0.509400505089,0.000292415087691,-0.000990951588945,0.102558887516,1.51108827825,-0.594382096129,-1.45640546197,-1.3040059088,1.40425059455,-0.298697079902,0.435925637648,-1.15900741284e-05,1.15900794366e-05,0.544194905927,-0.313042623216,-1.05335904799e-06,-0.0249433307962,-0.475914518489,0.735554057686,-0.259615663479,0.0232395046374,6.83761234921e-06,-0.0249376633448,-0.475917699232,0.735575122774,-0.259627568515,0.023240453232,-0.547924994468,0.5575277142,right_gripper,-0.0485003417112,0.00506979101484,0.595719240524,0.852891054346,0.257166776946,0.0303546821248,-0.453343899843
joint_states,0.265894398328,0.157446399412,-0.00290839128738,-0.509397628875,0.000292415087691,-0.000990951588945,0.102558887516,0.806067349532,-1.15767895969,-1.55888975967,-2.08598904747,1.2919488198,-1.08621145502,0.325337212918,-1.15900741284e-05,1.15900794366e-05,0.190373033316,-1.24262679944,-1.08708360909e-05,-0.0450493005166,-0.547494855742,1.08728480769,-0.539779997103,0.0434024290901,-4.61611086688e-06,-0.0450493285384,-0.547470233083,1.08722842379,-0.539751635143,0.0434014791936,-1.18500159675,0.0670795417455,right_gripper,-0.049928203347,-0.0133390105554,0.38278160185,-0.127809270314,-0.545921219071,-0.0298737133975,0.827491615811
joint_states,0.265902665677,0.15745570018,-0.00290743254938,-0.509404340041,0.000294332563676,-0.000990951588945,0.102558887516,1.51065734268,-1.94062792092,-2.23546636723,-2.03961009708,1.52678018619,-1.28681523592,-0.468416714273,-1.15900741284e-05,1.15900794366e-05,0.0530156211841,-1.24177595143,5.82887125677e-07,0.00152733025022,-0.622027147274,1.17463853675,-0.552577231826,-0.00321406998929,1.11075074116e-06,0.00152730222842,-0.622025534326,1.17463669439,-0.552581466958,-0.00321691837689,-0.764148694531,-0.0664616351129,right_gripper,-0.0316511613706,-0.0189379478227,0.256906966921,-0.0719182034962,-0.393560238175,0.403949621538,0.82265595129
joint_states,0.265903699095,0.157453633343,-0.00291030876336,-0.509406257517,0.000296250039661,-0.000990951588945,0.102558887516,1.47240328503,-1.66956634635,-2.28375608244,-2.16811742011,-1.63111101327,-1.30151963487,0.62869725353,-1.15900741284e-05,1.15900794366e-05,-0.18443642355,-0.834721536637,2.21913329934e-06,-0.0035217067614,-0.605819681512,1.16982579134,-0.564007306171,0.0018112358839,1.11075074116e-06,-0.0035217347832,-0.605817109826,1.16982285815,-0.564008665089,0.00181313372398,-1.19357559061,-0.20274000894,right_gripper,-0.016562822895,0.0182706846161,0.39718370797,-0.35118382605,0.747235838155,0.335773611103,0.453392329649
joint_states,0.265902665677,0.157456733599,-0.00290839128738,-0.509405298779,0.000293373825684,-0.00101276820459,0.102537070901,1.29096287485,-1.0886744971,-2.21774217797,-2.00687494707,-2.38717083536,1.30006814816,-0.64587306597,-1.15900741284e-05,1.15900794366e-05,0.752238152764,-1.24328129791,3.85537947301e-06,-0.0172943102586,-0.555739043739,1.09280113895,-0.537062933632,0.0155838393811,5.2013661751e-06,-0.017297186017,-0.555752770599,1.09283529401,-0.537077714882,0.015581940239,-1.19380424962,-0.202893886387,right_gripper,-0.0377532230629,-0.0332268664867,0.446903327164,0.851228864035,0.307904683139,-0.329892929314,0.267908160241
joint_states,0.265903699095,0.157453633343,-0.00291030876336,-0.509400505089,0.000292415087691,-0.000990951588945,0.102558887516,1.51173003123,-1.55932641335,-1.70483077435,-0.300864924987,-2.15863070768,0.75655080247,-0.243421957076,-1.15900741284e-05,1.15900794366e-05,0.168600050897,-0.38117591389,-5.96209756942e-06,0.0164959831241,-0.626917669773,1.0896595463,-0.462715678533,-0.0181637379524,-5.25495432946e-07,0.0164940566112,-0.626903593232,1.08962934234,-0.462699780167,-0.0181570938846,-0.237099740478,0.0217518475705,right_gripper,-0.0543046159729,0.00253047779987,0.686791323739,-0.505493626734,0.761558618361,0.404939655565,-0.0229899865606
joint_states,0.265903699095,0.15745570018,-0.00290743254938,-0.509405298779,0.000295291301668,-0.00101276820459,0.102537070901,1.31885071016,-2.27227779669,-1.94872988467,-0.0645475147092,-0.701931871884,-1.30031972101,-0.589695280671,-1.15900741284e-05,1.15900794366e-05,-0.184349157087,-0.600214735016,-1.05335904799e-06,-0.00965003594864,-0.633369976462,0.99177057354,-0.358392521363,0.00794241280775,2.92627654552e-07,-0.00965196246152,-0.633362611087,0.991750187059,-0.358380457949,0.00794525989338,-0.215177716912,0.527350477151,right_gripper,-0.0590166190885,-0.00898489727812,0.653074213584,0.286617267979,0.896554929772,-0.202390164472,-0.27032946736
joint_states,0.265903699095,0.157454666761,-0.00290743254938,-0.509405298779,0.000294332563676,-0.000990951588945,0.102558887516,1.36224809236,-2.3268050976,-1.66459254081,-0.0656567745665,1.74279056705,1.29777740351,-0.607628538736,-1.15900741284e-05,1.15900794366e-05,-0.169950190758,-0.355475940655,-2.35235961377e-07,-0.0773957914374,-0.635912549618,1.16318590436,-0.527263672612,0.0757043054706,-2.16174160617e-06,-0.0773948702137,-0.635901349291,1.16316879037,-0.52725544415,0.0757043048196,-1.19331337577,0.169169318762,right_gripper,-0.0305245338465,-0.00403085084326,0.603578166678,0.874909341481,0.0260591615125,0.341959193289,0.341933435651
joint_states,0.265903699095,0.157452599924,-0.00290839128738,-0.509398587613,0.000295291301668,-0.000990951588945,0.102558887516,1.48897208602,-2.30870063652,-2.25843868827,-0.0597825868869,2.28221011742,1.29729743797,-0.617140583159,-1.15900741284e-05,1.15900794366e-05,-0.151318800993,-0.248050925195,2.21913329934e-06,-0.00413586862387,-0.657051763613,1.23831251118,-0.581244456537,0.00243394095621,2.92627654552e-07,-0.00413304890906,-0.65704823319,1.23830848716,-0.581243897979,0.00243299105968,-1.10084980757,-0.202127854731,right_gripper,-0.0245619152163,-0.00450457114938,0.587352091332,0.861189586552,0.0698467248829,0.366398539763,0.345291240979
joint_states,0.265902665677,0.157453633343,-0.00290743254938,-0.509404340041,0.000293373825684,-0.00101276820459,0.102537070901,1.47216249849,-2.11292670985,-2.1960382673,-1.77944791419,0.282421682227,-1.26624216736,-0.609199335062,-1.15900741284e-05,1.15900794366e-05,-0.095860964011,-1.21012004213,-1.05335904799e-06,0.0381046085297,-0.574429640901,1.19380007027,-0.619360044164,-0.0398245718625,-1.34361851956e-06,0.0381074282445,-0.574437615334,1.19381240872,-0.61936715551,-0.0398245725135,1.12583260218,-0.0685401790805,right_gripper,-0.0388858659588,-0.0173762841949,0.353846458703,0.225926875587,-0.752138566823,0.206842015235,0.583490363175
joint_states,0.265903699095,0.15745570018,-0.00290839128738,-0.509404340041,0.000293373825684,-0.000990951588945,0.102558887516,1.47947393534,-2.01186250092,-2.19052744131,-1.84353763151,0.800550537999,-1.26089709653,-0.646571197671,-1.15900741284e-05,1.15900794366e-05,-0.08407999156,-1.18998330588,3.0372563864e-06,0.0193997252219,-0.562164505764,1.19292086066,-0.630759438894,-0.0211101960994,2.92627654552e-07,0.0193987479546,-0.562165769031,1.19292338163,-0.630760797812,-0.0211092475049,1.18556773154,-0.18489837427,right_gripper,-0.0407166713857,-0.0166395273162,0.316315028299,0.0543380080039,-0.587163128624,0.246258209457,0.769183811287
joint_states,0.265903699095,0.157453633343,-0.00290743254938,-0.509402422565,0.000293373825684,-0.000990951588945,0.102558887516,1.502600811,-0.614378746736,-2.15419318888,-0.771852633671,-1.65891441505,1.29958818261,0.364803470629,-1.15900741284e-05,1.15900794366e-05,0.760179400861,-0.507668651429,-1.05335904799e-06,0.0528815138051,-0.476316229708,0.979616536962,-0.503277006779,-0.0545986294013,1.11075074116e-06,0.0528824350288,-0.476329956569,0.979641965373,-0.503289870553,-0.0545967315612,1.03034757119,-0.181755151761,right_gripper,-0.0423582879693,0.00041427285329,0.612072650776,-0.210444529148,0.624602766633,0.751401470342,-0.0313099734034
joint_states,0.265902665677,0.157449499668,-0.00290839128738,-0.509405298779,0.000295291301668,-0.00101276820459,0.102537070901,1.51188504402,-0.614404582202,-0.465842161879,-2.17536260312,0.239312987135,-0.0915701309213,-0.00324283538557,-1.15900741284e-05,1.15900794366e-05,0.760528466711,0.468319466287,-2.35235961377e-07,0.116196191127,-0.4127566945,0.78499159958,-0.372232863022,-0.117912357478,-7.0704801276e-06,0.116194264614,-0.412756999029,0.785002847191,-0.372230386988,-0.11791425662,0.837773061188,0.595053198593,right_gripper,0.00780784944445,0.00580356447152,0.220713115268,0.658013712185,0.112394127077,0.696476760224,-0.26325963846
joint_states,0.265901632258,0.157454666761,-0.00290839128738,-0.509406257517,0.000294332563676,-0.000990951588945,0.102558887516,1.34121285602,-0.501281411207,-0.293351774709,-2.17710654753,2.33690995484,0.240238776498,0.622304985145,-1.15900741284e-05,1.15900794366e-05,0.760441200249,0.161556033633,8.76411799444e-06,0.114713469598,-0.376146325521,0.74123401357,-0.365086430026,-0.116418245002,6.83761234921e-06,0.114736223469,-0.37618018588,0.741339072629,-0.365135725844,-0.11646570793,1.03163467695,0.669944058133,right_gripper,0.00101737639956,0.000904251220275,0.226682227208,-0.554764668679,0.218918708352,0.0439739430402,0.801484281725
joint_states,0.265903699095,0.157453633343,-0.00290839128738,-0.509404340041,0.000296250039661,-0.00101276820459,0.102537070901,0.655592295355,-0.233635285238,-0.292854189691,-2.17808350154,2.2762112938,-0.100362227028,0.531591497272,-1.15900741284e-05,1.15900794366e-05,0.76048483348,-0.56277742256,1.04003641681e-05,0.0119111271801,-0.483804932167,0.800079970963,-0.316194627364,-0.0136149533388,-2.97986469366e-06,0.0119148961404,-0.483821535242,0.800055221158,-0.316161471715,-0.0136396343738,-0.0778471281384,0.616474760927,right_gripper,-0.0201152549367,-0.0022134479592,0.329534845836,-0.634665059554,-0.0711897800258,0.0138880650329,0.769375980292
joint_states,0.265904732514,0.157452599924,-0.00290743254938,-0.509402422565,0.000295291301668,-0.000990951588945,0.102558887516,0.496573969315,-1.35335781184,0.258133493295,-2.17781217869,-1.92315506936,0.209695514589,-0.644280453027,-1.15900741284e-05,1.15900794366e-05,0.76048483348,-0.551672765195,7.12787182033e-06,-0.00361188508742,-0.531635411871,1.06228842031,-0.530650893939,0.00191280515636,2.40181971733e-05,-0.00360716688153,-0.531642427566,1.06232912035,-0.530672386355,0.00188622563034,-0.305783730255,-0.202546823234,right_gripper,-0.00512753480745,-0.00320305312002,0.334802386821,0.0981058265589,0.563759352437,0.712979700925,0.40522905301
joint_states,0.265901632258,0.157451566505,-0.00290743254938,-0.509405298779,0.000295291301668,-0.00101276820459,0.102537070901,1.11635956235,-1.6347391049,0.481355501335,-0.549786863651,-0.963434370484,0.0321082631981,-0.359180919714,-1.15900741284e-05,1.15900794366e-05,0.388773336037,-0.39812742425,-6.78022065648e-06,-0.0835488010086,-0.552316349106,0.987710501368,-0.435352337491,0.0818288376757,-2.16174160617e-06,-0.0835497782759,-0.552308024993,0.987693387379,-0.435342191553,0.0818402279712,-1.02803317767,0.223544623372,right_gripper,-0.051639209556,0.0143606872655,0.694735234651,0.868920890556,0.226963162514,0.439427588775,-0.0191729768274
joint_states,0.265904732514,0.157451566505,-0.00290743254938,-0.509399546351,0.000295291301668,-0.000990951588945,0.102558887516,1.39299746388,-2.32740861409,1.05973049381,-0.0664582795282,-2.38659175761,-1.2908294932,0.645932379894,-1.15900741284e-05,1.15900794366e-05,-0.182734727529,-0.517813377706,3.0372563864e-06,0.00735474860221,-0.647916908021,1.23417826252,-0.586220306718,-0.00904908230558,2.92627654552e-07,0.00735377133488,-0.647914336336,1.23417532933,-0.586221665636,-0.00904813371104,-0.657029857375,-0.183907997923,right_gripper,-0.0687846193544,0.00341805400338,0.63335374037,0.490405784413,0.806056940879,-0.259436698176,-0.206075166661
joint_states,0.265900598839,0.157453633343,-0.00290935002537,-0.509406257517,0.000295291301668,-0.000990951588945,0.102558887516,0.867479285398,-2.53406340557,2.1940095777,-1.1209540639,-1.73547251996,-1.20415207922,-0.0698489629648,-1.15900741284e-05,1.15900794366e-05,-0.184567323244,-1.04344109856,1.36728565154e-05,-0.0239769988395,-0.640533666741,1.17039193251,-0.529841719073,0.0222712741896,-7.0704801276e-06,-0.0239760776157,-0.64055793972,1.17044245003,-0.529896767319,0.0223016493958,-0.177337766458,0.163486878681,right_gripper,-0.0513677024119,0.0308873188384,0.700024447868,0.877437009541,-0.195752164949,0.0914286238797,-0.428282839887
joint_states,0.265901632258,0.15745570018,-0.00290935002537,-0.509404340041,0.000295291301668,-0.00101276820459,0.102537070901,0.869954323031,-2.79950524959,2.25019450027,-2.06082025769,2.36761066284,1.30159531125,0.631620680027,-1.15900741284e-05,1.15900794366e-05,0.760397567017,-1.24336856438,1.40101021229e-06,0.00451840293749,-0.572588863956,1.17482506881,-0.60223698362,-0.006216533623,5.2013661751e-06,0.00451932416122,-0.572596838388,1.17484940639,-0.602250806131,-0.00621653427399,-1.17624975698,-0.201620682334,right_gripper,-0.0176046432114,-0.0247082370294,0.496530418261,0.121814117702,0.777717453258,0.366919045117,0.49566853638
joint_states,0.265903699095,0.157454666761,-0.00290935002537,-0.509407216255,0.000294332563676,-0.000990951588945,0.102558887516,1.31954310064,-2.79950834985,2.08974010986,-2.16471773519,2.38635303185,1.30155167802,0.645583314043,-1.15900741284e-05,1.15900794366e-05,0.531933967931,-0.725791174697,1.40101021229e-06,0.0270914618087,-0.580244386825,1.17958327269,-0.599305162839,-0.0287895924942,-2.16174160617e-06,0.0270923830325,-0.580243732616,1.17958797531,-0.599308439232,-0.0287895931452,0.367838526188,-0.202899159446,right_gripper,-0.01781385885,-0.0140892446073,0.412323716428,0.252719477188,0.709768494125,0.296220711028,0.587039045512
joint_states,0.265901632258,0.15745570018,-0.00290743254938,-0.509405298779,0.000294332563676,-0.000990951588945,0.102558887516,1.28164350559,-2.79950834985,2.23377611215,-1.99717922975,2.34460862092,1.30155167802,0.645408781118,-1.15900741284e-05,1.15900794366e-05,0.424901651553,-0.829856431347,-7.59834374309e-06,0.0184818047876,-0.5738189248,1.18866007563,-0.61484438822,-0.0201970218928,1.17463508706e-05,0.0184931677123,-0.573825940495,1.18866914158,-0.61484958209,-0.0202074642447,0.930762976549,-0.202893886387,right_gripper,-0.0230172752646,-0.0128166655363,0.465928384007,0.301551495534,0.731828184008,0.299104855909,0.532945109559
joint_states,0.265903699095,0.157454666761,-0.00290839128738,-0.509407216255,0.000294332563676,-0.000990951588945,0.102558887516,0.870120703432,-2.79950834985,2.2484035777,-2.06434553729,2.36229541941,1.30157349464,0.626799207969,-1.15900741284e-05,1.15900794366e-05,0.759612168854,-1.2424304499,-5.14397448237e-06,0.00419660870042,-0.581074653927,1.17495051435,-0.59387487085,-0.00590518108685,-5.43423395349e-06,0.00419373294201,-0.581137276425,1.17508175335,-0.593941423951,-0.00590138475569,1.11725381462,-0.142971803123,right_gripper,-0.0175522286163,-0.0246157748441,0.492074260915,0.120584739089,0.779728555208,0.367409087624,0.492436049882
joint_states,0.265902665677,0.157453633343,-0.00290935002537,-0.509403381303,0.000296250039661,-0.000990951588945,0.102558887516,0.574394526284,-1.90662534753,2.30433635218,-0.0534453287569,2.38715741303,-1.29301115476,-0.646483931208,-1.15900741284e-05,1.15900794366e-05,0.0447689404684,-1.24310676499,-1.05335904799e-06,-0.0127664090468,-0.601039413881,1.16031592857,-0.559274016703,0.0110549889238,-1.34361851956e-06,-0.0127673863141,-0.601038759672,1.16031517705,-0.559271540669,0.0110549882728,1.19332536,-0.198143819004,right_gripper,-0.0799954509714,0.0137602092838,0.772279588221,-0.599919156731,-0.552636260607,0.0836806601678,0.572440141817
joint_states,0.265900598839,0.157456733599,-0.00291030876336,-0.509406257517,0.000295291301668,-0.000990951588945,0.102558887516,1.49959356277,-2.43120724873,1.73906347311,-0.237955414138,-0.417353508543,-1.30158508471,-0.642709656701,-1.15900741284e-05,1.15900794366e-05,-0.18443642355,-0.188120682004,3.0372563864e-06,0.0491946441391,-0.591615019416,1.23856340226,-0.646936225041,-0.0509060642622,-2.16174160617e-06,0.0491965146084,-0.591622993848,1.23857355905,-0.646939501434,-0.0509089126498,0.831186051811,-0.197981792283,right_gripper,-0.0207293326085,0.0067510908181,0.580938816177,-0.407189506617,0.673366019396,-0.459953684104,0.411360569456
joint_states,0.265903699095,0.15745570018,-0.00290743254938,-0.509406257517,0.000295291301668,-0.00101276820459,0.102537070901,1.28368657423,-2.00397544989,1.1032150142,-1.57272291079,1.07614265014,-0.639319900044,0.211585378919,-1.15900741284e-05,1.15900794366e-05,0.759961234704,-0.183037410558,-1.49614515248e-05,0.0401265015236,-0.591702264573,1.0469262504,-0.455221223647,-0.0418569065574,-1.68879571705e-05,0.0401160318009,-0.591681476866,1.04694404299,-0.45522450004,-0.0418493132441,0.0651577514433,0.0780585298658,right_gripper,-0.0103923434822,-0.0179438880202,0.484240138808,-0.334275383551,0.73367115503,-0.468592208598,0.361120404118
joint_states,0.265904732514,0.157454666761,-0.00290743254938,-0.509405298779,0.000296250039661,-0.00101276820459,0.102537070901,1.50889949758,-2.26816685735,-0.038999544056,-1.36346875656,-1.17504606144,0.0397877119069,0.264817921105,-1.15900741284e-05,1.15900794366e-05,0.021861494036,0.414694225019,-1.05335904799e-06,0.077355911487,-0.614944949723,1.00006961413,-0.385122136592,-0.0790644838734,-2.16174160617e-06,0.0773530357286,-0.614958676584,1.00010486002,-0.385143629008,-0.0790625860334,0.102836154546,0.474114153276,right_gripper,-0.0145862415304,0.00599164575849,0.407468003664,0.889877348151,0.190912604517,0.395058294485,0.124898465333
joint_states,0.265901632258,0.15745570018,-0.00290935002537,-0.509406257517,0.000296250039661,-0.00101276820459,0.102537070901,-0.0846682088567,-2.44716736614,0.125075041016,-1.48291600556,1.71134012595,0.113091540491,0.101236936962,-1.15900741284e-05,1.15900794366e-05,0.0195489327771,-1.04933158479,-2.35235961377e-07,-0.0133188699494,-0.624842960757,1.1732760891,-0.548399051655,0.0116254854915,1.92887382777e-06,-0.0133179487256,-0.624843265286,1.17327206508,-0.548397534359,0.0116216878584,0.184178841406,0.208528868934,right_gripper,-0.0426190076843,0.00711685966258,0.592939912445,-0.274374898342,0.858223543252,-0.0631786360104,0.429161071068
joint_states,0.265902665677,0.157452599924,-0.00290839128738,-0.509405298779,0.000296250039661,-0.000990951588945,0.102558887516,-0.289641628224,-1.95864970851,-0.431158856265,-2.06496296455,-0.117592570354,-0.304085783967,-0.356999258149,-1.15900741284e-05,1.15900794366e-05,0.275370567888,-1.1827620061,-3.5077283087e-06,-0.0286719672657,-0.559011216507,1.15020174556,-0.591196156899,0.026941562232,-1.34361851956e-06,-0.0286700967965,-0.559024943368,1.15023590062,-0.591215731838,0.0269396630899,0.682150230888,-0.0742096761987,right_gripper,-0.022594554508,0.0042444898176,0.389015475737,0.51774432832,-0.0296037679479,0.769299752045,-0.373151871118
joint_states,0.265904732514,0.157452599924,-0.00290839128738,-0.509405298779,0.000296250039661,-0.000990951588945,0.102558887516,-0.386708573871,-2.7988459285,-0.727579551288,-2.09042896311,-0.82043092901,1.18099305994,0.399317356587,-1.15900741284e-05,1.15900794366e-05,0.608946621176,-1.24349946407,4.67350256006e-06,0.0154138432118,-0.5725773591,1.19064429682,-0.618083963896,-0.0171214663527,1.92887382777e-06,0.0154128659445,-0.572578622367,1.19064463612,-0.618085322814,-0.0171205177582,-0.537650199403,-0.0589868343549,right_gripper,-0.00407793040377,-0.0216197125791,0.263943700429,0.797332640606,-0.520090837452,0.305832687539,-0.0152495329505
joint_states,0.265900598839,0.157456733599,-0.00290839128738,-0.509406257517,0.000296250039661,-0.000990951588945,0.102558887516,0.417514343401,-2.79950834985,0.995960036247,-1.88164554924,1.69914881364,1.21127452246,0.315934251573,-1.15900741284e-05,1.15900794366e-05,0.172265242327,-0.964792199142,1.61272257762e-05,-0.027320241621,-0.610708286535,1.17614170157,-0.56544541316,0.0256088214979,1.92887382777e-06,-0.0273183711517,-0.610699003684,1.17610495262,-0.565399793916,0.0256278057577,-0.515438636964,0.0821302901196,right_gripper,-0.0392841426007,0.00459360869965,0.549284944916,-0.111792010442,0.860585843607,0.341153455309,0.361260116973
joint_states,0.265901632258,0.157454666761,-0.00290839128738,-0.509403381303,0.000296250039661,-0.000990951588945,0.102558887516,1.4883272328,-2.38993870892,2.30037197058,-0.175761121831,2.38373280092,1.3009626294,0.642812603856,-1.15900741284e-05,1.15900794366e-05,-0.173571748956,-0.248487257508,2.21913329934e-06,-0.00762814295471,-0.656230125153,1.23973386369,-0.583532005387,0.00593760623349,2.92627654552e-07,-0.00762722173097,-0.656216048612,1.23972111303,-0.583524735663,0.00593855482804,-1.18664727051,-0.202691592671,right_gripper,-0.0250254194373,0.00521349665191,0.586025069566,0.739856440205,0.315510187335,0.402710424873,0.436909696932
joint_states,0.265903699095,0.15744846625,-0.00291126750135,-0.509395711399,0.000296250039661,-0.000990951588945,0.102558887516,1.50059804568,-2.39213885719,2.29913807479,-0.142125716843,2.38759555629,1.30157349464,0.646695961441,-1.15900741284e-05,1.15900794366e-05,-0.18443642355,-0.22841597111,-1.87148213504e-06,-0.06009674077,-0.652384627066,1.18839391292,-0.535996816985,0.0583967115935,-5.25495432946e-07,-0.0600920225642,-0.652399312664,1.18843461296,-0.5360183094,0.0583948124514,-1.19376014768,0.0818503386258,right_gripper,-0.0222300453601,0.00560528369671,0.580310832236,0.748683545297,0.30761066753,0.396852154757,0.432847540697
joint_states,0.265903699095,0.157456733599,-0.00290935002537,-0.509403381303,0.000296250039661,-0.000990951588945,0.102558887516,1.30979589607,-1.03382373615,2.30470546631,-0.0525326101881,2.38760706115,1.30150804479,-0.338258785306,-1.15900741284e-05,1.15900794366e-05,0.759655802085,-0.347207443323,5.82887125677e-07,-0.0275879288624,-0.539775097427,1.00712074431,-0.467337754395,0.0258945444046,-3.79798778027e-06,-0.0275851091476,-0.539776360694,1.00712871943,-0.467341989527,0.0258935945081,-1.0341973836,-0.202616811108,right_gripper,-0.0230344680971,0.00535271983644,0.654057972888,0.395836475276,0.608171775036,0.610931304709,0.31654939238
joint_states,-1.33022688556,1.05038520633,-2.30396777701,-0.0525867788847,-2.38684438507,-1.30115216125,-0.213236624016,-0.265362490789,-0.157690383093,0.00361060727948,-0.509454673786,0.00042424156161,0.00134683513175,0.102196868051,-1.15900741284e-05,1.15900794366e-05,0.760397567017,0.323108072521,5.82887125677e-07,-0.0539826502659,-0.487236255442,1.00819957596,-0.520950382931,0.052275027125,2.92627654552e-07,-0.0539836275332,-0.487235601233,1.00819882443,-0.520953659325,0.0522769249651,-1.19375439525,-0.202896762601,left_gripper,-0.0168156298162,-0.00179946182436,0.683764000985,-0.47391319295,0.608401584085,0.561337588199,-0.300256407271
joint_states,-1.51061010848,1.00126371831,-2.304706964,-0.0524506380897,-2.38760945799,1.29975930669,-0.646318261283,-0.265870932757,-0.157395858782,0.00288004892925,-0.509599443223,-0.0003341201904,0.000975952665698,0.102305951129,-1.15900741284e-05,1.15900794366e-05,0.76048483348,0.405596696293,-3.5077283087e-06,-0.0576951495613,-0.476158037939,1.00255998081,-0.52639984968,0.0559875264204,-8.70672630171e-06,-0.0576980253197,-0.476172723538,1.00259959002,-0.526422300834,0.0559894242605,-1.18340385988,-0.202895803863,left_gripper,0.0158556684286,-0.000128927651273,0.683701298291,-0.643613956747,0.528636775911,-0.130135597276,0.537930255848
