agimus/agimus-demos-ur10-pointing/talos/calibration/apriltags/data/measurements-pyrene-20200901-2.csv
joint_names,arm_left_1_joint,arm_left_2_joint,arm_left_3_joint,arm_left_4_joint,arm_left_5_joint,arm_left_6_joint,arm_left_7_joint,arm_right_1_joint,arm_right_2_joint,arm_right_3_joint,arm_right_4_joint,arm_right_5_joint,arm_right_6_joint,arm_right_7_joint,gripper_left_joint,gripper_right_joint,head_1_joint,head_2_joint,leg_left_1_joint,leg_left_2_joint,leg_left_3_joint,leg_left_4_joint,leg_left_5_joint,leg_left_6_joint,leg_right_1_joint,leg_right_2_joint,leg_right_3_joint,leg_right_4_joint,leg_right_5_joint,leg_right_6_joint,torso_1_joint,torso_2_joint
joint_states,-1.47572628568,2.41699058943,-2.30145459233,-0.179638006128,2.34305003377,-1.29838990657,-0.620320577247,-0.265868481231,-0.15739950291,0.00288111050623,-0.509603591108,-0.000338556430884,0.00101569484647,0.102348513456,2.93587376632e-12,-2.52254594728e-05,-0.168696830656,0.28791578507,-3.5077283087e-06,0.050357469922,-0.654778116464,1.2055888362,-0.550811236444,-0.0520598128846,-3.44005893016e-06,0.0503581538344,-0.654776503516,1.20558184009,-0.550806363565,-0.0520596355521,1.19359093042,0.0225936195278,left_gripper,-0.0423248527497,-0.00995280712833,0.61359124851,0.720956641396,0.498729421997,-0.480365445409,0.0271941853868
joint_states,-1.30165105011,2.74353434372,-2.2639142475,-1.41208131433,-0.687231221426,-1.3013569663,0.592552353195,-0.265863314138,-0.157397436073,0.00288015176824,-0.509605508584,-0.000335680216906,0.00101569484647,0.102348513456,2.93587376632e-12,-2.52254594728e-05,-0.18457932685,0.822161069105,-2.68960522209e-06,0.0110083946744,-0.622655600028,1.22480491126,-0.602157408366,-0.012712636128,-1.80381275605e-06,0.0110090785867,-0.622652069604,1.22479791516,-0.602153494225,-0.0127124587955,1.19380377026,-0.149691597712,left_gripper,-0.0149166758577,0.00739290263836,0.612354528733,0.624368624389,-0.597236531177,-0.338604022501,-0.372585107932
joint_states,-0.982768028164,2.76625818611,-1.66206839023,-1.85308353356,-1.39363512668,0.336394553924,0.112608625512,-0.265864347556,-0.157393302398,0.00288015176824,-0.509603591108,-0.000335680216906,0.000993878230822,0.10232669684,2.93587376632e-12,-2.52254594728e-05,0.549331623614,0.899282805428,1.12184872547e-05,0.0124275167523,-0.603491386297,1.17488849466,-0.571392464927,-0.0141127732952,-9.16692053821e-06,0.0124433885932,-0.603496484515,1.17487931689,-0.571389509524,-0.0141078497349,0.685793914628,-0.0978646186859,left_gripper,-0.0401413510486,-0.00945315929125,0.55247041567,-0.492964732885,0.792132006974,-0.127657787787,-0.336476068801
joint_states,-1.41022407885,2.77525099508,-1.78209375824,-2.17766619837,-0.781789632144,1.30029626657,0.0606414470339,-0.265868481231,-0.157395369235,0.00288015176824,-0.509600714894,-0.000334721478914,0.000972061615172,0.102304880225,2.93587376632e-12,-2.52254594728e-05,0.72643890946,0.5465517636,1.40101021229e-06,0.0195591984722,-0.616883038575,1.16035644697,-0.54347305585,-0.0212444550151,6.50556504667e-07,0.0195598823845,-0.6168756732,1.16033963339,-0.543462430543,-0.0212442776825,1.18273801635,-0.0814678021704,left_gripper,-0.0218799327618,-0.0346411988652,0.341627781718,0.15691394234,-0.652558894389,0.259015662894,0.694590375998
joint_states,-1.42115351434,2.79950016338,-2.30425985969,-1.13784389897,-1.8501161708,1.30151799705,-0.646042367099,-0.265866414394,-0.157397436073,0.00287919303024,-0.509603591108,-0.000333762740921,0.000993878230822,0.10232669684,2.93587376632e-12,-2.52254594728e-05,-0.115377022008,0.892388754882,5.82887125677e-07,-0.0168794899589,-0.624032347785,1.23303195703,-0.608996086466,0.0151847409606,-1.67566581943e-07,-0.016877856801,-0.624025941147,1.23301623427,-0.608989296111,0.0151830198021,0.395840866102,-0.174601048862,left_gripper,0.00268123218782,-0.00482323301052,0.570898071472,0.754970133719,-0.16617205999,0.63385026929,0.0253136285673
joint_states,-0.631636144263,2.51078986535,-2.09567873954,-0.471218033028,-2.28791332892,1.30158344689,0.646090328,-0.265864347556,-0.157395369235,0.00288206924422,-0.509605508584,-0.000337597692891,0.00101569484647,0.102348513456,2.93587376632e-12,-2.52254594728e-05,-0.184622960081,1.1919963376,-3.5077283087e-06,0.00626216698906,-0.577942936275,1.21743962182,-0.639490665791,-0.00797115467041,-4.25818201677e-06,0.00626664788356,-0.577950910707,1.21745226067,-0.639493462816,-0.00797382507447,1.11709418475,-0.15143074843,left_gripper,0.00803376070341,-0.0257694509982,0.695406487878,0.777012994065,-0.38730540816,0.47230974237,0.152213124028
joint_states,-0.802527417013,2.48969365731,-1.7639716927,-1.78831023605,2.13641131678,-1.08487068921,-0.629505372436,-0.265866414394,-0.157393302398,0.00288206924422,-0.509601673632,-0.000335680216906,0.000972061615172,0.102304880225,2.93587376632e-12,-2.52254594728e-05,0.760167397255,0.987727365272,1.40101021229e-06,0.0111023699825,-0.565288553513,1.15330968012,-0.588025610358,-0.0127933219987,-3.44005893016e-06,0.0111049523859,-0.565275435709,1.15330050235,-0.588025531169,-0.0128007386304,1.00081125049,-0.202879025949,left_gripper,-0.0355785648162,0.00202665762915,0.555315202893,0.766295726463,-0.0883393440901,-0.635723366164,0.0290313899812
joint_states,-0.689681202212,1.50832521771,-1.17564499986,-0.631115396667,-0.963303661298,-0.0626095296977,0.645915795075,-0.265867447812,-0.157395369235,0.00287727555426,-0.509600714894,-0.000333762740921,0.000993878230822,0.10232669684,2.93587376632e-12,-2.52254594728e-05,0.760560096337,0.872252018637,1.61272257762e-05,-0.00466554763355,-0.551957301728,1.05553960791,-0.503571339343,0.00297459561741,3.92304885199e-06,-0.0046572697569,-0.55197486354,1.05556970005,-0.503594269865,0.00295199105707,-0.82773171882,-0.202895803863,left_gripper,-0.0379891368491,0.0321072222349,0.806493661239,0.00427301642934,0.953281186876,0.256458072977,-0.159580628162
joint_states,-0.37156187664,1.38011516804,-0.223930721968,-0.96778487135,-1.59572942558,1.29065332245,0.334658139597,-0.265864347556,-0.157393302398,0.00287823429225,-0.509598797418,-0.000337597692891,0.000993878230822,0.10232669684,2.93587376632e-12,-2.52254594728e-05,0.760472829874,0.87921151903,-1.74158207855e-05,-0.0353413664091,-0.54361340498,1.00311864383,-0.459514452377,0.0336181400447,7.19554119932e-06,-0.0353349870235,-0.543635760482,1.00315964428,-0.459521084353,0.0336335053059,-1.01340810897,0.152676628447,left_gripper,-0.0168985043516,0.0263969797968,0.653730462832,-0.104645492397,-0.520561337902,-0.261526988635,0.806020377297
joint_states,-0.834959194068,1.20011224318,1.52501925732,-2.12048610576,-0.992428204032,1.1691565899,0.570124872307,-0.265866414394,-0.157389168723,0.00288111050623,-0.509601673632,-0.000332804002929,0.000972061615172,0.102304880225,2.93587376632e-12,-2.52254594728e-05,0.170464276237,1.243287201,-2.35235961377e-07,-0.0624110013894,-0.550252665577,1.057569644,-0.507329592273,0.0607058106902,-9.85689669442e-07,-0.0624131652137,-0.550248176416,1.05756155706,-0.507324719394,0.0607059880227,-1.14970565756,0.216024761928,left_gripper,0.0292238173581,-0.0056763523368,0.406455859687,-0.49443475048,0.47477787336,-0.448473154418,0.573578310479
joint_states,-1.36719872736,1.68498503328,2.30412809949,-2.17761059157,2.38590082834,1.30151799705,0.646635743391,-0.265864347556,-0.157395369235,0.00287727555426,-0.509601673632,-0.000332804002929,0.000993878230822,0.10232669684,2.93587376632e-12,-2.52254594728e-05,-0.184273894231,0.922233885091,1.40101021229e-06,-0.0185938273988,-0.554738600644,1.16628729394,-0.611557834382,0.0168943321728,1.46867959128e-06,-0.0185931434864,-0.554731235269,1.16627157118,-0.611540497909,0.0168983064875,-1.19284407352,-0.202680087815,left_gripper,0.00855231717994,0.000116004015151,0.359335545425,-0.230005605862,0.54655785185,0.793326124907,-0.137860782652
joint_states,-1.17148267213,2.26503878002,2.28949775772,-0.116222281619,2.36984100823,-1.30157513246,-0.632363349086,-0.26586951465,-0.1573767677,0.00288111050623,-0.50959304499,-0.000334721478914,0.000993878230822,0.10232669684,2.93587376632e-12,-2.52254594728e-05,-0.184535693618,0.734632807118,-5.14397448237e-06,-0.00262182199226,-0.661739513027,1.15043970433,-0.488675427154,0.000990672444956,-5.07630510338e-06,-0.00262018883437,-0.661705302988,1.15037707585,-0.488644668349,0.000989900531969,0.0838708789485,0.201609177474,left_gripper,0.00569368885701,-0.00930804779856,0.669959463857,0.311468886719,0.861576192665,-0.0405972702213,0.398779962496
joint_states,-1.31683817038,2.26604222952,2.30075621797,-0.0794939878672,2.37884068176,-1.29841172319,-0.643293473527,-0.265870548068,-0.157394335817,0.00287919303024,-0.509600714894,-0.000332804002929,0.000993878230822,0.10232669684,2.93587376632e-12,-2.52254594728e-05,-0.156915858206,0.604518511381,-2.35235961377e-07,0.0899172776789,-0.619267419962,1.10785367058,-0.488525864028,-0.0916224683781,-9.85689669442e-07,0.0899160631002,-0.619266765753,1.10785321946,-0.488523867362,-0.0916203925545,1.06252521506,0.291482714991,left_gripper,0.00046244357545,-0.00805800117904,0.656311470697,0.323230392786,0.864425842307,-0.0702702367537,0.378618766251
joint_states,-1.35314526732,2.20599957335,2.28655539082,-0.108870678693,2.36847097164,-1.30122606661,-0.628523624732,-0.2658612473,-0.157389168723,0.00288111050623,-0.50960263237,-0.000338556430884,0.00101569484647,0.102304880225,2.93587376632e-12,-2.52254594728e-05,-0.117035084797,0.586127104389,-1.87148213504e-06,0.119386605377,-0.567893444638,0.986860901847,-0.418952165393,-0.121083252866,-1.80381275605e-06,0.119386340044,-0.567888955477,0.98685390574,-0.418948251252,-0.121083075534,1.12089941584,0.504749667086,left_gripper,-0.000711317480153,-0.00815307617075,0.659269107462,0.324573514093,0.861887769781,-0.0643298785556,0.384269661796
joint_states,-1.47027603579,2.16223636095,2.22020305184,-1.76680382541,1.87347454614,-1.27698780662,-0.639148316553,-0.265862280719,-0.157381934793,0.00288206924422,-0.509589210038,-0.000333762740921,0.000972061615172,0.102304880225,2.93587376632e-12,-2.52254594728e-05,-0.105952244047,1.19873767184,1.40101021229e-06,-0.0050509413216,-0.618439070337,1.20600553356,-0.587549117576,0.00334385213132,2.28680267789e-06,-0.00505215590032,-0.618439374865,1.2060039916,-0.587548079648,0.0033421309728,1.16132412392,-0.184953501704,left_gripper,0.0238319497978,-0.0214859018466,0.398561207334,0.72413210094,0.470364073877,0.117247853174,0.490554053412
joint_states,-1.45466211362,2.0375265002,2.18701058381,-1.78348682521,-1.56357335331,1.26595691354,0.622288400326,-0.265866414394,-0.157397436073,0.00287631681627,-0.509603591108,-0.000334721478914,0.000993878230822,0.10232669684,2.93587376632e-12,-2.52254594728e-05,-0.074187251661,1.19256356961,-3.5077283087e-06,0.0450635275618,-0.619168669949,1.16403800086,-0.544861308463,-0.0467620735423,-5.07630510338e-06,0.0450642114742,-0.619166098264,1.16403318642,-0.544858353059,-0.0467628454553,1.16897820868,0.08917893184,left_gripper,0.0233412446905,-0.0167588091432,0.37331570168,0.430314984146,-0.574109753634,0.666109901656,-0.203775867358
joint_states,-1.12301843836,0.695321342284,1.99210586111,-2.17395396486,-2.38686084217,0.313465290876,0.592246920576,-0.265864347556,-0.157396402654,0.00287919303024,-0.50960263237,-0.000332804002929,0.000993878230822,0.10232669684,2.93587376632e-12,-2.52254594728e-05,0.552124150417,1.19731959182,-2.68960522209e-06,0.0114346059205,-0.536415200133,1.06185769981,-0.525443029164,-0.0131445428474,-1.80381275605e-06,0.0114343405873,-0.536413587185,1.06186597533,-0.525446784927,-0.0131453147604,1.19361010518,-0.20262543975,left_gripper,0.0246741030055,-0.0165895034073,0.420103593744,0.534385419422,0.222257165107,0.804242192741,-0.135012856729
joint_states,-1.51173782489,0.631056137564,2.11756343859,-0.670697853422,1.39668359639,-1.30026613552,0.335508987607,-0.265865380975,-0.157393302398,0.00287919303024,-0.50960263237,-0.000334721478914,0.000993878230822,0.10232669684,2.93587376632e-12,-2.52254594728e-05,0.760472829874,0.429549253869,-2.68960522209e-06,-0.0208112649734,-0.531063524659,0.978859658058,-0.447794839157,0.0190984803099,-1.80381275605e-06,-0.0208124795521,-0.531065746663,0.978864661089,-0.447795718706,0.0190986576424,0.271727918661,-0.189097646676,left_gripper,-0.0351136064225,-0.000968124925399,0.65163503362,-0.421101937705,0.536659235935,0.48346028951,0.548576495135
joint_states,-0.229079282195,2.13744878154,1.76898452056,-0.0525218119262,-1.24369425709,-1.30041885183,-0.646260533255,-0.265866414394,-0.157397436073,0.00288015176824,-0.50960263237,-0.000333762740921,0.000993878230822,0.10232669684,2.93587376632e-12,-2.52254594728e-05,-0.184535693618,1.24337446746,-2.68960522209e-06,0.0377628801363,-0.559685688685,1.1856026346,-0.625909183391,-0.0394652230989,-1.80381275605e-06,0.0377626148031,-0.559684075737,1.18559891099,-0.625907186725,-0.0394640965208,1.06446953571,0.07106022189,left_gripper,-0.011034962556,-0.0337495085507,0.736568814551,0.728734638083,0.470469933029,-0.492380338662,-0.071871214493
joint_states,0.265691591605,0.158275378921,-0.00219667529314,-0.509236788117,-0.000200534790178,-0.0015011892622,0.102267549694,0.506371162674,-0.268542643798,-0.390398007678,-2.17741078041,-1.34028803193,0.282820919197,0.0183763598193,2.93587376632e-12,-2.52254594728e-05,0.755891340588,-0.651594951279,-2.68960522209e-06,0.0105527568166,-0.480100847933,0.995547187368,-0.515497081231,-0.012263642989,-2.62193584266e-06,0.0105524914834,-0.480112657318,0.995569643692,-0.515510424373,-0.0122653641475,1.19369303602,-0.202791780791,right_gripper,0.0283838942903,0.0149988051394,0.368674795056,-0.0315930048606,0.581565970988,0.792598822635,0.180471631541
joint_states,0.265896208495,0.157453811105,-0.00290997635951,-0.509409360956,0.0002960914899,-0.000999407102254,0.102551165697,0.461159097347,-0.365092880127,-1.09695435227,-2.17808573195,-2.38707268663,-0.586723930763,0.646324008071,2.93587376632e-12,-2.52254594728e-05,0.760472829874,-0.983403858699,-2.68960522209e-06,0.000691044932068,-0.498701323724,1.00772740389,-0.509041898328,-0.00239338789466,-1.80381275605e-06,0.000686033371199,-0.498680536017,1.00768331953,-0.509016891951,-0.00239415980764,1.13418081325,-0.202893886387,right_gripper,0.029501510152,0.0160794160163,0.460068195357,-0.245700451216,0.578053456038,0.508181514665,0.589268222787
joint_states,0.26590034217,0.157454844524,-0.00290805888352,-0.509406484742,0.0002960914899,-0.000999407102254,0.102551165697,0.467640699032,-0.326748915055,-0.247285270072,-2.17808477321,-2.24510755841,0.356342913937,-0.0656612436643,2.93587376632e-12,-2.52254594728e-05,0.760560096337,-0.672473452456,1.40101021229e-06,0.00751422185244,-0.507893703596,0.990053763548,-0.482176142304,-0.00923554972577,-4.25818201677e-06,0.00751585501033,-0.507923729002,0.990101308979,-0.482194279136,-0.00923727088429,-0.162540124914,-0.0786471949967,right_gripper,0.0232228529305,0.0118097587228,0.371184980726,-0.402115299545,0.509669912554,0.631905929257,0.423361267334
joint_states,0.265897241914,0.157451744268,-0.00290901762151,-0.509403608528,0.000295132751908,-0.000999407102254,0.102551165697,0.565292559627,-0.218546883605,-0.337788219081,-2.17808285574,-0.0448057832577,-0.0877779308487,-0.235852662349,2.93587376632e-12,-2.52254594728e-05,0.760516463105,-0.590421160997,1.40101021229e-06,0.0158770750339,-0.5116260706,0.977103420498,-0.465495059973,-0.0175889104519,1.46867959128e-06,0.0158777589463,-0.511627333867,0.977110605191,-0.465498815736,-0.0175887331193,0.000842730697201,0.00602423017366,right_gripper,0.0200320949531,0.0132594507038,0.358277521378,0.337506718273,0.529508099587,0.705327141203,-0.328974180559
joint_states,0.265898275332,0.157451744268,-0.00290805888352,-0.509406484742,0.000295132751908,-0.000999407102254,0.102551165697,0.426322555125,-0.347178568071,-0.266089957056,-2.17723341388,2.16547645439,-0.0258405590186,0.390349656651,2.93587376632e-12,-2.52254594728e-05,0.757854835996,-0.728738504217,1.40101021229e-06,-0.00190514161179,-0.505226494501,0.994816330744,-0.489589104461,0.000187610720605,1.46867959128e-06,-0.00190445769943,-0.505230633981,0.994823515437,-0.489593818962,0.000187788053155,-0.621572850201,-0.111031926274,right_gripper,0.0200056006812,0.0132410542044,0.390810135981,-0.685550519001,-0.0176823951045,0.0384690312159,0.726792922667
joint_states,0.26590034217,0.157454844524,-0.00290710014553,-0.509406484742,0.0002960914899,-0.000999407102254,0.102551165697,0.462826001607,-0.299739485583,-0.388525592379,-2.17808573195,1.93526716386,-0.366965161321,0.090807523777,2.93587376632e-12,-2.52254594728e-05,0.760472829874,-0.717546580389,-2.68960522209e-06,-0.00489906203567,-0.501874746479,0.997206340989,-0.495328110084,0.00317868340788,-9.85689669442e-07,-0.00489837812331,-0.50187888596,0.997210253189,-0.495328030895,0.00317601300381,-1.16450857216,-0.159256926662,right_gripper,0.0181607908428,0.010914948448,0.383506133649,-0.590428772468,-0.029328965222,-0.119479125632,0.797658081498
joint_states,0.265899308751,0.157453811105,-0.00290710014553,-0.509406484742,0.000295132751908,-0.000999407102254,0.102551165697,0.640123436482,-0.212857914013,-0.419883035897,-2.17808573195,0.151548551282,-0.0314910624719,-0.471646644294,2.93587376632e-12,-2.52254594728e-05,0.760516463105,-0.584137975689,4.67350256006e-06,-0.0017466176071,-0.509191834838,0.996878000923,-0.487687927022,2.52897337685e-05,2.28680267789e-06,-0.00174783218582,-0.509265003454,0.997050991895,-0.487782762894,3.21117850772e-05,-1.1937659001,-0.197982751021,right_gripper,0.0169282043419,0.0114648153122,0.338272965378,0.304120205572,0.407179401993,0.741872530196,-0.437425404036
joint_states,0.265905509263,0.157453811105,-0.00290997635951,-0.509406484742,0.000297050227893,-0.000999407102254,0.102551165697,0.470209777761,-0.715811396574,-1.15059190799,-2.17808573195,-1.1800071731,0.700783641818,0.536826414124,2.93587376632e-12,-2.52254594728e-05,0.518701095241,-1.02557537675,-2.68960522209e-06,-0.0569832154085,-0.509624225672,0.993117907216,-0.483478108497,0.0552780247093,-1.98025206677e-05,-0.056978734514,-0.509611107869,0.993056369569,-0.483460772024,0.0552544709034,-1.04548364724,0.254105355618,right_gripper,0.0185427621976,0.0154403309699,0.422635280153,0.335473530348,0.383405510495,0.860488324771,-0.00419140679734
joint_states,0.265905509263,0.157452777686,-0.00290805888352,-0.509406484742,0.000295132751908,-0.000999407102254,0.102551165697,0.269794767998,-0.879749828741,-1.22030558237,-2.15993202807,-0.0277766790362,1.01287032869,-0.385165579857,2.93587376632e-12,-2.52254594728e-05,0.594492018009,-1.24334883417,7.94599490739e-06,-0.0298148588924,-0.547525055989,0.962241941917,-0.414724130846,0.0281144144209,-3.44005893016e-06,-0.0298113272434,-0.547536865373,0.96227748821,-0.414741308941,0.0281098455257,-0.153454164959,0.488284300804,right_gripper,0.0109732940885,0.0150477034126,0.439366194703,0.467375595816,0.165131480259,0.815214982465,-0.29952659152
joint_states,0.265899308751,0.157454844524,-0.00290997635951,-0.509406484742,0.000297050227893,-0.000999407102254,0.102551165697,0.654599564735,-0.823089551763,-1.47831731594,-0.991397235705,0.351025495462,1.21925551274,-0.327089748997,2.93587376632e-12,-2.52254594728e-05,0.760298296949,-0.913852488007,-2.68960522209e-06,-0.055214770973,-0.504852586684,0.9506747723,-0.445827508797,0.0535076817827,6.50556504667e-07,-0.0552140870606,-0.504845221309,0.950661231207,-0.44582167718,0.0535107068518,-0.686391687762,0.180407645509,right_gripper,0.0278997240001,0.0252449620802,0.70396529187,0.531655287583,0.503364999859,0.676620797502,0.0784259427051
joint_states,0.26590034217,0.157451744268,-0.00290805888352,-0.509404567266,0.000297050227893,-0.000999407102254,0.102551165697,1.07321265215,-0.960537330614,-0.866263775268,-1.10345453226,-1.33675028874,-0.0606598775959,0.579456081104,2.93587376632e-12,-2.52254594728e-05,0.510672580682,-0.361935745295,2.26722104713e-05,0.00851757438511,-0.560643467939,0.968011345926,-0.407357188113,-0.0101914399816,-9.98504362482e-06,0.0085116135787,-0.560677328298,0.968032711419,-0.407343686591,-0.0101760747204,-0.103125693416,0.126516503586,right_gripper,0.0461155479737,0.00340434562836,0.65153050925,0.413899603987,0.803886295204,0.322099556908,0.280545571419
joint_states,0.265899308751,0.157450710849,-0.00290805888352,-0.509404567266,0.0002960914899,-0.000999407102254,0.102551165697,0.98778716744,-0.775920191539,-0.656196611223,-1.05638624926,-1.61348138161,1.27113542475,0.0982906229449,2.93587376632e-12,-2.52254594728e-05,0.638910647473,-0.39887127559,-2.35235961377e-07,0.0214472478454,-0.531092286799,0.918860692528,-0.387780717045,-0.0231533877901,-9.85689669442e-07,0.0214507794943,-0.531090673851,0.918858059744,-0.387782555332,-0.0231598551763,0.0653284068059,0.193062507641,right_gripper,0.0397867042239,0.0126668152742,0.565984104454,0.111097752385,0.466204358072,0.830539024251,0.283752912101
joint_states,0.26590034217,0.157447610593,-0.00290901762151,-0.509401691052,0.000294174013916,-0.000999407102254,0.102551165697,0.283456562366,-1.13976415808,-0.757469064101,-1.46267064831,-0.558314480644,0.865499089975,-0.645983219952,2.93587376632e-12,-2.52254594728e-05,0.420002726041,-1.03281849315,1.28547334288e-05,-0.00542114708105,-0.555449025496,1.07570034244,-0.520286936241,0.00371405789078,-1.08031667114e-05,-0.0054309048696,-0.555495349449,1.07576643199,-0.520302196859,0.00369619955812,1.02850200056,-0.127628160292,right_gripper,0.0199458265223,0.0201924303233,0.564985384842,0.317625285169,0.340759911815,0.884451642828,-0.0272424708801
joint_states,0.265902409007,0.15745794478,-0.00290805888352,-0.50940744348,0.000297050227893,-0.000999407102254,0.102551165697,0.341899486491,-1.23136535256,-1.2270666027,-0.687580835809,-1.31115965425,0.308150009966,0.27334714692,2.93587376632e-12,-2.52254594728e-05,0.677176991323,-1.24330520094,1.40101021229e-06,-0.0162624803598,-0.560884111175,1.06485857529,-0.503983596679,0.0145620358883,6.50556504667e-07,-0.016264644184,-0.56089112687,1.06486248749,-0.5039787238,0.0145593654842,1.19362448625,-0.202807599968,right_gripper,0.0317051073354,0.0163185104591,0.807849058446,0.0548369758889,0.896792601542,0.43168761796,0.0800108517328
joint_states,0.265906542682,0.157456911361,-0.00290901762151,-0.509403608528,0.000294174013916,-0.000999407102254,0.102551165697,1.51110209739,-0.594359904791,-1.45641015282,-1.30400334552,1.40424903452,-0.298700970952,0.435924566743,2.93587376632e-12,-2.52254594728e-05,0.544182902321,-0.313001076392,2.21913329934e-06,-0.024939533814,-0.475926502714,0.735558578668,-0.259621415907,0.0232314953782,8.01366428682e-06,-0.0249388499017,-0.475939270837,0.735594124961,-0.25963955274,0.0232326219563,-0.547941772383,0.557557435078,right_gripper,0.0276877377218,0.0105078576559,0.616279382053,0.849280408471,0.248420849765,-0.0265728600732,-0.46508467218
joint_states,0.265894141658,0.157448644012,-0.00290901762151,-0.509399773576,0.000293215275923,-0.000999407102254,0.102551165697,0.806063600547,-1.157692938,-1.55889061557,-2.0859893604,1.29194630104,-1.08619352945,0.325357958629,2.93587376632e-12,-2.52254594728e-05,0.190448296173,-1.24267251908,-1.08708360909e-05,-0.0450426557978,-0.547480954041,1.0872478771,-0.539753152439,0.0433887243576,-3.44005893016e-06,-0.045042921131,-0.547460166334,1.08719724776,-0.539728146062,0.0433898509357,-1.18500447296,0.0670627638306,right_gripper,-0.0132624645411,-0.00681441883,0.389033087731,-0.129424926252,-0.483764046173,-0.0267448738797,0.865162555718
joint_states,0.26590034217,0.15745794478,-0.00290805888352,-0.50940744348,0.0002960914899,-0.000999407102254,0.102551165697,1.51070526463,-1.94069460358,-2.23551324256,-2.03960178137,1.52679780093,-1.2868627602,-0.468548684872,2.93587376632e-12,-2.52254594728e-05,0.0530472508094,-1.24179985446,1.40101021229e-06,0.00152922874129,-0.622011328097,1.17459724284,-0.552552304638,-0.00323062245834,2.28680267789e-06,0.00152801416257,-0.622016426315,1.17460770002,-0.552560854091,-0.00323139437133,-0.764118973654,-0.0664832067177,right_gripper,-0.0099146856426,-0.0145486695259,0.266664079153,-0.0496702149963,-0.331471111028,0.40492017936,0.85070524898
joint_states,0.265901375588,0.157454844524,-0.0029109350975,-0.509411278432,0.000297050227893,-0.000999407102254,0.102551165697,1.4724026363,-1.66958032467,-2.28375022717,-2.16811389809,-1.63111640825,-1.30154534253,0.62867436601,2.93587376632e-12,-2.52254594728e-05,-0.184492060387,-0.834658173197,5.82887125677e-07,-0.00352265600693,-0.605796192431,1.16977358912,-0.563973750342,0.00180512511575,1.46867959128e-06,-0.00352102284904,-0.605798414435,1.16977641049,-0.563977506105,0.00180435320276,-1.19357702872,-0.202746720106,right_gripper,0.0244420897562,0.018406877592,0.40315885187,-0.321884208879,0.774735193677,0.362914455468,0.405547819332
joint_states,0.265896208495,0.15745794478,-0.00290805888352,-0.509409360956,0.000295132751908,-0.000999407102254,0.102551165697,1.29096015928,-1.08867917465,-2.21773919891,-2.00687238379,-2.38717814781,1.30008607372,-0.645939586721,2.93587376632e-12,-2.52254594728e-05,0.75226978239,-1.24328338432,1.40101021229e-06,-0.017293361013,-0.555722265824,1.09276966252,-0.537038006444,0.0155720331397,6.37741811271e-06,-0.0172964740828,-0.555743662589,1.09281284463,-0.537058060753,0.0155712612267,-1.19380568773,-0.202898680077,right_gripper,0.00364832681236,-0.00443849139962,0.463141906117,0.815695669416,0.325475822194,-0.381443916431,0.288455547149
joint_states,0.265901375588,0.157454844524,-0.00290997635951,-0.50940264979,0.000294174013916,-0.000999407102254,0.102551165697,1.51172834908,-1.55934555876,-1.70482683656,-0.300852774327,-2.15862747401,0.756503278188,-0.24342302798,2.93587376632e-12,-2.52254594728e-05,0.168762580217,-0.381243450145,-1.00527130038e-05,0.0164950338785,-0.62690472681,1.08962697904,-0.462708008629,-0.0181707979661,-1.67566581943e-07,0.0164919208088,-0.626895443959,1.08960580213,-0.46269834206,-0.0181668236514,-0.237091591205,0.0217355490246,right_gripper,0.0336043287534,0.00785988441166,0.697162340242,-0.486367690057,0.75129350226,0.440156673077,-0.0725716657852
joint_states,0.265905509263,0.157456911361,-0.00290901762151,-0.509405526004,0.0002960914899,-0.000999407102254,0.102551165697,1.31885832878,-2.27224837142,-1.9487163595,-0.0645631674509,-0.702006295998,-1.30023634559,-0.589652718344,2.93587376632e-12,-2.52254594728e-05,-0.184361160693,-0.600195004808,3.03725638595e-06,-0.00964813745757,-0.633359909713,0.991756550399,-0.358400191267,0.00793250505746,1.46867959128e-06,-0.00964840279075,-0.633357338028,0.991746281799,-0.358391483436,0.00793458088109,-0.215180593126,0.527305895834,right_gripper,0.0136953165703,-0.0155948978095,0.660445935324,0.270628588155,0.877367830475,-0.19730682162,-0.343592601
joint_states,0.265897241914,0.157458978198,-0.00290614140754,-0.509406484742,0.000295132751908,-0.000999407102254,0.102551165697,1.36224434338,-2.32682010933,-1.66458764428,-0.0656609224522,1.74283310897,1.29786077893,-0.60762960964,2.93587376632e-12,-2.52254594728e-05,-0.170005827595,-0.355456210447,-2.35235961377e-07,-0.0773844004909,-0.635894812965,1.16315115544,-0.527249291542,0.0756877530016,-1.67566581943e-07,-0.0773865643152,-0.635890323804,1.16314415933,-0.527247294877,0.0756850825975,-1.1933330299,0.169137680408,right_gripper,0.0387787120448,-0.00262787609229,0.616652175813,0.895332532533,0.0279161540398,0.284630374817,0.341446766368
joint_states,0.265896208495,0.157456911361,-0.00290710014553,-0.509409360956,0.0002960914899,-0.000999407102254,0.102551165697,1.48909751437,-2.30871564825,-2.25904259037,-0.0597876935106,2.282758873,1.29731536353,-0.617119837448,2.93587376632e-12,-2.52254594728e-05,-0.151330804599,-0.247922111908,-1.05335904843e-06,-0.00405518275322,-0.657030192008,1.23828539807,-0.581252126441,0.00234239808973,1.46867959128e-06,-0.00405354959533,-0.657033372751,1.23829258277,-0.581256840942,0.00234162617674,-1.10075776872,-0.202535797747,right_gripper,0.0489128073444,-0.00102499930857,0.605667284016,0.884162973945,0.0787617992951,0.30561145699,0.344461974437
joint_states,0.265904475844,0.157458978198,-0.00290710014553,-0.50940744348,0.00029225653793,-0.000999407102254,0.102551165697,1.4721639166,-2.11293242081,-2.1960343295,-1.77944630965,0.282418204724,-1.26624605841,-0.609200405967,2.93587376632e-12,-2.52254594728e-05,-0.0958293343857,-1.21010031192,-2.68960522209e-06,0.0381027100386,-0.574426285318,1.19375768553,-0.619345663094,-0.0398240379119,-1.67566581943e-07,0.0381033939509,-0.574433301013,1.19377359687,-0.619353253809,-0.0398248098249,1.12583739587,-0.0685502458294,right_gripper,-0.00365073802679,-0.0159971546299,0.355332285641,0.241791512475,-0.708508411736,0.182029513985,0.637509177215
joint_states,0.265901375588,0.157461045036,-0.00290805888352,-0.509408402218,0.000295132751908,-0.000999407102254,0.102551165697,1.47947432003,-2.01186097795,-2.19052350352,-1.84353794445,0.800594038658,-1.26087917096,-0.646550451959,2.93587376632e-12,-2.52254594728e-05,-0.0840919951661,-1.18998539229,5.82887125677e-07,0.0193940297487,-0.562159232705,1.19287738509,-0.63074218161,-0.0211096621488,6.50556504667e-07,0.01939281517,-0.56216145471,1.19288238812,-0.630744019897,-0.0211094848163,1.18557300459,-0.184912755339,right_gripper,-0.0105959407945,-0.0147886078457,0.320093042111,0.0756046060934,-0.529153730206,0.232365256114,0.81258024902
joint_states,0.265903442426,0.157454844524,-0.00290710014553,-0.50940264979,0.000293215275923,-0.000999407102254,0.102551165697,1.50259912885,-0.614384457701,-2.15419500351,-0.771855822819,-1.65890734643,1.29964974141,0.364736949878,2.93587376632e-12,-2.52254594728e-05,0.760123764024,-0.507648921221,-1.87148213504e-06,0.0528815138051,-0.476319585291,0.979611240467,-0.503282759207,-0.0545895522409,6.50556504667e-07,0.0528793499808,-0.4763294772,0.979629333467,-0.503293226136,-0.0545884256628,1.03034757119,-0.18175563113,right_gripper,0.0293966300719,0.0157285444697,0.637619243303,-0.186453620476,0.620755968155,0.756498328516,-0.0872201488368
joint_states,0.265893108239,0.157444510337,-0.00290901762151,-0.50940744348,0.000295132751908,-0.000999407102254,0.102551165697,1.51188129504,-0.614400992399,-0.46582767797,-2.17536770974,0.239328684392,-0.0916176552031,-0.00324390628982,2.93587376632e-12,-2.52254594728e-05,0.760560096337,0.468317379879,-2.35235961377e-07,0.116211379055,-0.412772513677,0.785027754654,-0.372252037782,-0.11790897579,-6.71255127749e-06,0.116208265986,-0.41276131335,0.785013122731,-0.372238536261,-0.117909747703,0.837770184974,0.595100656124,right_gripper,0.0478402675208,-0.00934459542357,0.217369402924,0.6470286599,0.0953595374535,0.69423099842,-0.300505894646
joint_states,0.265890007983,0.157446577175,-0.00290997635951,-0.509408402218,0.000294174013916,-0.000999407102254,0.102551165697,1.34120807362,-0.501281955079,-0.293353589346,-2.17709823182,2.33691318851,0.240256702064,0.622325730856,2.93587376632e-12,-2.52254594728e-05,0.760472829874,0.16153213061,7.94599490739e-06,0.114732454509,-0.376165020912,0.741277804461,-0.365112315952,-0.116416761806,7.19554119932e-06,0.114752123332,-0.376185458939,0.741356983985,-0.365149627545,-0.116464995996,1.0316322801,0.669995829985,right_gripper,0.0473773123403,-0.00718508523245,0.238035732763,-0.562520453718,0.233779736119,0.0956308848833,0.787256316574
joint_states,0.265894141658,0.157446577175,-0.0029109350975,-0.509406484742,0.0002960914899,-0.000999407102254,0.102551165697,0.65563401679,-0.233648230133,-0.29285504559,-2.17807518583,2.27621548621,-0.100344301463,0.531568609753,2.93587376632e-12,-2.52254594728e-05,0.760516463105,-0.562757692352,1.04003641681e-05,0.011921568881,-0.48382266882,0.800098672745,-0.31621092591,-0.0136296073168,-1.80381275605e-06,0.0119232020389,-0.483843106846,0.800082949992,-0.316181125843,-0.0136512626316,-0.0777891244898,0.616516945398,right_gripper,0.0226175003085,0.00714271526034,0.351712206003,-0.641499291679,-0.0428123036871,0.0672199971952,0.762972632147
joint_states,0.265904475844,0.157451744268,-0.00290710014553,-0.509403608528,0.0002960914899,-0.000999407102254,0.102551165697,0.496574354004,-1.35335318862,0.258128802444,-2.17781249162,-1.92313361967,0.209735256769,-0.644325157163,2.93587376632e-12,-2.52254594728e-05,0.760516463105,-0.551696668218,6.30974873372e-06,-0.00361283433295,-0.531632056288,1.0622722155,-0.530648017725,0.00190194816053,2.43761260235e-05,-0.00360835343845,-0.531646741887,1.06232085177,-0.530675741937,0.00187744510912,-0.305782292148,-0.202544905758,right_gripper,0.0368697239887,0.0104296783167,0.356387149212,0.0995913527071,0.592633612985,0.708034979236,0.370881964249
joint_states,0.265903442426,0.157451744268,-0.00290901762151,-0.509406484742,0.0002960914899,-0.000999407102254,0.102551165697,1.11638474909,-1.63475411663,0.481365191553,-0.549718147449,-0.963395663515,0.0321261887633,-0.359203807234,2.93587376632e-12,-2.52254594728e-05,0.388674065968,-0.398085877427,-5.96209756942e-06,-0.0835516487452,-0.552312034785,0.987694296565,-0.435345626326,0.0818179806799,-9.85689669442e-07,-0.0835519140784,-0.552310421838,0.98769057295,-0.435342670922,0.0818304982044,-1.02806481603,0.223559483811,right_gripper,0.0318770140925,0.0313423848993,0.723263245055,0.886552597861,0.235061245774,0.398138469923,-0.0160143912706
joint_states,0.26590034217,0.157452777686,-0.00290710014553,-0.509404567266,0.0002960914899,-0.000999407102254,0.102551165697,1.39300404908,-2.32744326077,1.05974593646,-0.0664442113921,-2.38662399725,-1.29085520086,0.645996758836,2.93587376632e-12,-2.52254594728e-05,-0.182615831441,-0.517880913961,3.03725638595e-06,0.00735379935668,-0.647896295154,1.2341260603,-0.586199214482,-0.00906088854695,6.50556504667e-07,0.00735448326903,-0.647900434635,1.23413324499,-0.586204887721,-0.00905976196886,-0.657022187471,-0.183932445742,right_gripper,0.000280868712264,0.00805843971467,0.651459239155,0.494470415412,0.778083472074,-0.283181896016,-0.264373093443
joint_states,0.265905509263,0.157455877942,-0.00290901762151,-0.50940744348,0.0002960914899,-0.000999407102254,0.102551165697,0.867467269063,-2.53407325021,2.19401735045,-1.12095054188,-1.7354568227,-1.20417778689,-0.069915483716,2.93587376632e-12,-2.52254594728e-05,-0.184492060387,-1.04346500158,1.28547334288e-05,-0.0239741511028,-0.64051976504,1.1703506386,-0.529825420527,0.0222594679483,-4.25818201677e-06,-0.023974416436,-0.640545955495,1.17041018317,-0.529885741832,0.022290021138,-0.177320988543,0.163466745183,right_gripper,0.0209734244006,0.0234843981589,0.703728098048,0.874648733616,-0.238143520739,0.0479079521556,-0.419502186446
joint_states,0.265899308751,0.157456911361,-0.00290901762151,-0.509408402218,0.0002960914899,-0.000999407102254,0.102551165697,0.869950574046,-2.79951199398,2.25019460311,-2.06081769441,2.36766662709,1.30156960359,0.631641425739,2.93587376632e-12,-2.52254594728e-05,0.760429196643,-1.2433924674,5.82887125677e-07,0.00451555520087,-0.572577838469,1.17479359238,-0.602211097694,-0.00622833986437,4.7411719386e-06,0.00451528986769,-0.572589647854,1.17482804784,-0.60223211074,-0.00622721328628,-1.17625167446,-0.201621161702,right_gripper,0.0255796880412,0.00704057019389,0.518380536415,0.11866285174,0.810510601483,0.340536533171,0.461548006253
joint_states,0.265901375588,0.157454844524,-0.00290997635951,-0.509409360956,0.000295132751908,-0.000999407102254,0.102551165697,1.31955485294,-2.79951096056,2.08973637775,-2.16471708939,2.3863533893,1.3015914202,0.645538609908,2.93587376632e-12,-2.52254594728e-05,0.531965597557,-0.725771444489,1.40101021229e-06,0.0270895633176,-0.58024198998,1.17955506874,-0.599301327887,-0.0287919062802,-9.85689669442e-07,0.0270892979845,-0.580242294509,1.17956334427,-0.599306042388,-0.0287926781932,0.367875437601,-0.20290203566,right_gripper,0.0308897197294,-0.00116558847736,0.429821291797,0.257583647601,0.742376824571,0.293060597225,0.544649246013
joint_states,0.265901375588,0.157456911361,-0.00290901762151,-0.509406484742,0.000295132751908,-0.000999407102254,0.102551165697,1.28164079002,-2.79951406081,2.23378771985,-1.99716132666,2.34460130847,1.30154778697,0.645407710214,2.93587376632e-12,-2.52254594728e-05,0.424889647947,-0.82988033437,-7.59834374309e-06,0.018478957051,-0.573815569217,1.18862859919,-0.614840553268,-0.02019269096,1.21042797208e-05,0.0184900826643,-0.573820667436,1.18863796555,-0.614843350293,-0.0202048538195,0.93081043408,-0.202895803863,right_gripper,0.0303408958334,0.00510319901086,0.483935116602,0.298784708987,0.768541748112,0.274427766381,0.494732938184
joint_states,0.26590034217,0.157455877942,-0.00290710014553,-0.509408402218,0.000295132751908,-0.000999407102254,0.102551165697,0.869541340266,-2.79951302739,2.24842381404,-2.06443884781,2.36232166278,1.30156960359,0.626754503833,2.93587376632e-12,-2.52254594728e-05,0.760167397255,-1.24306521816,-5.14397448237e-06,0.00417477605307,-0.581083761938,1.17490485712,-0.59384131502,-0.00588281448888,-5.89442819088e-06,0.00417356147435,-0.581146384436,1.17503530569,-0.59390834749,-0.00587978941972,1.11751555009,-0.142888872286,right_gripper,0.0247382400124,0.00761400584846,0.508558349092,0.114149245138,0.812814683547,0.337940912273,0.460541181499
joint_states,0.265901375588,0.157460011617,-0.00290805888352,-0.509409360956,0.000297050227893,-0.000999407102254,0.102551165697,0.854700415234,-2.23566948538,2.16650540502,-0.424433142813,2.21875064842,-1.30012726252,-0.561574734003,2.93587376632e-12,-2.52254594728e-05,-0.0850082930234,-1.09054525816,1.40101021229e-06,0.00664376369496,-0.612244664168,1.19967326087,-0.587438862706,-0.00834990363969,6.50556504667e-07,0.00664349836177,-0.61224784491,1.19968153639,-0.587441659731,-0.00835067555268,1.01446128266,-0.150445165774,right_gripper,-0.000437362527192,0.00694568838079,0.722404847587,-0.537910727175,-0.607341846632,0.233396022403,0.536017003132
joint_states,0.265908609519,0.15745794478,-0.00290901762151,-0.509408402218,0.000297050227893,-0.000999407102254,0.102551165697,0.574418679602,-1.90666826157,2.30432686764,-0.0534686514025,2.38714530688,-1.29297141258,-0.64639773565,2.93587376632e-12,-2.52254594728e-05,0.0447569368624,-1.24308703478,-1.87148213504e-06,-0.0127635613102,-0.601029347132,1.16027681633,-0.559261553109,0.0110526751378,-9.85689669442e-07,-0.0127619281523,-0.601029651661,1.16027854686,-0.55926147392,0.0110509539792,1.1933114583,-0.198141901528,right_gripper,0.00441076944851,0.0134787164768,0.758047438521,-0.599593979816,-0.501636138614,0.107833094189,0.614182601188
joint_states,0.265899308751,0.15745794478,-0.00290997635951,-0.509410319694,0.000297050227893,-0.000999407102254,0.102551165697,1.49958257985,-2.43121502653,1.73907220459,-0.23794709843,-0.417317677788,-1.30156715915,-0.642688910989,2.93587376632e-12,-2.52254594728e-05,-0.184404793924,-0.188166401643,1.40101021229e-06,0.0491879994204,-0.591609746357,1.23851229088,-0.646910339115,-0.0508988855928,-2.62193584266e-06,0.0491877340872,-0.591615803313,1.2385205664,-0.64691313614,-0.0508987082602,0.831191804239,-0.197993776508,right_gripper,0.0504882318977,0.01782891255,0.602818639984,-0.418494389441,0.704202224061,-0.448113816964,0.35798838065
joint_states,0.26590034217,0.157452777686,-0.00290805888352,-0.509405526004,0.0002960914899,-0.000999407102254,0.102551165697,1.28368385866,-2.00396255932,1.10320648839,-1.57274335722,1.07616505856,-0.639301974479,0.211606124631,2.93587376632e-12,-2.52254594728e-05,0.759905597867,-0.182995863734,-1.41433284382e-05,0.0401255522781,-0.591711372584,1.04692968055,-0.455229852288,-0.0418592203434,-1.65300283195e-05,0.040116743735,-0.591692502353,1.04694777355,-0.455235525527,-0.0418523982921,0.0651448084804,0.0780748284117,right_gripper,0.0557553423594,-0.00928920658123,0.505035977752,-0.377170090987,0.734196466612,-0.45717860464,0.331188759379
joint_states,0.265905509263,0.157456911361,-0.00290614140754,-0.509406484742,0.000297050227893,-0.000999407102254,0.102551165697,1.50890608278,-2.26817773541,-0.0390291620948,-1.36346235833,-1.17510226953,0.0397620042407,0.264838666817,2.93587376632e-12,-2.52254594728e-05,0.0218931236613,0.414670321996,-1.87148213504e-06,0.077355911487,-0.614942552878,1.00005777265,-0.385128847758,-0.0790582544496,-1.80381275605e-06,0.0773508999261,-0.614954362263,1.00009004645,-0.385147943329,-0.0790571278715,0.102838551391,0.474115112014,right_gripper,0.0481375895284,0.0168885353267,0.427154609531,0.909711416918,0.191507410011,0.346498453659,0.125255225247
joint_states,0.265911709775,0.157458978198,-0.00290805888352,-0.50940744348,0.000297050227893,-0.000999407102254,0.102551165697,-0.0846864257028,-2.44717514394,0.125073226379,-1.48291248355,1.71136541059,0.113109466056,0.101257682673,2.93587376632e-12,-2.52254594728e-05,0.0195369291711,-1.04933367119,1.40101021229e-06,-0.0133198191949,-0.624833852746,1.17323915851,-0.548393299227,0.0116174762323,3.92304885199e-06,-0.0133172367915,-0.624836074751,1.17324525238,-0.548393220038,0.0116138565827,0.184178841406,0.208513049758,right_gripper,0.0144472748848,0.0146121390681,0.604357986095,-0.256986673484,0.888661506798,-0.0568599839642,0.375507014863
joint_states,0.265903442426,0.157456911361,-0.00290805888352,-0.509408402218,0.000297050227893,-0.000999407102254,0.102551165697,-0.289650544302,-1.95863785136,-0.43118559809,-2.06498532846,-0.11767082942,-0.304155124865,-0.356978512438,2.93587376632e-12,-2.52254594728e-05,0.275314931051,-1.18274227589,-5.14397448237e-06,-0.0286672210381,-0.559004025972,1.15016263331,-0.591184652043,0.0269364007094,-9.85689669442e-07,-0.0286674863712,-0.559018711571,1.15019927043,-0.591205665089,0.0269346795508,0.682171802493,-0.0742192635786,right_gripper,0.00871949757508,0.0187179803479,0.39228077649,0.558927424529,-0.0587468759061,0.748557660443,-0.351866974398
joint_states,0.265903442426,0.157453811105,-0.00290997635951,-0.50940744348,0.000297050227893,-0.000999407102254,0.102551165697,-0.386711289437,-2.79885680656,-0.727584242139,-2.09042544109,-0.82044015894,1.18103280212,0.399316285683,2.93587376632e-12,-2.52254594728e-05,0.60893461757,-1.24347973386,3.85537947301e-06,0.0154081477386,-0.572570168565,1.19061063873,-0.618064789137,-0.0171342218396,2.28680267789e-06,0.0154126286331,-0.572576225522,1.19062655006,-0.618072379851,-0.0171330952615,-0.537668894794,-0.0589839581409,right_gripper,0.0129344693596,-0.00477561906053,0.283266139127,0.80455268732,-0.525884311624,0.272876884715,0.0409740149563
joint_states,0.265901375588,0.15745794478,-0.00290901762151,-0.50940744348,0.000297050227893,-0.000999407102254,0.102551165697,0.417511627834,-2.79951509423,0.995957262872,-1.88164298595,1.69915012983,1.21127063141,0.315933180669,2.93587376632e-12,-2.52254594728e-05,0.172253238721,-0.964772468934,1.77634719498e-05,-0.0273164446388,-0.610697261048,1.17610586181,-0.565428155876,0.0255951167655,3.10492576538e-06,-0.0273157607265,-0.610692771887,1.17607923075,-0.565388768429,0.0256123805177,-0.51544055444,0.0821192646327,right_gripper,0.0184039054939,0.01702089422,0.560131969889,-0.0873857309154,0.882856206519,0.339540512633,0.312475427712
joint_states,0.265897241914,0.157456911361,-0.00290805888352,-0.509409360956,0.000297050227893,-0.000999407102254,0.102551165697,1.48835345295,-2.38994338646,2.30040754673,-0.175708704175,2.38375329187,1.30095873835,0.642811532952,2.93587376632e-12,-2.52254594728e-05,-0.173627385793,-0.248445710684,-2.35235961377e-07,-0.00762814295471,-0.656201842383,1.23967620732,-0.583500367033,0.00592769848319,1.46867959128e-06,-0.00762650979682,-0.656198311959,1.23967248371,-0.583498370368,0.00592787581574,-1.1866659659,-0.202710767431,right_gripper,0.0480733106075,0.0140114758616,0.607196067011,0.768031763529,0.329106191517,0.345543330341,0.427102015651
joint_states,0.26590034217,0.157452777686,-0.0029109350975,-0.509399773576,0.000297050227893,-0.000999407102254,0.102551165697,1.50059636353,-2.39215696918,2.29913626015,-0.142118359872,2.38759591374,1.30154778697,0.646673073922,2.93587376632e-12,-2.52254594728e-05,-0.184492060387,-0.228374424286,-2.68960522209e-06,-0.060094842279,-0.652361137985,1.1883417107,-0.535969972321,0.0583868038432,6.50556504667e-07,-0.0600970061032,-0.652382534749,1.18839252862,-0.535997696533,0.0583850826846,-1.19376398263,0.0818623228507,right_gripper,0.048819771483,0.0151759847412,0.601208427883,0.770814162045,0.32016739972,0.347803735996,0.427049089654
joint_states,0.26590034217,0.157454844524,-0.00290997635951,-0.509403608528,0.000297050227893,-0.000999407102254,0.102551165697,1.3097983476,-1.03384908207,2.30470461041,-0.0525338818599,2.38760645986,1.30156960359,-0.338281672826,2.93587376632e-12,-2.52254594728e-05,0.759556532017,-0.3471658965,-1.87148213504e-06,-0.0275869796169,-0.539772700582,1.00710672117,-0.467332001967,0.0258808396722,-4.25818201677e-06,-0.0275872449501,-0.539779716277,1.00713135916,-0.467344386372,0.0258810170047,-1.03420121855,-0.202613455525,right_gripper,0.0567836398157,0.0250621276782,0.684011713155,0.397008348153,0.648442714301,0.585125408748,0.282018924548
joint_states,-1.33022610881,1.05038951777,-2.30396169218,-0.0525870061097,-2.38683783246,-0.808977767697,-0.705470828129,-0.265363139518,-0.157685759872,0.00361071011847,-0.509459780409,0.000423640273097,0.00129931084992,0.102195797146,2.93587376632e-12,-2.52254594728e-05,0.760429196643,0.323105986113,2.21913329934e-06,-0.0539835995114,-0.487238652287,1.00818664365,-0.520948465455,0.0522632208836,-1.67566581943e-07,-0.053982915599,-0.487236080602,1.00819601,-0.520957014908,0.0522652967072,-1.19375247777,-0.202895324494,left_gripper,-0.0845004107977,-0.0263045590599,0.70669493617,0.815343896993,-0.215058406598,-0.360156193008,-0.399063563892
joint_states,0.108604724995,2.17689953797,-0.0941722458588,-1.60514909503,1.56584620399,-0.0702453451751,0.0333052276246,-0.26611133461,-0.160446021049,0.00691356250238,-1.6582388177,-0.00065685744437,0.000841161921273,0.106319137504,2.93587376632e-12,-2.52254594728e-05,0.760560096337,1.12390668016,0.000231293597623,-0.0770312811512,-0.606948595498,1.02191256738,-0.415449895507,0.0745752372322,0.000228906897742,-0.0770467344129,-0.607360198625,1.02260479381,-0.415728809073,0.0745915517388,-0.83040132476,0.641759558001,left_gripper,-0.0969535660509,-0.0733598359094,0.568859981939,0.855981101256,0.0949634301003,-0.383278438444,-0.333730340035
joint_states,-0.0519409937895,2.00331414284,-0.209909178829,-1.58205213805,1.37038157831,-0.0246922516981,0.0788583211016,-0.322912156522,-0.191279099474,-0.0109151292048,-1.68960680733,7.56183818458e-05,-0.00171138210977,0.101584931908,2.93587376632e-12,-2.52254594728e-05,0.760560096337,0.994730498896,0.00025583729023,-0.0821961261183,-0.574942086358,0.947408824937,-0.373083263621,0.0797267927618,0.000255904959609,-0.0822134778711,-0.575390121529,0.948158865392,-0.3733851869,0.0797421580229,-0.822474958408,0.704777885612,left_gripper,-0.0952082263754,-0.0529989996765,0.598836358422,0.865705934127,0.168269742122,-0.354295048097,-0.310988019701
joint_states,0.00345437877732,1.66811654089,0.449774465311,-2.05948544226,0.110798315021,-0.621463956186,-0.517913383387,0.178386822802,-0.248457119188,-0.0239558833778,-0.554203123778,-0.00672375146046,0.0408310184076,0.0510140168316,2.93587376632e-12,-2.52254594728e-05,0.760560096337,1.01532538407,-0.000716911060061,-0.0351306338999,-0.551529704583,0.881426652565,-0.330674447264,0.0327239507488,-0.000716843390682,-0.0351375439518,-0.55178407468,0.882333772653,-0.331325351172,0.0327307728001,-0.45210152897,0.705538644209,left_gripper,-0.0585520911045,-0.0368681455327,0.379622127216,-0.290788813455,-0.513336915021,0.358632174039,0.723401715087
joint_states,-0.314693882517,1.68346694131,0.178293421685,-1.92241467148,-0.143305602492,-0.717217082274,-0.613666509474,0.0670866022805,-0.149477315646,0.0124704079065,-0.523224381767,0.0480326515011,0.0211524310914,0.052104847614,2.93587376632e-12,-2.52254594728e-05,0.760560096337,0.770106624164,-0.000825721430616,-0.0211776737507,-0.568513748119,0.933413465997,-0.365541830573,0.0188431332604,-0.000825653761236,-0.0211807868205,-0.568677038106,0.934209321346,-0.366172600983,0.0188461583296,-0.34219564047,0.489072862803,left_gripper,-0.0333224701425,-0.0444490935706,0.411117578308,-0.22009679605,-0.656369344199,0.427983068058,0.581005316516
joint_states,-0.848703661928,0.917984821863,0.507137676874,-1.19045177009,1.4687423439,-0.379037723084,-0.275487150285,0.750076079101,-1.02629685868,-0.391545617055,-1.32394126081,1.64473407885,-1.14095323473,-0.64639773565,2.93587376632e-12,-2.52254594728e-05,0.66465425394,-0.325174747925,-0.00129859657483,-0.0209669412414,-0.657734864433,1.03293213995,-0.375829089232,0.0186437916976,-0.00129934702854,-0.0209719528023,-0.657788858289,1.03376399271,-0.376607505292,0.0186468167668,-0.100410547421,0.164435549925,right_gripper,0.124222533009,-0.00232632321952,0.526965557626,-0.292128101666,0.562274197951,-0.383038112616,0.672153779145
joint_states,-0.951021407664,0.886371512368,0.513132665541,-1.17805528785,1.45131632215,-0.329143123093,-0.225592550293,0.851742771097,-0.988336291923,-0.386892861578,-1.30656796965,1.66699309882,-1.0309102254,-0.644346973779,2.93587376632e-12,-2.52254594728e-05,0.66434882132,-0.325872879625,-0.00132886712904,-0.0216029357513,-0.656683128855,1.02448474637,-0.368436260572,0.0192190344931,-0.0013263450904,-0.0216060488211,-0.656762049899,1.02538532147,-0.369253026152,0.0192230088078,-0.100469989177,0.14753204038,right_gripper,0.0644760637435,0.00190252445039,0.53107572397,-0.320690454013,0.550623945801,-0.4166918914,0.648335384394
joint_states,-1.09695872061,0.821520359281,0.508235431876,-1.34074929021,1.40869178975,-0.233608163162,-0.130057590362,0.415381752025,-1.21344587341,-0.10121003207,-1.23990020587,1.3361671322,-1.30084721083,-0.634333147195,2.93587376632e-12,-2.52254594728e-05,0.72373364912,-0.0355591751719,-0.000343846932448,-0.0528530480768,-0.666669343784,1.12135051985,-0.455082206638,0.0509731961987,-0.000342961139982,-0.052855211901,-0.666673483265,1.12154641827,-0.455275792523,0.0509771705134,-0.0352638214667,0.00579844737644,left_gripper,-0.154360648838,-0.0833126659399,0.503365107776,0.769799678788,-0.230091534213,-0.455479713891,-0.383411750805
joint_states,-0.682690125139,1.05203368682,0.229487154267,-2.05879131595,1.83360638547,0.0739624842709,0.177513057071,0.147865836805,-1.42778826614,-0.063057053661,-1.97359267059,1.03532761377,-0.759882409176,-0.587907389092,2.93587376632e-12,-2.52254594728e-05,0.759949231098,0.173029487057,-5.96209756942e-06,-0.0358634514545,-0.669900290818,1.22034668586,-0.550981891806,0.0343015968314,-5.89442819088e-06,-0.0358608690511,-0.669843071067,1.22021860753,-0.550910866006,0.0343008249184,-0.104418551599,-0.0367867767712,left_gripper,-0.120009189447,-0.0721420348642,0.333550008986,0.735135579472,-0.133919445568,-0.618293832998,-0.243626759553
joint_states,0.10479037681,0.0938520611494,0.187014102465,-0.57050206331,-0.124631303876,0.0501387399812,0.153689312781,0.712362499397,-2.46658171251,0.637848489202,-1.46874137728,1.2435396198,-0.561983888616,-0.644085174391,2.93587376632e-12,-2.52254594728e-05,0.48440537544,-0.624062382329,-0.00239979024976,0.0839151981481,-0.583376104478,0.996946723262,-0.41428311137,-0.0860285644282,-0.00239890445729,0.0839225267792,-0.583047561875,0.997677128764,-0.41533860271,-0.08603598106,0.730765917008,0.450906941431,right_gripper,0.0643115929646,-0.0505290362796,0.53731861783,-0.180575088074,0.893007670592,-0.387686857778,0.140102955491
joint_states,0.153187438373,0.115915549029,0.193657198014,-0.56335754779,-0.124818257784,0.0518840692332,0.155434642033,0.763833981403,-2.33282013794,0.599336942784,-1.36561568386,1.27517701481,-0.387320063722,-0.645481437792,2.93587376632e-12,-2.52254594728e-05,0.453120348598,-0.569564476435,-0.00275976440798,0.0936933764253,-0.548655408082,0.907009906907,-0.359533419574,-0.0960915163666,-0.00275887861552,0.0937073497752,-0.548448625204,0.908190825522,-0.360919675522,-0.0961065269626,0.727963525856,0.582584811001,right_gripper,0.0719830548474,-0.0453188171783,0.576917743659,-0.276926121687,0.890444766257,-0.340179615348,0.121234775018
