agimus/agimus-demos-ur10-pointing/talos/calibration/apriltags/data/measurements-pyrene-20200819-1.csv
joint_names,arm_left_1_joint,arm_left_2_joint,arm_left_3_joint,arm_left_4_joint,arm_left_5_joint,arm_left_6_joint,arm_left_7_joint,arm_right_1_joint,arm_right_2_joint,arm_right_3_joint,arm_right_4_joint,arm_right_5_joint,arm_right_6_joint,arm_right_7_joint,gripper_left_joint,gripper_right_joint,head_1_joint,head_2_joint,leg_left_1_joint,leg_left_2_joint,leg_left_3_joint,leg_left_4_joint,leg_left_5_joint,leg_left_6_joint,leg_right_1_joint,leg_right_2_joint,leg_right_3_joint,leg_right_4_joint,leg_right_5_joint,leg_right_6_joint,torso_1_joint,torso_2_joint
joint_states,-0.564657872873,0.218429632053,0.337569190702,-2.17667032174,0.0430387072181,0.0880095910703,-0.235786482483,-0.265864967493,-0.157404699356,0.00288244577423,-0.509610948078,-0.000338913880363,0.000970498511786,0.10232299536,-4.36332283642e-05,-2.52254594724e-05,0.759868514088,0.589859512493,-2.47229127703e-06,-0.0158865791271,-0.511337011096,0.977242980792,-0.465895812454,0.0141746843813,-2.23844064617e-06,-0.0158873190831,-0.5113392331,0.977242186654,-0.465897650741,0.0141733191899,-0.00108049771561,0.00577591703362,left_gripper,-0.00516515678344,-0.00344700729492,0.368452653146,-0.346563284913,0.548820220469,0.68418141939,0.33254479475
joint_states,-0.60088436316,0.285197776709,0.251190732536,-2.17808158407,2.38586263737,-0.67500472467,-0.115358764095,-0.265866000912,-0.157393331751,0.00287669334628,-0.509601360699,-0.000336996404378,0.000992315127436,0.102344811975,-4.36332283642e-05,-2.52254594724e-05,0.760523012557,0.632663712398,-1.63803837538e-05,-0.0143630400401,-0.511643807253,0.986209609824,-0.4745752675,0.0126834196426,-1.69646562096e-05,-0.0143713739604,-0.511662327804,0.986212088178,-0.474543549957,0.0126592725583,0.0735999188356,-0.0533796552062,left_gripper,-0.0118796327759,0.00504709323459,0.352028493385,0.521655924884,0.418266866541,0.610258181647,-0.424868069076
joint_states,-0.757238535957,0.224353187674,0.273716281668,-2.1780825428,2.33011873427,-0.423808212077,-0.0162676958133,-0.265866000912,-0.157391264913,0.00288052829825,-0.509599443223,-0.000336996404378,0.000970498511786,0.102366628591,-4.36332283642e-05,1.84077718273e-05,0.760479379326,0.421871571989,1.63445397212e-05,-0.0247022224298,-0.475505137367,0.994143222105,-0.518653246702,0.0230178558045,-6.32905608011e-06,-0.024683977475,-0.475495854515,0.994112975536,-0.518620570421,0.0229937087202,-0.879322368931,-0.202632150916,left_gripper,0.000944316023248,-0.0033211835532,0.326101607734,-0.37431253893,-0.49735183005,-0.588137358242,0.516358139458
joint_states,-0.555612359552,0.21360563386,0.329784238203,-2.17729541891,-1.62350965909,0.202939522314,0.197796936944,-0.265863934075,-0.157391264913,0.00288244577423,-0.509599443223,-0.000336996404378,0.000970498511786,0.10232299536,-4.36332283642e-05,-2.52254594724e-05,0.760523012557,0.608010936714,-1.79220163155e-08,-0.0411023375735,-0.473816799762,0.967364417226,-0.493551568584,0.039383798109,-2.23844064617e-06,-0.0411059252661,-0.473822856719,0.967377803888,-0.493558200561,0.039383382163,-1.19362592436,0.0671734980687,left_gripper,0.000943124657212,-0.00105306647262,0.378734535386,-0.644106787735,0.170760024017,0.218218286667,0.712985441335
joint_states,-0.536606757416,0.224112401132,0.365170298766,-2.1764699455,-2.03621089153,0.190809484013,0.201593028067,-0.26586703433,-0.157392298332,0.00287765208427,-0.509600401961,-0.000337955142371,0.000992315127436,0.102344811975,-4.36332283642e-05,-2.52254594724e-05,0.757555952829,0.636481620137,2.4364472444e-06,-0.0209640935048,-0.481300708531,0.989872619592,-0.508572116711,0.0192455540403,-1.42031755868e-06,-0.0209629349697,-0.481307724225,0.989884915423,-0.508578748688,0.019247985831,-1.02625759491,-0.122439470277,left_gripper,0.00105475124933,-0.0030268737952,0.38656354259,-0.636390966543,0.0243980074508,0.0640965329261,0.768311726711
joint_states,-0.459915727016,0.302859934618,0.327373012152,-2.17807679038,-2.09195095967,-0.0650121510983,-0.0319320258499,-0.265864967493,-0.157391264913,0.00287861082227,-0.509600401961,-0.000337955142371,0.000970498511786,0.10232299536,-4.36332283642e-05,-2.52254594724e-05,0.760435746095,0.633667276718,1.61832415735e-06,-0.0244089055588,-0.499631778946,0.980424934184,-0.480813775616,0.0227074525139,2.15928614544e-07,-0.0244115440058,-0.499624413571,0.980411050077,-0.480806985261,0.0227079858135,-0.572834924987,-0.00603046197414,left_gripper,-0.00700160267731,0.00169137788292,0.410107402736,-0.706180964629,-0.133519461184,0.0837033250692,0.690271506042
joint_states,-0.515921849997,0.200302435758,0.392667863127,-2.17808637776,-1.74821942094,0.188540555985,0.276336753284,-0.265863934075,-0.157395398588,0.00287956956026,-0.509602319437,-0.000337955142371,0.000970498511786,0.102366628591,-4.36332283642e-05,-2.52254594724e-05,0.760523012557,0.692593955588,-1.79220163155e-08,-0.00393842555216,-0.501402568018,0.992918219136,-0.49152383773,0.00223222627958,3.48842096187e-06,-0.00393726701704,-0.501403831285,0.99293378746,-0.491537180873,0.00222801335152,0.890812364405,-0.202656598734,left_gripper,0.00172614945178,0.00126254473621,0.399219404038,-0.66280575825,0.183868249863,0.128826502856,0.714342162891
joint_states,-0.50768343663,0.211932529088,0.398003240054,-2.17808541902,-1.90084763312,0.176890483228,0.366613908843,-0.265864967493,-0.157394365169,0.00288052829825,-0.509602319437,-0.000336996404378,0.000970498511786,0.10232299536,-4.36332283642e-05,-2.52254594724e-05,0.760523012557,0.721915487022,-1.79220163155e-08,0.00243955521133,-0.502858891029,0.992852769289,-0.489991774418,-0.00412582032763,-1.42031755868e-06,0.0024369167643,-0.502851525653,0.99283670352,-0.489984025325,-0.00412528702801,1.08480149232,-0.170511072586,left_gripper,0.0089311982078,-0.00113802066593,0.40077334386,-0.661212936912,0.16620281869,0.0464276665377,0.730081191991
joint_states,-0.326967452907,0.786177429674,0.250029700827,-2.15827118093,0.36726376276,-0.391301454759,0.0896301565515,-0.265855666725,-0.157384030983,0.00288244577423,-0.509601360699,-0.000334120190401,0.000948681896136,0.102301178744,-4.36332283642e-05,-2.52254594724e-05,0.760566645789,0.705203959434,-3.29041436364e-06,0.0539209376681,-0.499880092086,0.889482371848,-0.389611906611,-0.0556157459943,2.15928614544e-07,0.0539220962032,-0.499872726711,0.889472851063,-0.38960799247,-0.0556218574134,0.666511776124,0.49951351954,left_gripper,-0.01134869692,-0.0104880133797,0.391421970709,-0.552354850448,0.292353168764,0.768454108393,0.137521006377
joint_states,-0.591146459352,0.349002076717,0.200939439401,-2.17805665688,2.20058747907,-0.734651351857,-0.333917619676,-0.26585256647,-0.157382997564,0.00287861082227,-0.509602319437,-0.000337955142371,0.000992315127436,0.102301178744,-4.36332283642e-05,-2.52254594724e-05,0.760566645789,0.644313785155,-8.3604510337e-07,0.0831216288791,-0.422874256534,0.759774955993,-0.336892821883,-0.0848088432409,-6.02194472066e-07,0.0831208889232,-0.422861138731,0.759754526901,-0.336879320362,-0.0848083099413,1.17541373746,0.701401689772,left_gripper,0.0101674858676,-0.00429182896078,0.353710531742,0.521306010225,0.42657843812,0.622432262053,-0.398558601701
joint_states,-0.748797572537,0.241741489645,0.260930551801,-2.17802885348,2.1519075575,-0.651290063459,-0.250425431584,-0.265846365958,-0.157365429447,0.00288244577423,-0.509586020891,-0.000334120190401,0.000948681896136,0.102301178744,-4.36332283642e-05,-2.52254594724e-05,0.76061027902,0.498426076304,8.00201070739e-07,0.0107862712187,-0.516686769093,0.990535844707,-0.473819781962,-0.012486775018,1.03405170204e-06,0.0107845820172,-0.51668323867,0.990524142261,-0.473812032869,-0.0124862417184,1.17282514488,-0.118488990379,left_gripper,0.00658211668193,-0.00456561494317,0.331267959179,0.461716272487,0.458992141895,0.633616226445,-0.417941114255
joint_states,-1.2932242118,1.55155104016,0.427706860536,-1.37838767846,2.00838639751,0.476105366867,-0.539233789558,-0.265863934075,-0.1574015991,0.00288244577423,-0.50960519565,-0.000337955142371,0.000970498511786,0.10232299536,-4.36332283642e-05,-2.52254594724e-05,0.137309569902,0.0339285125015,-1.65416818998e-06,-0.058097629669,-0.570203523831,1.1454436333,-0.575205365923,0.0563990243607,5.94279022259e-06,-0.058098369625,-0.570196158455,1.14543193085,-0.575193781878,0.0563938621871,-0.603961792018,-0.202883819639,left_gripper,-0.0203999390937,0.00820362598353,0.542121755183,-0.344413399117,0.877350305755,0.333803500835,-0.0145283973907
joint_states,-0.895242294033,1.57629934966,-0.0318057131172,-0.231464757929,0.655339602297,-0.116084848335,-0.533037870713,-0.265862900656,-0.157397465425,0.00287956956026,-0.50960519565,-0.000336996404378,0.000970498511786,0.10232299536,-4.36332283642e-05,-2.52254594724e-05,0.344436518882,0.704636727427,4.07269341807e-06,-0.0291228588958,-0.573168900441,1.12029998376,-0.547147898575,0.0274157103777,-1.42031755868e-06,-0.0291235988518,-0.573182627302,1.12031773375,-0.547152613075,0.027419091414,-1.12735220189,-0.20290203566,left_gripper,-0.0323615323025,-0.000956320269002,0.780702322464,0.843668937511,-0.350779518231,-0.381627242651,-0.139775180684
joint_states,-1.43406677087,2.30272857884,0.244247551995,-0.081918888394,-0.0568148134313,-1.29575288976,-0.604334570657,-0.265866000912,-0.157396432006,0.00287669334628,-0.509602319437,-0.000335078928393,0.000948681896136,0.102344811975,-4.36332283642e-05,-2.52254594724e-05,-0.142859408275,0.225696564064,2.4364472444e-06,-0.0622021673712,-0.584295054843,1.221189832,-0.636902073212,0.0604959680987,1.03405170204e-06,-0.0622029073272,-0.584294400634,1.22118467454,-0.636899117809,0.0604965013983,-1.09259363535,-0.094818228715,left_gripper,-0.0294251258816,-0.0190032088443,0.600403326696,0.863728259991,-0.0953474829491,-0.373223951536,0.324940352046
joint_states,-1.35165886857,2.16814957013,-0.206118661211,-0.159538316261,2.37804508778,1.30029347289,-0.646658805018,-0.265870134586,-0.157393331751,0.00287573460829,-0.509600401961,-0.000335078928393,0.000970498511786,0.10232299536,-4.36332283642e-05,-2.52254594724e-05,-0.13531085926,0.510774280762,2.4364472444e-06,-0.119250874903,-0.551075742144,1.08634133067,-0.535267217372,0.117532335438,1.03405170204e-06,-0.11925351335,-0.551077964148,1.08634817235,-0.535270973135,0.117532868738,-1.18360231865,0.287479983873,left_gripper,0.00958694599025,-0.00360435487298,0.672618579461,-0.480550411969,0.727859360973,-0.150599617892,0.465415735973
joint_states,-1.48438495768,2.51074438268,-0.316618967266,-1.09403270108,1.92072514791,0.252528689686,-0.199200018038,-0.265868067749,-0.157395398588,0.00287861082227,-0.509601360699,-0.000336037666386,0.000970498511786,0.10232299536,-4.36332283642e-05,-2.52254594724e-05,-0.184441877704,-0.195516834289,-4.1085374507e-06,-0.0789867269575,-0.622246698274,1.204513211,-0.582252090167,0.0772634412653,1.85217478865e-06,-0.0789827206858,-0.62225754892,1.20454186929,-0.582266392048,0.0772715685292,-0.375808035746,-0.00352480023093,left_gripper,-0.036489455176,0.00536433010464,0.521287894048,0.789124616073,-0.53996931303,-0.292770849088,-0.000843336891493
joint_states,-0.0951995551444,2.72067717808,0.0378830340765,-1.79245223632,1.43074388086,-0.285229069469,0.280132844407,-0.265868067749,-0.157393331751,0.00287861082227,-0.509600401961,-0.000336037666386,0.000970498511786,0.10232299536,-4.36332283642e-05,-2.52254594724e-05,0.20271578362,0.801807933532,-4.92666053775e-06,0.052163884179,-0.621811431225,1.0798148901,-0.457942122069,-0.0538567940141,-4.692809906e-06,0.0521678904508,-0.621759005164,1.07972246618,-0.457901775884,-0.0538591084511,0.506704054487,0.510958454325,left_gripper,-0.0110328704367,-0.0200587662466,0.451554489791,0.924380290856,0.00147010758736,-0.330350133256,0.190755618839
joint_states,0.189883443471,2.79939267559,0.369663903736,-2.11013007011,0.632456443893,-0.0116050759873,0.122965945265,-0.265858766981,-0.157390231495,0.00288244577423,-0.509601360699,-0.000336996404378,0.000992315127436,0.102344811975,-4.36332283642e-05,-2.52254594724e-05,0.356871989802,0.866777814938,1.38901704605e-05,0.0246889213544,-0.60045745992,1.18271513948,-0.582253048905,-0.0264302427119,-1.36921638623e-05,0.024713811028,-0.600448177069,1.18272743531,-0.582285566808,-0.0264373033766,1.06811082261,0.148377647289,left_gripper,-0.0120058273185,-0.00673810377071,0.335991385512,0.822739868682,0.296583783873,-0.463518811723,-0.142434120924
joint_states,-0.239588806973,2.76833741215,0.555055069332,-2.14388339988,-2.2374969743,-1.14146578388,-0.321373065678,-0.265866000912,-0.157396432006,0.00287861082227,-0.509600401961,-0.000335078928393,0.000970498511786,0.10232299536,-4.36332283642e-05,-2.52254594724e-05,-0.0668066861192,0.408781602599,2.37076475029e-05,0.0451128883298,-0.617476018023,1.17243078686,-0.554965448165,-0.0468001026916,-1.04196715149e-05,0.0451311332846,-0.617490703622,1.17242672023,-0.55494907043,-0.0468289960036,1.09978992272,0.240999886631,left_gripper,0.000225978752776,0.00737597561133,0.256897171087,-0.190958158754,-0.76835893387,-0.280204240681,0.542812227066
joint_states,0.177025648801,2.16224874972,0.0808881854649,-1.70636715198,-0.636174429828,0.898235063077,-0.213402634826,-0.265870134586,-0.157395398588,0.00287956956026,-0.509603278174,-0.000338913880363,0.000970498511786,0.10232299536,-4.36332283642e-05,-2.52254594724e-05,0.298927058636,1.12929715105,-2.47229127703e-06,0.0288599062443,-0.588578696194,1.15530038025,-0.566727245856,-0.0305537653249,-6.02194472066e-07,0.0288601155338,-0.588566537128,1.1552777695,-0.566715661811,-0.0305513335342,0.264511018423,0.158609299145,left_gripper,-0.000392744363291,-0.00290741165338,0.490954249652,-0.451774187661,-0.309510803143,0.557740136832,0.623721961989
joint_states,0.00774340886702,1.93042298051,-0.174861885181,-0.994723743605,-2.06336426895,-0.145035497302,0.590277852486,-0.265862900656,-0.157389198076,0.00287861082227,-0.509601360699,-0.000336996404378,0.00101413174309,0.10232299536,-4.36332283642e-05,-2.52254594724e-05,0.280513835028,1.24350713398,1.79807858949e-05,0.0491481311078,-0.579727627048,1.12235183646,-0.54260827418,-0.0508419901884,4.30654404937e-06,0.0491568836072,-0.579713550506,1.1223041366,-0.542574639162,-0.0508509493441,0.243046792248,0.18785272539,left_gripper,-0.0251673901675,-0.00403372009265,0.73659974899,-0.394504902869,-0.739095109114,-0.182512449242,0.514580904394
joint_states,-0.407667114196,1.53058194262,-0.540066278733,-0.335252939299,-1.4605903533,-0.833153371517,0.610850921044,-0.265850499632,-0.157379897308,0.00288148703624,-0.509602319437,-0.000334120190401,0.000970498511786,0.10232299536,-4.36332283642e-05,-2.52254594724e-05,0.7596067147,1.24355076721,-1.79220163155e-08,0.111789793344,-0.443758446223,0.825770218334,-0.381957342479,-0.113475109215,-1.42031755868e-06,0.111791901124,-0.443768338132,0.825786877489,-0.381963015718,-0.113468880442,0.91302584432,0.708568735634,left_gripper,0.00110918957464,0.00172196837001,0.821229660894,0.672088315126,0.596214385187,0.43497486169,-0.0601878165885
joint_states,-1.029557781,2.31474517074,-0.507375230667,-0.695088400094,-2.09487319307,-0.562627337458,0.33914678974,-0.265873234842,-0.157400565681,0.00288148703624,-0.509600401961,-0.000335078928393,0.000970498511786,0.10232299536,-4.36332283642e-05,-2.52254594724e-05,-0.17056651015,0.41639560146,-8.19915288508e-06,0.12861042426,-0.547076845977,0.976783741032,-0.42970824693,-0.130324217497,-1.36921638623e-05,0.128603988831,-0.547096325266,0.976814580987,-0.429718713859,-0.130317039479,1.19353436488,0.533492632099,left_gripper,-0.0210903767185,0.012023846977,0.668251911273,0.115236479434,0.881883205377,0.295776970344,-0.348595108538
joint_states,-1.51149669559,2.70681903417,-1.16484514878,-0.838974839259,-0.503976924266,0.590555332566,-0.0497998340672,-0.265868067749,-0.157395398588,0.00287956956026,-0.509602319437,-0.000336996404378,0.000970498511786,0.10232299536,-4.36332283642e-05,-2.52254594724e-05,-0.184441877704,0.0514908880997,-8.3604510337e-07,0.130202309026,-0.54652653037,0.893558806482,-0.347038187319,-0.131896168107,1.03405170204e-06,0.130200619825,-0.546522999946,0.893563466498,-0.34704290182,-0.131894685562,1.16829175228,0.708877449268,left_gripper,-0.0482037765121,-0.0136875513654,0.589296896452,0.524907427432,0.763263650633,-0.258509183749,-0.273995974728
joint_states,-1.28477601445,2.6871293089,-1.8740821248,-0.969366082444,2.38607643594,1.29824271102,0.646281104859,-0.265861867237,-0.157387131239,0.00287861082227,-0.509599443223,-0.000333161452408,0.000948681896136,0.102344811975,-4.36332283642e-05,-2.52254594724e-05,-0.184616410629,0.764828770005,-1.79220163155e-08,0.0270762738801,-0.634292282411,1.22764427774,-0.593334142622,-0.028790067117,2.15928614544e-07,0.0270764831697,-0.634293545677,1.22764566527,-0.593335022171,-0.0287904830629,1.19378507487,-0.0819342282037,left_gripper,0.00620520152736,0.00615823271957,0.625497555618,0.703634595297,-0.435287175319,0.359964012711,-0.431102471411
joint_states,-1.47592125905,2.4175465564,-2.30161791019,-0.180041886967,2.34349696422,-1.29708370331,-0.61971528469,-0.26586703433,-0.157397465425,0.00287861082227,-0.509604236912,-0.000336996404378,0.000948681896136,0.102344811975,-4.36332283642e-05,-2.52254594724e-05,-0.168777547667,0.288288434364,-3.29041436364e-06,0.0503546221854,-0.654816945353,1.20567058246,-0.550861090819,-0.0520541767392,-3.05656373278e-06,0.050354831475,-0.654811497453,1.20565888002,-0.550854300464,-0.0520536434396,1.19380712584,0.0225394508312,left_gripper,-0.0341547351655,-0.0166191519443,0.61024328348,0.874389565457,-0.139168022488,-0.306669161336,0.349326745071
joint_states,-1.30165484103,2.7435301978,-2.26391649738,-1.4120671854,-0.687194630833,-1.3013815766,0.592524963898,-0.265862900656,-0.157396432006,0.00288052829825,-0.509604236912,-0.000337955142371,0.000970498511786,0.10232299536,-4.36332283642e-05,-2.52254594724e-05,-0.184529144166,0.822162835933,-1.65416818998e-06,0.0110102931654,-0.622655120659,1.22480375439,-0.60215549089,-0.0127126954559,-2.23844064617e-06,0.011010502455,-0.622650631497,1.22479532443,-0.602152535487,-0.0127102636652,1.19380424963,-0.149689200867,left_gripper,-0.00726601301144,0.00738536498537,0.624519731911,-0.0564217703446,0.868517621199,0.492211833237,0.0148740283285
joint_states,-0.982763551739,2.76625714044,-1.66206584642,-1.85308570318,-1.39363784434,0.336391760245,0.1125594196,-0.265863934075,-0.157393331751,0.00287861082227,-0.509603278174,-0.000336996404378,0.000970498511786,0.10232299536,-4.36332283642e-05,-2.52254594724e-05,0.549381806297,0.899240939025,1.22539242868e-05,0.0124294152433,-0.603491865666,1.17488951944,-0.571392464927,-0.014112832623,-7.96530225422e-06,0.012443863216,-0.603497922622,1.17487890783,-0.571390468262,-0.0141056546046,0.685792476521,-0.0978631805789,left_gripper,-0.0245129678108,-0.0363081798286,0.552527010062,0.220686744424,0.907899669904,-0.293364731937,-0.202367695741
joint_states,-1.41022063584,2.77524994941,-1.7820931319,-2.17766549178,-0.781789473594,1.30027165627,0.0606140577371,-0.265868067749,-0.157394365169,0.00288052829825,-0.509600401961,-0.000336037666386,0.000992315127436,0.102301178744,-4.36332283642e-05,-2.52254594724e-05,0.726532725375,0.546531713812,1.61832415735e-06,0.0195601477177,-0.616886394158,1.16035856259,-0.54347305585,-0.0212445143429,2.15928614544e-07,0.0195603570073,-0.616876152569,1.16034031516,-0.543464348019,-0.0212420825522,1.18273849572,-0.0814673228014,left_gripper,-0.0175379332313,-0.0382060687886,0.348605665891,-0.372191820114,-0.564424785862,0.668962542347,0.308847902828
joint_states,-1.42115317159,2.79950118454,-2.30425252219,-1.13785661471,-1.85010163118,1.30147157014,-0.64604793978,-0.265866000912,-0.157397465425,0.00287956956026,-0.509603278174,-0.000335078928393,0.000970498511786,0.10232299536,-4.36332283642e-05,-2.52254594724e-05,-0.115370472556,0.892412338326,8.00201070739e-07,-0.0168775914678,-0.624032827154,1.23302861849,-0.608995127728,0.0151846816327,-6.02194472066e-07,-0.0168783314238,-0.624025461778,1.23301364355,-0.608986419897,0.0151833164413,0.395850453482,-0.174600090124,left_gripper,0.0132441028244,-0.0121132200323,0.574869348422,-0.38636408405,0.68706916542,-0.453857480046,0.415538378843
joint_states,-0.632046068711,2.51094176564,-2.09578740934,-0.471562472111,-2.28768690821,1.30158065321,0.645430256849,-0.265866000912,-0.157396432006,0.00288052829825,-0.509604236912,-0.000338913880363,0.000970498511786,0.102366628591,-4.36332283642e-05,-2.52254594724e-05,-0.184441877704,1.19175812166,-8.3604510337e-07,0.006247928306,-0.577961631666,1.21744500993,-0.639471491031,-0.0079750109804,-5.5109329935e-06,0.0062509853322,-0.57797823474,1.21747366822,-0.639484834174,-0.00797542692631,1.11671835945,-0.151448005714,left_gripper,0.0109077560164,-0.0228886480292,0.699343835736,-0.254554570815,0.832924266473,-0.453719794662,0.188619947856
joint_states,-0.802535341612,2.4896905448,-1.76395380909,-1.78838143481,2.13664924235,-1.0850261992,-0.629576394964,-0.265864967493,-0.157394365169,0.00288052829825,-0.509601360699,-0.000336037666386,0.000970498511786,0.102279362128,-4.36332283642e-05,-2.52254594724e-05,0.760173946707,0.987772765332,2.4364472444e-06,0.011101420737,-0.565289032882,1.1533107049,-0.588025610358,-0.012792432081,-2.23844064617e-06,0.0111054270087,-0.565275915078,1.15330009329,-0.588024572431,-0.0127994927456,1.00080549806,-0.202880943425,left_gripper,-0.0266355039266,-0.00787947385568,0.563399268003,-0.496527168673,0.576670176882,0.435107585934,-0.481241796322
joint_states,-0.689679826044,1.50832417203,-1.17564437353,-0.631114690073,-0.963303502748,-0.0626341399924,0.645888405778,-0.265866000912,-0.157395398588,0.00287573460829,-0.509600401961,-0.000333161452408,0.000970498511786,0.10232299536,-4.36332283642e-05,-2.52254594724e-05,0.760566645789,0.872253785466,1.79807858949e-05,-0.00466364914248,-0.551959698573,1.0555406327,-0.503572298081,0.0029754855351,4.30654404937e-06,-0.00465679513413,-0.551975342909,1.05557147265,-0.503596187341,0.00295038920522,-0.827731239451,-0.202894365756,left_gripper,-0.0432891286493,0.00804264924749,0.795635017014,0.672769242866,0.659649453593,0.118613210977,-0.31332898112
joint_states,-0.371559467053,1.38011412237,-0.2239368068,-0.967783206018,-1.59572543207,1.29060689554,0.334608933685,-0.265863934075,-0.157394365169,0.00287956956026,-0.509599443223,-0.000338913880363,0.000970498511786,0.10232299536,-4.36332283642e-05,-2.52254594724e-05,0.760479379326,0.879213285858,-1.63803837538e-05,-0.0353404171636,-0.543616760563,1.00311966861,-0.459515411115,0.0336180807169,6.76091331009e-06,-0.0353373601374,-0.543637198589,1.00316250771,-0.459524919305,0.0336338019451,-1.01340715023,0.152677587185,left_gripper,-0.0171443611397,-0.00368929065451,0.661694495584,-0.462980942577,-0.256714897286,0.331248787244,0.781037994768
joint_states,-0.834958851318,1.20011016409,1.52502084239,-2.12048827538,-0.992428045482,1.16917561283,0.57009748301,-0.265868067749,-0.157388164657,0.00288052829825,-0.509600401961,-0.000333161452408,0.000970498511786,0.10232299536,-4.36332283642e-05,-2.52254594724e-05,0.170558092152,1.24324533459,8.00201070739e-07,-0.0624119506349,-0.550252186208,1.05757175961,-0.507330551011,0.0607057513624,-6.02194472066e-07,-0.0624117413453,-0.550248655785,1.05756223883,-0.50732663687,0.0607043861709,-1.14970565756,0.216024761928,left_gripper,0.0292680369024,-0.022240959778,0.413563679896,-0.0251493878797,0.709554043953,0.0637551725003,0.701310091884
joint_states,-1.36719425093,1.68498295419,2.30412105592,-2.17760988497,2.38587318349,1.30149338675,0.646608354094,-0.265862900656,-0.157395398588,0.00287669334628,-0.509603278174,-0.000333161452408,0.000970498511786,0.10232299536,-4.36332283642e-05,-2.52254594724e-05,-0.18431097801,0.922279285151,8.00201070739e-07,-0.0185919289077,-0.554734286323,1.16628504623,-0.611556875644,0.016894272845,1.03405170204e-06,-0.0185926688637,-0.5547307559,1.16627225295,-0.611548167813,0.0168957553901,-1.19284359416,-0.202676732232,left_gripper,0.00882396510831,0.00575235708912,0.355239235853,-0.222645260164,-0.507298982523,-0.470150940585,0.687047977601
joint_states,-1.51004267557,2.39809555084,2.26068447243,-1.8535832882,2.35566814303,-1.29149864971,-0.645851590239,-0.265862900656,-0.157399532262,0.00287861082227,-0.509606154388,-0.000335078928393,0.000970498511786,0.10232299536,-4.36332283642e-05,-2.52254594724e-05,-0.161098098958,1.23763846437,-1.79220163155e-08,-0.00490285901781,-0.566165319407,1.21132326758,-0.6451788583,0.00320140597292,-1.42031755868e-06,-0.00490454821931,-0.566156995293,1.21130611098,-0.645171109207,0.00320193927254,-1.17235488389,-0.200193121463,left_gripper,0.0115437965757,-0.0222869554166,0.387131188766,0.871100746095,-0.395584942162,0.231757095864,0.17602469203
joint_states,-1.31684816182,2.26604118385,2.30075588556,-0.0794923225352,2.37884275779,-1.29843633348,-0.643320862824,-0.265868067749,-0.157394365169,0.00287861082227,-0.509599443223,-0.000336037666386,0.000992315127436,0.102344811975,-4.36332283642e-05,-2.52254594724e-05,-0.156952941985,0.604542094825,8.00201070739e-07,0.0899182269244,-0.619268858069,1.10785142287,-0.488526822766,-0.0916225277059,-6.02194472066e-07,0.089918436214,-0.619265327646,1.10785062873,-0.488522908624,-0.0916219944063,1.06255493594,0.291484632467,left_gripper,-0.00124060620401,-0.0178287286418,0.657255550673,0.841449679393,0.36732076339,0.2565875088,0.301994609489
joint_states,-1.35314492457,2.20599852767,2.28655601716,-0.108871889575,2.36847208892,-1.30122886029,-0.628529197413,-0.265862900656,-0.157387131239,0.00287956956026,-0.509602319437,-0.000336996404378,0.000992315127436,0.102301178744,-4.36332283642e-05,-2.52254594724e-05,-0.117028535345,0.586128871217,-8.3604510337e-07,0.119382808395,-0.567892006531,0.986858654139,-0.418954082869,-0.121083312194,-2.23844064617e-06,0.119384916175,-0.567888476108,0.986851315017,-0.418948251252,-0.121082778894,1.12090037458,0.504754460776,left_gripper,-0.00126475217119,-0.0179528285942,0.658338684437,0.839653438743,0.366036738109,0.2619328692,0.303957860886
joint_states,-1.47027155936,2.16223738211,2.22020271944,-1.76678490279,1.87348141586,-1.2769906003,-0.639153889234,-0.265863934075,-0.157381964146,0.00288052829825,-0.509589855843,-0.000334120190401,0.000970498511786,0.10232299536,-4.36332283642e-05,-2.52254594724e-05,-0.105989327826,1.19876125528,2.4364472444e-06,-0.0050509413216,-0.618440508444,1.20600546751,-0.587548158838,0.00334379280348,1.85217478865e-06,-0.00505263052309,-0.618438895496,1.20600249171,-0.587546162172,0.00334337685757,1.16132268581,-0.184946311169,left_gripper,0.0203835952515,-0.0241817225316,0.390271160198,0.819628542107,-0.187330744455,0.468564113144,0.271226689354
joint_states,-1.45466280429,2.03752752137,2.18701121014,-1.78348611862,-1.56355114379,1.26591048663,0.622239194413,-0.265866000912,-0.157397465425,0.00287765208427,-0.509603278174,-0.000334120190401,0.000970498511786,0.10232299536,-4.36332283642e-05,-2.52254594724e-05,-0.0741807022089,1.19254351982,-4.1085374507e-06,0.0450644768074,-0.619169149318,1.16403793482,-0.544861308463,-0.0467611836246,-3.87468681939e-06,0.0450637368514,-0.619166577633,1.16403277736,-0.544858353059,-0.0467615995705,1.16897820868,0.089177973102,left_gripper,0.0207121633674,-0.0273027163511,0.378839753988,0.101813016433,0.730477082166,-0.32435494263,0.592310065174
joint_states,-1.12301086167,0.695296527983,1.99210265249,-2.17396188691,-2.38687314721,0.313484313812,0.59226316451,-0.265863934075,-0.157395398588,0.00287956956026,-0.509602319437,-0.000334120190401,0.000970498511786,0.10232299536,-4.36332283642e-05,-2.52254594724e-05,0.552436132488,1.19716864234,-1.65416818998e-06,0.011435555166,-0.536408009598,1.06185763376,-0.525443029164,-0.0131436529297,-2.23844064617e-06,0.0114348152101,-0.53641119034,1.06186338461,-0.525445826189,-0.0131421703845,1.19361106392,-0.20263023344,left_gripper,0.0140666771947,-0.00527911112629,0.432477173724,-0.538464459843,0.248954968973,-0.508947676604,0.623738495998
joint_states,-1.51173438188,0.631055091892,2.11756310618,-0.670693311876,1.39669430106,-1.30024711258,0.335481598311,-0.265866000912,-0.157394365169,0.00288052829825,-0.509601360699,-0.000336037666386,0.000970498511786,0.10232299536,-4.36332283642e-05,-2.52254594724e-05,0.760392112863,0.429616470544,-1.65416818998e-06,-0.0208122142189,-0.531064962766,0.978861773673,-0.447795797895,0.0190993702276,-2.23844064617e-06,-0.0208120049293,-0.531066226032,0.978866433689,-0.447796677444,0.0190980050361,0.271724563078,-0.189097167307,left_gripper,-0.00840468857108,-0.00657370160078,0.642420623643,0.0572739464859,0.673928135564,0.736528295644,0.00816289556936
joint_states,-0.685636058921,2.18907216383,1.67245173591,-0.216493105439,1.74739874121,1.3001625732,0.209381559854,-0.265866000912,-0.157396432006,0.00288244577423,-0.509600401961,-0.000333161452408,0.000970498511786,0.10232299536,-4.36332283642e-05,-2.52254594724e-05,-0.184005545391,0.933842091445,-1.65416818998e-06,0.0155619255156,-0.586738877986,1.21489137507,-0.628141125437,-0.0172880589445,-1.42031755868e-06,0.0155611855597,-0.586757398537,1.21493312333,-0.628165014698,-0.0172856271538,0.614948929415,-0.200535870295,left_gripper,-0.0134894238805,-0.0373853441571,0.720690553829,0.0282479230495,0.939781713147,-0.284360461608,-0.187487371182
joint_states,-0.229073772351,2.13744876929,1.76898322942,-0.0525239815462,-1.24365862523,-1.30037801228,-0.646266105936,-0.265866000912,-0.157397465425,0.00288052829825,-0.509603278174,-0.000335078928393,0.000970498511786,0.10232299536,-4.36332283642e-05,-2.52254594724e-05,-0.184529144166,1.2433980509,-1.65416818998e-06,0.0377619308908,-0.559684250578,1.18560147773,-0.625907265915,-0.0394643331812,-2.23844064617e-06,0.0377630894259,-0.55968263763,1.18559850193,-0.625906227987,-0.0394647491271,1.06446330391,0.0710559075691,left_gripper,-0.0184920425296,-0.0211867053861,0.747066348094,0.853948137938,-0.19383659786,-0.378719496578,0.299618914546
joint_states,0.26569606803,0.15825779855,-0.00221905867082,-0.509243751427,-0.00019366507447,-0.00146034971004,0.102261977013,0.506387077435,-0.268544739988,-0.390404342314,-2.17744306456,-1.34031523405,0.282841172709,0.0184162915701,-4.36332283642e-05,-2.52254594724e-05,0.755941523271,-0.651636817682,-1.65416818998e-06,0.0105527568166,-0.48010228604,0.995547121322,-0.515498039969,-0.0122646515624,-2.23844064617e-06,0.0105529661061,-0.480114095425,0.995570325461,-0.515511383111,-0.0122650675083,1.19370549961,-0.202796574481,right_gripper,0.0144188077195,0.00333924501508,0.36780199072,-0.0476271968247,0.589994443384,0.784060299974,0.186782367751
joint_states,0.265896551245,0.157453798851,-0.00291030876336,-0.509408654362,0.000296250039661,-0.00098038416574,0.102523776401,0.461167778177,-0.365078441619,-1.0968494733,-2.17808637776,-2.38691676979,-0.586660044019,0.646276673359,-4.36332283642e-05,-2.52254594724e-05,0.760479379326,-0.983380275255,-1.79220163155e-08,0.000688197195457,-0.498697968141,1.00772406535,-0.50904093959,-0.00239724420465,-1.42031755868e-06,0.000688406485041,-0.498678139172,1.00768072881,-0.509018809427,-0.00239766015056,1.13418992126,-0.202895324494,right_gripper,0.0131184473356,0.00647075846468,0.458877716836,-0.262554589094,0.564599433539,0.493836732298,0.606974339842
joint_states,0.26590068492,0.157453798851,-0.00290743254938,-0.509405778148,0.000296250039661,-0.00098038416574,0.102523776401,0.467639045676,-0.326749977826,-0.247325160538,-2.17808350154,-2.24511462702,0.356319534218,-0.0656649451447,-4.36332283642e-05,-2.52254594724e-05,0.760566645789,-0.672493502243,2.4364472444e-06,0.00751422185244,-0.507892265489,0.990053697501,-0.48217805978,-0.00923655829915,-3.87468681939e-06,0.00751538038756,-0.507925167109,0.990103081579,-0.482195237874,-0.00923982198167,-0.162478286313,-0.0786534267936,right_gripper,0.010931843836,0.00351999184976,0.366242393818,-0.413572522683,0.510925057194,0.602447062223,0.452737110951
joint_states,0.265898618083,0.157450698595,-0.00290935002537,-0.50940481941,0.000295291301668,-0.00098038416574,0.102523776401,0.565292973109,-0.218546912957,-0.337786883813,-2.17808158407,-0.0448368203229,-0.0878231271834,-0.235834547214,-4.36332283642e-05,-2.52254594724e-05,0.760523012557,-0.590419394168,3.25457033101e-06,0.0158770750339,-0.511625591231,0.977103354452,-0.465496018711,-0.0175889697797,1.03405170204e-06,0.0158772843235,-0.511628771974,0.97711128696,-0.465499774474,-0.0175893857256,0.000841292590213,0.00602279206667,right_gripper,0.008602593434,0.00275291043684,0.35549543274,0.316742616317,0.545317337445,0.702099834786,-0.330694630263
joint_states,0.265899651501,0.157451732014,-0.00290839128738,-0.509406736886,0.000295291301668,-0.00098038416574,0.102523776401,0.42632090177,-0.34718169768,-0.266089580526,-2.17723501842,2.16551444646,-0.0258203055063,0.390389588401,-4.36332283642e-05,-2.52254594724e-05,0.757861385448,-0.728758554004,2.4364472444e-06,-0.00190514161179,-0.50522697387,0.994815173867,-0.489589104461,0.000187551392759,1.03405170204e-06,-0.00190588156774,-0.50523111335,0.994823106375,-0.489593818962,0.000187135446849,-0.621583875688,-0.111035281857,right_gripper,0.00417477139842,0.00294281897109,0.391232182618,-0.673149426905,-0.032403338964,0.0214349393065,0.738485217224
joint_states,0.265895517827,0.157452765433,-0.00290743254938,-0.509406736886,0.000294332563676,-0.00098038416574,0.102523776401,0.46282538167,-0.299739514936,-0.388526174587,-2.17808541902,1.93526201272,-0.36698854104,0.0908474555279,-4.36332283642e-05,-2.52254594724e-05,0.760435746095,-0.717522996945,-2.47229127703e-06,-0.00489811279013,-0.501876184586,0.997205184111,-0.495326192608,0.00317767483449,-1.42031755868e-06,-0.00489980199162,-0.501879365329,0.997210934958,-0.495327072157,0.00317725888858,-1.16451240711,-0.1592578854,right_gripper,0.00416551227952,0.00144124401779,0.378061006242,-0.571758987861,-0.046844655959,-0.1322399604,0.808337696066
joint_states,0.265898618083,0.157452765433,-0.00290743254938,-0.509405778148,0.000295291301668,-0.00098038416574,0.102523776401,0.640126950219,-0.212857943366,-0.419885535581,-2.17808541902,0.151526142858,-0.031514442191,-0.471606712543,-4.36332283642e-05,-2.52254594724e-05,0.760479379326,-0.584114392245,5.70893959173e-06,-0.00174851609817,-0.509191355469,0.996877934877,-0.487686968284,2.52304059218e-05,2.67029787526e-06,-0.00174830680859,-0.509266441561,0.997050582833,-0.487781804156,3.05099332341e-05,-1.19376637947,-0.197982271652,right_gripper,0.00572506974649,0.00146592344668,0.336316574709,0.280575046412,0.424650435836,0.739302198562,-0.440887638607
joint_states,0.265903785176,0.157457932526,-0.00290935002537,-0.509406736886,0.000296250039661,-0.00098038416574,0.102523776401,0.470203990731,-0.715824860368,-1.15060974748,-2.17808541902,-1.18004204511,0.700825711946,0.536844529259,-4.36332283642e-05,-2.52254594724e-05,0.518707644694,-1.02557360992,-2.47229127703e-06,-0.0569813169174,-0.509622787565,0.993115659508,-0.483474273545,0.0552779653815,-1.94190254703e-05,-0.0569792091368,-0.5096106285,0.993053778846,-0.483458854548,0.0552557167882,-1.04548077103,0.254115901736,right_gripper,0.00871677624657,0.00522801057951,0.425190612034,0.301602497607,0.405614559706,0.862851176016,-0.000781306593222
joint_states,0.265906885432,0.157451732014,-0.00290839128738,-0.509406736886,0.000295291301668,-0.00098038416574,0.102523776401,0.269791047805,-0.879750891512,-1.22030616458,-2.15993171513,-0.0277674491058,1.01280331574,-0.385169281338,-4.36332283642e-05,-2.52254594724e-05,0.594498567461,-1.24334706734,8.98143193906e-06,-0.0298110619102,-0.54752457662,0.96224078504,-0.41472221337,0.0281115073564,-3.87468681939e-06,-0.0298108526206,-0.547535427266,0.962275988318,-0.414740350203,0.0281072944283,-0.153446495055,0.488284300804,right_gripper,0.000407166019643,0.00500717702129,0.430244574324,0.436548857104,0.173522598515,0.807695091646,-0.356291512804
joint_states,0.265895517827,0.157455865688,-0.00291030876336,-0.509405778148,0.000297208777653,-0.00098038416574,0.102523776401,0.654587577194,-0.823091647953,-1.47831022825,-0.991433354815,0.351015550633,1.21923213302,-0.327049817246,-4.36332283642e-05,-2.52254594724e-05,0.760348479632,-0.91389435441,-2.47229127703e-06,-0.0552138217274,-0.504855942267,0.950675797084,-0.445826550059,0.0535057239638,2.15928614544e-07,-0.0552136124378,-0.504847618154,0.950661912977,-0.445820718442,0.053509105,-0.686374909848,0.18041675352,right_gripper,0.00560059284257,0.00924558380269,0.715062356491,0.514693057583,0.505453592841,0.690109161381,0.0579402048532
joint_states,0.265898618083,0.157451732014,-0.00290743254938,-0.509405778148,0.000297208777653,-0.00100220078139,0.102501959785,1.07320169803,-0.960533226292,-0.866279697284,-1.10345038437,-1.33670750298,-0.0606396240836,0.579452379624,-4.36332283642e-05,-2.52254594724e-05,0.510679130134,-0.361955795082,2.37076475029e-05,0.00851757438511,-0.560640112356,0.96801237071,-0.407357188113,-0.0101905500639,-9.60154842744e-06,0.0085101897104,-0.560676848929,0.968034484019,-0.407343686591,-0.0101767273267,-0.103140553855,0.126518900431,right_gripper,0.022861726228,-0.00591227867145,0.660767543478,0.395321751145,0.811119728992,0.317133566966,0.291944856119
joint_states,0.265899651501,0.157450698595,-0.00290743254938,-0.50940481941,0.000295291301668,-0.00098038416574,0.102523776401,0.98784235211,-0.776039064035,-0.65633141675,-1.05641661594,-1.61330245506,1.27028301364,0.0986359873149,-4.36332283642e-05,-2.52254594724e-05,0.638917196925,-0.398891325377,1.61832415735e-06,0.0214396538811,-0.531112899665,0.918893351405,-0.387792221901,-0.0231458531537,-1.42031755868e-06,0.0214436601528,-0.53111032798,0.918891466436,-0.387795977664,-0.0231538630639,0.0652200694128,0.193019364431,right_gripper,0.019200955245,4.39271988437e-05,0.564880874208,0.0955616357416,0.481170216287,0.823791226685,0.284097186837
joint_states,0.265898618083,0.157445531502,-0.00290935002537,-0.509401943196,0.000295291301668,-0.00098038416574,0.102523776401,0.283458009267,-1.13976315402,-0.757468687571,-1.46266937664,-0.55831675557,0.865519343487,-0.646030554664,-4.36332283642e-05,-2.52254594724e-05,0.420096541956,-1.03286035955,1.55264166342e-05,-0.0054173500989,-0.555446628651,1.07569918556,-0.520285018765,0.00371399856293,-1.12377946015e-05,-0.00543327798345,-0.555495828818,1.07576602293,-0.520302196859,0.00369744544289,1.02849912434,-0.127627201554,right_gripper,0.00646099666404,0.0104607139247,0.56732258446,0.292904498194,0.361028283426,0.883946514623,-0.05004091116
joint_states,0.265897584664,0.157457932526,-0.00290647381139,-0.509406736886,0.000296250039661,-0.00098038416574,0.102523776401,0.341897833135,-1.23136124824,-1.2270518451,-0.687606408801,-1.31113412577,0.308126630247,0.27334344544,-4.36332283642e-05,-2.52254594724e-05,0.677183540775,-1.24330343411,2.4364472444e-06,-0.0162624803598,-0.560884590544,1.06485741841,-0.503983596679,0.0145610273149,1.03405170204e-06,-0.0162641695613,-0.560889688763,1.0648609876,-0.503980641276,0.014560611369,1.19361873383,-0.202805682492,right_gripper,0.116485469281,-0.0768065516577,0.769360935038,-0.393170298817,-0.175696632873,-0.635114328415,0.641231314867
joint_states,0.265906885432,0.157456899107,-0.00290935002537,-0.509402901934,0.000294332563676,-0.00098038416574,0.102523776401,1.51108907643,-0.594373368585,-1.45640594134,-1.30400015637,1.40424867707,-0.29868071744,0.435920865263,-4.36332283642e-05,-2.52254594724e-05,0.544320351467,-0.313086576026,4.07269341807e-06,-0.0249404830596,-0.475931775773,0.735560694283,-0.259621415907,0.0232304868048,9.21528257081e-06,-0.0249364767878,-0.475940708944,0.735595897561,-0.259640511478,0.0232310201045,-0.547928350051,0.557560311292,right_gripper,0.00365666998123,-0.000372525496717,0.616575242138,0.841599417681,0.258636925271,-0.00545364757278,-0.474117726702
joint_states,0.265896551245,0.157449665177,-0.00290839128738,-0.509400984458,0.000293373825683,-0.00098038416574,0.102523776401,0.806057813517,-1.1577012347,-1.55889215651,-2.08599959358,1.29194594359,-1.08621690917,0.325310623918,-4.36332283642e-05,-2.52254594724e-05,0.190542112087,-1.2427362021,-9.01727597213e-06,-0.0450436050434,-0.547478557196,1.08724781105,-0.539755069915,0.0433877157843,-3.87468681939e-06,-0.0450433957538,-0.547459686965,1.08719902036,-0.5397291048,0.0433863505928,-1.18501262223,0.0670536558197,right_gripper,-0.02323738828,-0.00927046082288,0.392115662557,-0.11605434277,-0.503062467234,-0.0150246013741,0.856290724543
joint_states,0.265901718338,0.157458965944,-0.00290743254938,-0.509406736886,0.000296250039661,-0.00098038416574,0.102523776401,1.51064987351,-1.9406315944,-2.2354591767,-2.03960434465,1.52677826872,-1.28682069007,-0.468486936505,-4.36332283642e-05,-2.52254594724e-05,0.0530538002615,-1.24179808763,-8.3604510337e-07,0.00152733025022,-0.622004137562,1.17459281347,-0.552549428424,-0.00322783404958,1.85217478865e-06,0.00152374255765,-0.622010194518,1.17460183681,-0.552557977877,-0.00322635150441,-0.764152529483,-0.0664736193378,right_gripper,-0.0186772067268,-0.0199843475989,0.265502551909,-0.0482591120939,-0.346993255648,0.416843901542,0.838753778162
joint_states,0.265896551245,0.157453798851,-0.00291126750135,-0.509410571838,0.000296250039661,-0.00098038416574,0.102523776401,1.4724040832,-1.66958345428,-2.28375176812,-2.16811166768,-1.63108033365,-1.30152508902,0.62867066453,-4.36332283642e-05,-2.52254594724e-05,-0.184354611241,-0.834765489447,3.25457033101e-06,-0.00352360525247,-0.605797630538,1.16977352307,-0.563972791604,0.00180601503344,1.03405170204e-06,-0.00352339596289,-0.605798893804,1.1697749106,-0.563976547367,0.001804649842,-1.19357223503,-0.202745761368,right_gripper,0.00937985228035,0.0138089145279,0.407856570604,-0.337409087889,0.767914271934,0.340427595941,0.424937442798
joint_states,0.265897584664,0.157456899107,-0.00290743254938,-0.509408654362,0.000294332563676,-0.00098038416574,0.102523776401,1.29096160618,-1.08868023742,-2.21773882238,-2.00687207085,-2.38718042274,1.30010632723,-0.645943288202,-4.36332283642e-05,-2.52254594724e-05,0.752363598304,-1.24334706734,-1.79220163155e-08,-0.017291462522,-0.555721786455,1.09276632398,-0.53703513023,0.0155729230574,5.94279022259e-06,-0.0172959994601,-0.555742224482,1.09281025391,-0.537056143277,0.0155706086204,-1.19380568773,-0.202899638815,right_gripper,-0.0091301805106,-0.0176103233871,0.466431390344,0.838073075107,0.309770435286,-0.353005004704,0.277602710465
joint_states,0.265906885432,0.15745483227,-0.00291126750135,-0.509402901934,0.000293373825683,-0.00098038416574,0.102523776401,1.51172979598,-1.55934662153,-1.70482550129,-0.300849585179,-2.15862783146,0.7565235317,-0.24342672946,-4.36332283642e-05,-2.52254594724e-05,0.168725496437,-0.381219866701,-4.1085374507e-06,0.0164950338785,-0.626903288703,1.08962582216,-0.462708008629,-0.0181718065395,2.15928614544e-07,0.0164923954315,-0.62689496459,1.0896064839,-0.462700259536,-0.0181674762577,-0.23708919436,0.0217360283936,right_gripper,0.00489345682672,0.00207281505347,0.694038630807,-0.495328686761,0.764080373889,0.40874406482,-0.0613103888695
joint_states,0.265905852013,0.157457932526,-0.00290743254938,-0.509406736886,0.000296250039661,-0.00098038416574,0.102523776401,1.318855642,-2.27225666812,-1.94871981792,-0.0645609370411,-0.701990354901,-1.3002379087,-0.58967823644,-4.36332283642e-05,-2.52254594724e-05,-0.184223711547,-0.600258687826,4.89081650468e-06,-0.00964718821203,-0.633357512868,0.991753211861,-0.358398273791,0.00793339497515,1.85217478865e-06,-0.00965172515013,-0.633354941183,0.991744781907,-0.358390524698,0.00793392827478,-0.215181072495,0.527310210155,right_gripper,-0.00802193622779,-0.0176320338721,0.653753193846,0.273351779807,0.879221251152,-0.216426851824,-0.324666311478
joint_states,0.265904818594,0.157457932526,-0.00290647381139,-0.509405778148,0.000295291301668,-0.00098038416574,0.102523776401,1.36224475686,-2.32682013869,-1.66459014396,-0.0656615682565,1.74281357677,1.29779376597,-0.607676944352,-4.36332283642e-05,-2.52254594724e-05,-0.169912011681,-0.35549807685,1.61832415735e-06,-0.0773881974731,-0.635893374858,1.16315108939,-0.527248332804,0.0756857951827,2.15928614544e-07,-0.0773879881835,-0.635889844435,1.16314156861,-0.527245377401,0.0756844299912,-1.19332536,0.16914151536,right_gripper,0.016312428679,-0.0109702904296,0.620069935619,0.891092310593,0.027047432477,0.315236278412,0.325344462333
joint_states,0.265898618083,0.157455865688,-0.00290647381139,-0.509408654362,0.000295291301668,-0.00098038416574,0.102523776401,1.48910102811,-2.30871671102,-2.25906042986,-0.0597873805768,2.28277385536,1.29729198381,-0.617123538928,-4.36332283642e-05,-2.52254594724e-05,-0.151280621916,-0.247942161696,2.4364472444e-06,-0.00405328426215,-0.657027795163,1.2382842412,-0.581252126441,0.00233949102527,1.03405170204e-06,-0.0040540242181,-0.65703385212,1.23829217371,-0.581256840942,0.00234097357043,-1.10075489251,-0.202548261341,right_gripper,0.0224690062997,-0.0102646152771,0.603376022515,0.877698913418,0.0722077346813,0.340042488463,0.329851127748
joint_states,0.26590068492,0.157458965944,-0.00290647381139,-0.509405778148,0.000293373825683,-0.00098038416574,0.102523776401,1.47216433008,-2.11293141675,-2.19603395297,-1.7794555841,0.282405383681,-1.2662258049,-0.609247740678,-4.36332283642e-05,-2.52254594724e-05,-0.0957791517023,-1.21014217832,-8.3604510337e-07,0.038099862302,-0.574424847211,1.19375543782,-0.619345663094,-0.0398250464853,1.03405170204e-06,0.0381019700826,-0.574433780382,1.19377209698,-0.619353253809,-0.0398254624312,1.12585129757,-0.0685497664604,right_gripper,-0.0167151727836,-0.0198782861093,0.358356257344,0.238691087594,-0.721401355112,0.207618458935,0.616036707555
joint_states,0.265898618083,0.157457932526,-0.00290839128738,-0.509407695624,0.000295291301668,-0.00098038416574,0.102523776401,1.47947473351,-2.01186410756,-2.19052408573,-1.84353571404,0.800573547711,-1.26090255068,-0.64655415344,-4.36332283642e-05,-2.52254594724e-05,-0.084085445714,-1.19000544208,1.61832415735e-06,0.0193949789943,-0.56216162955,1.19287622821,-0.630741222872,-0.0211116199677,2.15928614544e-07,0.0193942390383,-0.562162892817,1.19288197906,-0.630744019897,-0.0211120359137,1.18557108712,-0.184908920387,right_gripper,-0.0217771256443,-0.018973861229,0.321206872591,0.0729018370318,-0.546094892092,0.253836060657,0.795004997027
joint_states,0.265902751757,0.15745483227,-0.00290743254938,-0.509402901934,0.000294332563676,-0.00098038416574,0.102523776401,1.50260057575,-0.614367952356,-2.15419366825,-0.771842087554,-1.6589383835,1.29969181154,0.364755065013,-4.36332283642e-05,-2.52254594724e-05,0.760130313476,-0.507625337777,-1.65416818998e-06,0.0528843615417,-0.476321023398,0.979606811097,-0.503282759207,-0.0545886623232,1.03405170204e-06,0.0528817230946,-0.476328997831,0.979625651914,-0.50329130866,-0.0545881290235,1.03034565372,-0.18175563113,right_gripper,0.00570189130172,0.00546159775968,0.629412842881,-0.216450528426,0.632690581656,0.740208673047,-0.0703058815026
joint_states,0.265890350733,0.157444498083,-0.00291030876336,-0.509406736886,0.000296250039661,-0.00098038416574,0.102523776401,1.51188170852,-0.614401021752,-0.465826342702,-2.17536739681,0.239332161895,-0.0916410349222,-0.00329124100154,-4.36332283642e-05,-2.52254594724e-05,0.760566645789,0.468340963323,1.61832415735e-06,0.116213277546,-0.412774910522,0.785028779439,-0.372253955258,-0.117909984364,-7.96530225422e-06,0.116209689854,-0.412760833981,0.785014895331,-0.372241412475,-0.11791040031,0.837768746867,0.595105929182,right_gripper,0.0390758574659,-0.0132410601293,0.22052852818,0.657595404051,0.124553554804,0.677879682563,-0.304193741759
joint_states,0.265890350733,0.157443464665,-0.00291030876336,-0.509408654362,0.000294332563676,-0.00098038416574,0.102523776401,1.34120538685,-0.501279917594,-0.293350336602,-2.17709791889,2.33694542815,0.240276955576,0.622322029376,-4.36332283642e-05,-2.52254594724e-05,0.760479379326,0.161555714054,8.98143193906e-06,0.114734353,-0.376164541543,0.741282101738,-0.36511327469,-0.116418719625,5.94279022259e-06,0.114754496446,-0.376185938308,0.741359847416,-0.365151545021,-0.116464699357,1.03163563568,0.670001103044,right_gripper,0.0311357620442,-0.0109077998289,0.23622080536,-0.552199616556,0.231853914205,0.0701470142749,0.797746038744
joint_states,0.265890350733,0.157445531502,-0.00291126750135,-0.509405778148,0.000296250039661,-0.00098038416574,0.102523776401,0.65559826062,-0.233635858462,-0.292855627798,-2.1780748729,2.27621225254,-0.100367681182,0.531564908272,-4.36332283642e-05,-2.52254594724e-05,0.760566645789,-0.562821375371,1.06176781132e-05,0.0119149241622,-0.483829859355,0.800100788361,-0.316211884648,-0.013624920417,-1.42031755868e-06,0.0119198796795,-0.483850297381,0.800084722592,-0.316181125843,-0.0136471690102,-0.0778456900314,0.616515027922,right_gripper,0.0064461238795,-0.00157342590242,0.35003041182,-0.631659302969,-0.0583485071944,0.0466019735025,0.771641259101
joint_states,0.265904818594,0.157452765433,-0.00290647381139,-0.509401943196,0.000296250039661,-0.00098038416574,0.102523776401,0.496573734067,-1.35336458558,0.258133972664,-2.17781217869,-1.92317520285,0.209755510282,-0.644328858643,-4.36332283642e-05,-2.52254594724e-05,0.760523012557,-0.55169490139,7.3451857654e-06,-0.00361378357849,-0.531630618181,1.06227214946,-0.530648976463,0.00190283807822,2.55777443074e-05,-0.00360882806122,-0.531646262518,1.06232153353,-0.530678618151,0.00187774174835,-0.305784688993,-0.202553055031,right_gripper,0.0248378527399,-0.00262238367324,0.358016489333,0.0994380255399,0.596495100039,0.711142507466,0.358583335896
joint_states,0.265901718338,0.157451732014,-0.00290743254938,-0.509403860672,0.000296250039661,-0.00098038416574,0.102523776401,1.11635932711,-1.6347438118,0.481355980704,-0.549782069961,-0.963430535533,0.0321900755068,-0.359163875483,-4.36332283642e-05,-2.52254594724e-05,0.388811515114,-0.398149560445,-5.74478362436e-06,-0.0835497502541,-0.552311555416,0.987697503011,-0.43534850254,0.0818131751244,2.15928614544e-07,-0.0835495409646,-0.552309942469,0.987695618042,-0.435346505874,0.081826048616,-1.02803701263,0.223543185265,right_gripper,0.00923542583002,0.0110852386908,0.727983839956,0.878397530143,0.239369851941,0.411540091336,-0.041888020294
joint_states,0.265899651501,0.157451732014,-0.00290743254938,-0.509403860672,0.000296250039661,-0.00098038416574,0.102523776401,1.39299722863,-2.32742778884,1.05973480813,-0.0664525271002,-2.3865965513,-1.29079131412,0.645905790893,-4.36332283642e-05,-2.52254594724e-05,-0.182696548452,-0.517813697285,4.07269341807e-06,0.00735095162007,-0.647894857047,1.23412163093,-0.586196338268,-0.00905810013819,2.15928614544e-07,0.00734926241858,-0.64789803779,1.23412847261,-0.586201052769,-0.00905661759302,-0.657029378006,-0.183924296469,right_gripper,-0.0168809073756,-0.00426265439615,0.640149142912,0.473296345326,0.793821042579,-0.277928824484,-0.261905117135
joint_states,0.265905852013,0.15745483227,-0.00290839128738,-0.509407695624,0.000296250039661,-0.00098038416574,0.102523776401,0.867485250662,-2.53408258033,2.19400430464,-1.12094735274,-1.73549169472,-1.20411390014,-0.0698755519651,-4.36332283642e-05,-2.52254594724e-05,-0.184529144166,-1.04341960152,1.38901704605e-05,-0.0239751003484,-0.640517368195,1.17035275422,-0.529827338003,0.0222594086204,-4.692809906e-06,-0.0239748910588,-0.640545476126,1.17041195577,-0.529888618046,0.0222893685317,-0.177368925442,0.163460034017,right_gripper,-0.00174017613805,0.0181198228762,0.699637079886,0.867766713269,-0.220941605372,0.0635504945907,-0.440598539483
joint_states,0.265901718338,0.157457932526,-0.00290935002537,-0.509408654362,0.000296250039661,-0.00098038416574,0.102523776401,0.869953054365,-2.79951202333,2.25019306217,-2.06081642274,2.36764901236,1.30156804048,0.631615907643,-4.36332283642e-05,-2.52254594724e-05,0.760348479632,-1.24334706734,1.61832415735e-06,0.00451555520087,-0.572579276576,1.1747924355,-0.60220822148,-0.00622744994668,5.12466713598e-06,0.00451481524492,-0.572588209747,1.17482654795,-0.602230193264,-0.00622881513813,-1.17625071572,-0.201620202965,right_gripper,0.0142719952895,-0.00228352639502,0.513811523829,0.100583321476,0.814319226277,0.332706437018,0.464837197224
joint_states,0.265901718338,0.15745483227,-0.00290935002537,-0.5094096131,0.000295291301668,-0.00098038416574,0.102523776401,1.31953976514,-2.79951098991,2.08974346544,-2.16471390024,2.38635111438,1.30154622387,0.645556725043,-4.36332283642e-05,-2.52254594724e-05,0.531884880546,-0.72576967766,2.4364472444e-06,0.0270886140721,-0.580242469349,1.17955173021,-0.599299410411,-0.0287910163625,-1.42031755868e-06,0.0270888233617,-0.580242773878,1.17956293521,-0.599306042388,-0.0287914323085,0.367824624487,-0.20290203566,right_gripper,0.0192580093551,-0.0122018372005,0.432024329319,0.250743619336,0.748202533392,0.287728664577,0.542708781916
joint_states,0.26590068492,0.157458965944,-0.00290839128738,-0.509407695624,0.000295291301668,-0.00098038416574,0.102523776401,1.28164327034,-2.79951409016,2.23378042647,-1.99717060111,2.34460670345,1.30156804048,0.645404008733,-4.36332283642e-05,-2.52254594724e-05,0.424983463861,-0.829900384157,-8.19915288508e-06,0.0184799062965,-0.573817007324,1.18862635149,-0.614838635792,-0.0201936995334,1.16696518306e-05,0.018490557287,-0.573822105543,1.18863537482,-0.614841432817,-0.0202055064258,0.930777836988,-0.202896762601,right_gripper,0.0164750986105,-0.00887090367771,0.481977254945,0.298514302841,0.766708874108,0.283250994316,0.492763216547
joint_states,0.26590068492,0.15745483227,-0.00290839128738,-0.509407695624,0.000295291301668,-0.00098038416574,0.102523776401,0.869550021097,-2.79951305675,2.24842323183,-2.0644366174,2.36232034659,1.30154622387,0.626750802353,-4.36332283642e-05,-2.52254594724e-05,0.760130313476,-1.24304163472,-4.1085374507e-06,0.00417572529861,-0.581083282569,1.17490260941,-0.593840356282,-0.00588382306226,-4.692809906e-06,0.00417308685158,-0.581144946329,1.1750338058,-0.59390834749,-0.00588044202603,1.11751171514,-0.142889831024,right_gripper,0.0137634534525,-0.00353992198341,0.513949023831,0.102412851534,0.812976919014,0.338729674725,0.462430907761
joint_states,0.26590068492,0.157458965944,-0.00290839128738,-0.509408654362,0.000297208777653,-0.00098038416574,0.102523776401,0.854700828716,-2.23566848131,2.16650578155,-0.424433788617,2.21874933223,-1.300107009,-0.561578435483,-4.36332283642e-05,-2.52254594724e-05,-0.0850017435713,-1.09058712456,2.4364472444e-06,0.00664281444942,-0.612246102275,1.19967210399,-0.587438862706,-0.00835091221308,1.03405170204e-06,0.006643023739,-0.612248324279,1.19968112733,-0.587441659731,-0.00835132815899,1.01446128266,-0.150446124512,right_gripper,-0.0228806039138,0.00342885282197,0.717219981664,-0.53232748341,-0.620526966369,0.240596948335,0.523150879639
joint_states,0.265897584664,0.157458965944,-0.00290839128738,-0.509405778148,0.000297208777653,-0.00098038416574,0.102523776401,0.574401524967,-1.90664658913,2.30433683155,-0.0534443700189,2.38715741303,-1.29297297569,-0.646466886977,-4.36332283642e-05,-2.52254594724e-05,0.0448507527771,-1.24317253441,-8.3604510337e-07,-0.0127645105557,-0.601030785239,1.16027347779,-0.559259635633,0.0110526158099,-6.02194472066e-07,-0.0127652505117,-0.601027254816,1.16027377448,-0.559260515182,0.011052199864,1.19332392189,-0.198144777742,right_gripper,-0.0194724777301,0.010964036854,0.754790441991,-0.586307266162,-0.520742895774,0.110683149756,0.610589769408
joint_states,0.265899651501,0.157459999363,-0.00291030876336,-0.5094096131,0.000297208777653,-0.00098038416574,0.102523776401,1.49958609359,-2.43121712272,1.7390697049,-0.237948702972,-0.417328581355,-1.30161235548,-0.642714429085,-4.36332283642e-05,-2.52254594724e-05,-0.184398244472,-0.188164634815,2.4364472444e-06,0.0491879994204,-0.59160830825,1.238511134,-0.646910339115,-0.0508979956751,-3.87468681939e-06,0.0491882087099,-0.591613406468,1.23852015734,-0.64691313614,-0.0508993608665,0.831190845501,-0.197993776508,right_gripper,0.028142515725,0.00382053681129,0.583262899661,-0.400419326663,0.698975886877,-0.449504449567,0.386060645778
joint_states,0.265902751757,0.15745483227,-0.00290743254938,-0.509403860672,0.000296250039661,-0.00098038416574,0.102523776401,1.28368840582,-2.00397085602,1.10321932852,-1.57271428215,1.07613593897,-0.639325354198,0.211558789919,-4.36332283642e-05,-2.52254594724e-05,0.759868514088,-0.18297228029,-1.39260144931e-05,0.0401265015236,-0.591711851953,1.04693288699,-0.455235604716,-0.0418611781623,-1.6146533123e-05,0.0401181676034,-0.591692981722,1.04695172781,-0.455242236693,-0.0418540001439,0.0651601482883,0.0780700347217,right_gripper,0.0354328955562,-0.0238248575147,0.494454727707,-0.363161020817,0.729644091117,-0.463323179697,0.347944254749
joint_states,0.265902751757,0.157457932526,-0.00290743254938,-0.509407695624,0.000297208777653,-0.00098038416574,0.102523776401,1.50890236259,-2.26817156425,-0.0390105695429,-1.36346588035,-1.17506331872,0.0397386245217,0.264791332105,-4.36332283642e-05,-2.52254594724e-05,0.0218560398821,0.414715722055,-8.3604510337e-07,0.0773568607326,-0.614942073509,1.00005879744,-0.385130765234,-0.079059263023,-2.23844064617e-06,0.0773513745489,-0.61495580037,1.00009181905,-0.385148902067,-0.0790587297234,0.102837592653,0.474110318324,right_gripper,0.0314249585775,-0.000621310797952,0.419835986099,0.904184738949,0.202455813124,0.362262769409,0.10113005233
joint_states,0.26590791885,0.157459999363,-0.00290935002537,-0.509405778148,0.000297208777653,-0.00098038416574,0.102523776401,-0.0847159813615,-2.44718034039,0.125075520385,-1.48291408809,1.71141874247,0.113107902952,0.101232164577,-4.36332283642e-05,-2.52254594724e-05,0.0196307450858,-1.04939735421,8.00201070739e-07,-0.0133207684404,-0.624831455901,1.17323909247,-0.548393299227,0.0116202646411,3.48842096187e-06,-0.0133224576419,-0.624835595382,1.17324702498,-0.548393220038,0.0116151024675,0.184179800144,0.208506338592,right_gripper,0.00191555205076,0.00722906696946,0.61134053738,-0.273209768658,0.876057480503,-0.065017154707,0.391985309366
joint_states,0.265902751757,0.157456899107,-0.00290647381139,-0.509405778148,0.000297208777653,-0.00098038416574,0.102523776401,-0.289645997146,-1.95864924831,-0.431171799228,-2.06497063446,-0.117626126184,-0.304091238121,-0.357025847149,-4.36332283642e-05,-2.52254594724e-05,0.275321480503,-1.18274050906,-3.29041436364e-06,-0.0286662717925,-0.559003546603,1.15016147643,-0.591182734567,0.0269344428904,-1.42031755868e-06,-0.0286660625029,-0.55901919094,1.15019886137,-0.591203747613,0.0269321284535,0.682159338899,-0.0742115936747,right_gripper,0.00513605831173,0.00746275074144,0.390665984817,0.539597435196,-0.0281897187812,0.749064973608,-0.383329640125
joint_states,0.265904818594,0.157455865688,-0.00290839128738,-0.50940481941,0.000297208777653,-0.00098038416574,0.102523776401,-0.386711909374,-2.7988671701,-0.727587700561,-2.09042512816,-0.820448186294,1.1810094224,0.399312584202,-4.36332283642e-05,-2.52254594724e-05,0.608941167022,-1.24349978365,4.89081650468e-06,0.0154119447208,-0.57256777172,1.19060839102,-0.618060954185,-0.017135230413,1.85217478865e-06,0.0154112047648,-0.572575746153,1.19062505017,-0.618070462375,-0.0171356463589,-0.537683275864,-0.058983958141,right_gripper,0.0104137130955,-0.0156556573889,0.279094991321,0.814501701935,-0.495223194057,0.301919382359,0.0136254236303
joint_states,0.265901718338,0.157458965944,-0.00290839128738,-0.50940481941,0.000297208777653,-0.00098038416574,0.102523776401,0.417500673711,-2.799516157,0.995933670952,-1.8816445905,1.69911429907,1.21129088492,0.315929479188,-4.36332283642e-05,-2.52254594724e-05,0.172259788173,-0.964792518721,1.87989089819e-05,-0.0273164446388,-0.610696781679,1.17610470493,-0.565428155876,0.025592209701,3.48842096187e-06,-0.0273162353492,-0.610690375042,1.17607882169,-0.565388768429,0.0256117279114,-0.515440075071,0.0821159090497,right_gripper,0.0044126747868,0.00724966221664,0.570988151925,-0.108446022886,0.882552114316,0.331857273131,0.314979326159
joint_states,0.265897584664,0.15745483227,-0.00290839128738,-0.509407695624,0.000297208777653,-0.00098038416574,0.102523776401,1.4883517996,-2.38994548265,2.30040408831,-0.175713184931,2.38375101694,1.30095717524,0.642786014855,-4.36332283642e-05,-2.52254594724e-05,-0.17357720311,-0.248465760471,2.4364472444e-06,-0.00762909220025,-0.656199445538,1.23967614128,-0.583499408296,0.00592763915535,1.03405170204e-06,-0.00762698441959,-0.656198791328,1.23967098381,-0.58349741163,0.0059262739639,-1.18666452779,-0.2027112468,right_gripper,0.0228328432175,-0.00265391993943,0.606448281748,0.760772784788,0.334573650418,0.369974944538,0.415215345075
joint_states,0.26590068492,0.157452765433,-0.00291030876336,-0.509399066982,0.000298167515646,-0.00098038416574,0.102523776401,1.50059884385,-2.39215803195,2.29913759542,-0.142116129463,2.38759651503,1.3015898571,0.646647555825,-4.36332283642e-05,-2.52254594724e-05,-0.184441877704,-0.228372657458,-1.65416818998e-06,-0.0601005377522,-0.652359699878,1.18833837216,-0.535966137369,0.0583876937609,2.15928614544e-07,-0.0600965314805,-0.652381096642,1.18838775624,-0.535992902844,0.0583853793239,-1.193764462,0.0818743070756,right_gripper,0.0239031068187,-0.00213747375731,0.603263782713,0.76657190303,0.324455400544,0.370986770896,0.41166130054
joint_states,0.26590068492,0.157455865688,-0.00291030876336,-0.509402901934,0.000297208777653,-0.00098038416574,0.102523776401,1.30979566082,-1.03383464357,2.30470306946,-0.0525326101881,2.38760706115,1.3015898571,-0.338329007538,-4.36332283642e-05,-2.52254594724e-05,0.759650347931,-0.347207762903,1.61832415735e-06,-0.0275869796169,-0.539771262475,1.00710447346,-0.467330084491,0.0258807803443,-3.05656373278e-06,-0.0275858210818,-0.539777319432,1.00712876843,-0.467344386372,0.0258794151529,-1.03419978044,-0.202617769846,right_gripper,0.0290260981468,0.00564309210989,0.691405067648,0.393736897219,0.635726854725,0.602462299997,0.279037271762
joint_states,-1.33022886632,1.05039570603,-2.30397736439,-0.0525834233017,-2.38685493119,-1.30116341044,-0.213249918516,-0.265379260734,-0.15767442162,0.00358520072269,-0.509464261166,0.000398355635815,0.00131956436218,0.102235728897,-4.36332283642e-05,-2.52254594724e-05,0.760435746095,0.323107752941,1.61832415735e-06,-0.0539835995114,-0.487236255442,1.00818766843,-0.520948465455,0.0522622123102,2.15928614544e-07,-0.0539843394673,-0.487237518709,1.00819887343,-0.520957973646,0.0522646441009,-1.19374816345,-0.202891968911,left_gripper,-0.0376057588728,-0.00404486422525,0.68392946178,-0.473805441774,0.615992295644,0.559131314635,-0.288849559541
joint_states,-1.5106151895,1.0012628504,-2.30470792274,-0.0524491999827,-2.38760945799,1.29983532396,-0.646331555783,-0.265868067749,-0.157394365169,0.00288052829825,-0.509600401961,-0.000334120190401,0.000970498511786,0.10232299536,-4.36332283642e-05,-2.52254594724e-05,0.760479379326,0.405618193329,-2.47229127703e-06,-0.0576951495613,-0.476158996677,1.00254589162,-0.52639984968,0.0559747116057,-8.78342534083e-06,-0.0576987372539,-0.476178475966,1.00259636653,-0.526428532631,0.0559771433964,-1.18340338051,-0.202894845125,left_gripper,-0.00505081642714,-0.00246631646786,0.689270586394,-0.635003023704,0.527837455205,-0.146313284457,0.544748752693
